<?xml version="1.0" encoding="UTF-8"?>
<map version="1.10" tiledversion="1.11.0" orientation="orthogonal" renderorder="right-down" width="60" height="60" tilewidth="32" tileheight="32" infinite="0" nextlayerid="8" nextobjectid="485">
 <tileset firstgid="1" source="chao.tsx"/>
 <tileset firstgid="1009" source="nature.tsx"/>
 <tileset firstgid="1777" source="agua.tsx"/>
 <tileset firstgid="2049" source="town.tsx"/>
 <layer id="1" name="Chao_Grama" width="60" height="60">
  <data encoding="csv">
33,35,33,33,33,33,34,33,33,33,35,33,33,34,33,34,33,34,33,33,35,33,34,34,33,33,34,33,33,33,34,35,34,33,33,33,35,33,33,33,33,34,35,35,19,34,33,34,33,34,33,35,35,33,33,33,33,34,35,34,
33,33,33,19,33,33,33,33,34,33,33,33,33,33,34,33,33,33,33,33,34,34,33,33,33,34,33,33,33,33,35,33,35,33,33,33,33,33,33,33,33,33,33,33,33,33,33,19,33,19,33,33,33,34,33,33,35,33,33,35,
33,33,33,33,33,33,34,34,34,33,33,33,35,35,33,33,19,33,33,33,33,33,33,33,34,33,34,33,33,34,33,33,33,33,35,35,33,34,33,33,33,33,33,33,33,34,33,33,35,33,34,33,35,34,19,33,35,33,34,33,
33,35,33,34,33,33,34,33,33,33,33,33,33,35,35,33,33,35,33,33,33,33,33,33,35,33,33,33,33,34,33,34,33,33,19,33,33,33,35,33,34,34,33,35,33,35,33,33,33,35,33,33,33,33,33,33,33,33,34,33,
35,33,34,35,33,33,33,33,34,34,35,19,33,33,34,19,33,33,33,35,33,33,34,33,33,33,33,33,33,33,33,33,33,33,33,33,33,34,35,33,34,33,33,33,33,33,33,33,34,35,33,33,33,33,33,35,33,33,35,34,
33,19,33,33,33,33,19,35,33,33,33,33,33,33,35,35,33,19,35,33,35,33,33,33,34,33,34,33,33,33,33,33,34,33,19,33,33,33,34,33,33,33,34,33,33,33,34,35,33,33,33,33,33,33,33,33,33,33,19,33,
33,33,33,33,34,19,35,34,33,34,33,33,33,33,33,33,33,33,33,33,33,33,35,33,34,34,33,33,34,33,35,35,33,19,34,33,33,35,33,35,33,33,35,34,34,33,35,33,33,34,33,35,33,33,33,34,33,33,33,34,
33,33,35,33,33,33,33,33,33,34,33,33,33,35,33,33,34,35,33,34,33,33,34,33,35,33,33,34,33,33,33,33,33,33,34,35,33,35,19,35,19,33,35,33,33,33,33,34,34,19,33,33,33,33,34,34,35,19,19,35,
33,33,35,34,19,34,34,33,33,19,19,33,33,33,33,34,33,34,35,34,19,33,33,33,33,33,19,35,34,35,33,33,34,33,33,33,33,35,33,33,35,33,33,33,19,33,33,33,19,34,33,33,33,34,34,33,33,33,34,33,
33,34,33,34,33,19,33,33,33,33,33,33,34,34,33,33,33,33,33,33,34,33,33,33,34,33,33,19,33,33,33,34,35,19,34,33,33,33,33,33,35,33,33,34,33,33,33,33,33,34,33,33,34,33,33,33,34,34,33,33,
33,33,33,33,34,33,33,34,33,33,34,33,33,35,19,33,34,33,33,33,33,34,33,19,33,33,34,33,33,33,35,33,33,34,35,34,33,33,33,19,33,33,34,33,34,34,33,33,35,33,33,34,33,35,19,33,33,33,34,33,
33,34,33,33,33,33,33,34,33,33,35,33,33,33,34,33,33,33,33,33,33,33,33,33,33,33,33,34,33,33,19,33,35,34,33,33,34,34,33,34,33,33,34,34,33,34,33,33,34,33,33,33,35,33,33,33,33,33,35,33,
33,33,33,33,33,33,33,33,19,33,34,34,33,33,33,33,33,35,33,33,34,33,34,34,33,33,33,34,33,33,34,33,35,34,33,19,34,33,33,33,33,33,33,33,35,34,33,19,33,33,33,33,33,33,33,33,33,33,33,33,
19,35,33,33,33,33,33,33,33,34,33,19,33,33,19,34,33,33,33,33,34,34,19,35,33,33,34,33,33,33,33,33,33,33,33,34,33,33,33,33,33,33,34,34,33,33,33,33,33,33,33,33,33,33,33,33,33,33,33,34,
34,33,33,33,33,33,34,34,33,33,33,34,33,33,35,33,19,33,33,35,33,33,33,33,34,19,33,33,33,33,33,33,33,35,33,33,33,33,19,33,33,33,35,33,33,33,33,33,33,33,33,33,33,33,33,33,35,33,33,33,
33,33,33,34,33,35,33,33,34,33,33,33,33,33,35,35,33,33,33,33,34,33,19,33,33,35,33,33,33,19,33,33,34,33,33,33,33,35,34,33,33,33,33,33,33,33,33,33,34,33,34,35,34,19,33,19,35,33,33,35,
34,34,33,33,33,33,33,33,34,33,33,33,33,34,33,33,35,33,33,33,34,33,33,33,33,33,35,33,35,35,33,33,33,33,33,34,33,34,33,33,33,33,33,33,33,33,33,33,35,33,33,33,33,33,33,33,33,34,34,35,
33,34,33,33,34,33,34,33,34,33,35,33,33,33,33,33,33,33,33,33,33,34,34,33,33,33,33,33,35,33,33,34,33,19,34,33,33,33,35,33,33,33,33,33,35,33,34,35,33,33,33,34,33,35,34,33,34,33,33,34,
33,33,35,33,33,33,33,33,33,33,33,35,34,33,35,33,33,35,34,35,35,33,33,34,34,34,33,33,33,33,33,33,33,33,34,34,34,35,33,33,33,33,34,33,33,34,33,35,33,33,33,34,33,34,35,34,33,34,34,33,
33,33,33,33,34,33,19,33,34,19,34,35,34,33,33,33,35,34,33,35,33,33,33,33,34,34,33,33,33,34,33,34,33,33,33,33,33,33,33,33,34,33,33,19,33,33,33,33,34,33,33,33,33,33,33,33,33,33,34,34,
34,33,35,33,33,33,33,33,33,33,33,33,33,35,33,33,33,33,33,33,33,35,34,34,33,33,33,33,34,33,33,35,33,33,33,33,35,34,19,33,33,33,35,33,33,34,35,33,33,33,33,33,34,33,33,33,33,34,33,33,
33,19,33,33,33,34,35,33,33,19,33,33,34,33,33,33,33,34,33,34,33,33,33,34,33,35,33,33,33,35,33,34,34,19,33,33,33,33,33,33,33,33,34,35,33,33,33,33,33,34,33,33,34,33,33,33,33,33,33,33,
33,33,33,35,33,33,33,35,35,19,35,19,34,19,33,34,35,33,33,34,33,33,33,34,33,35,35,33,33,33,34,33,34,33,33,33,33,33,19,33,35,33,33,33,33,33,33,33,35,33,34,33,35,33,33,33,19,33,33,35,
33,33,34,33,34,34,33,33,33,33,33,33,34,33,33,33,33,33,33,33,33,33,34,33,34,35,33,33,33,33,35,35,33,33,33,34,34,34,33,33,35,34,33,33,33,33,34,33,33,19,33,33,19,33,33,33,33,35,33,33,
33,35,35,33,33,19,34,33,19,33,35,35,33,33,33,34,33,35,34,34,35,33,33,33,33,35,33,33,34,33,33,33,19,33,34,34,33,35,33,33,33,33,33,34,33,33,33,33,19,33,34,34,33,33,33,33,34,33,33,33,
34,33,33,35,34,33,33,33,33,33,33,33,33,33,33,35,33,33,33,33,34,19,33,33,33,35,35,34,33,33,33,33,34,33,34,34,33,33,33,33,33,34,34,33,33,34,34,33,33,33,33,35,19,33,34,33,33,33,33,33,
33,33,34,33,33,35,33,33,33,33,33,34,33,35,33,34,33,35,33,35,33,33,33,35,33,33,33,33,33,33,33,33,33,33,33,33,34,33,33,33,34,35,33,33,19,33,34,33,34,34,33,33,19,35,33,33,33,33,33,34,
35,35,33,34,33,33,33,19,33,35,33,35,33,34,33,34,33,33,33,33,34,33,33,33,33,33,33,33,33,34,33,35,33,33,34,33,33,33,33,33,33,33,34,19,34,34,33,33,33,33,33,33,35,33,33,33,33,33,33,33,
33,33,33,33,34,33,33,34,33,34,34,33,33,33,33,33,33,33,33,33,34,34,33,33,33,33,33,33,33,33,33,35,33,33,33,19,33,33,33,34,34,34,33,33,34,33,34,33,33,33,33,33,33,33,35,33,33,35,33,34,
33,34,33,33,33,33,35,33,34,33,35,33,35,33,33,34,33,33,35,33,33,33,33,33,33,33,33,33,33,34,35,33,33,33,33,35,33,19,33,33,33,33,35,33,33,33,33,33,33,34,33,34,34,19,33,34,33,33,34,34,
33,34,33,33,35,19,33,34,33,34,33,35,33,33,33,33,33,34,34,33,33,34,33,33,33,33,33,34,33,33,19,33,33,35,33,33,34,33,33,33,33,34,33,33,33,35,35,34,34,33,33,19,33,33,33,19,33,33,34,33,
33,33,33,33,33,33,35,33,33,33,33,33,33,33,33,33,35,33,33,35,33,33,33,33,33,33,33,33,33,33,33,33,34,33,33,33,33,33,34,33,33,33,34,33,33,34,33,34,33,33,33,33,34,33,33,33,35,33,33,33,
33,33,33,33,33,35,34,33,33,33,35,34,19,33,33,33,33,33,33,35,34,33,34,33,33,33,35,35,33,35,33,35,33,34,33,35,33,33,35,33,33,33,33,34,35,33,33,33,33,35,33,33,33,33,33,33,33,33,33,34,
34,33,33,33,33,34,33,33,33,33,19,33,33,33,35,35,33,33,35,34,33,33,33,33,33,33,34,33,33,33,33,19,33,33,19,33,34,33,33,35,34,35,33,33,33,33,33,33,33,33,35,33,33,34,33,33,33,33,33,33,
33,19,33,33,35,34,33,33,34,33,33,33,34,35,33,33,33,19,33,33,33,33,34,33,33,33,35,33,33,35,33,35,33,34,33,33,33,33,34,35,33,34,33,34,34,33,33,33,34,34,33,34,33,33,35,33,33,33,33,34,
33,33,33,35,33,33,33,34,33,34,35,33,19,33,34,19,35,33,33,33,33,33,33,33,33,33,33,35,34,33,33,34,34,33,33,35,33,33,34,33,34,33,33,34,33,33,34,33,33,35,34,33,33,33,33,33,33,33,34,33,
33,33,33,33,33,19,33,19,33,33,33,33,34,33,33,34,34,35,33,35,33,33,35,33,35,34,33,33,34,33,33,33,33,33,35,33,33,33,33,33,33,34,34,34,33,35,33,33,34,33,33,33,19,33,33,33,35,33,33,33,
35,34,19,33,33,34,34,33,19,33,34,33,33,33,33,34,35,33,33,33,33,33,33,33,33,35,33,19,35,33,34,35,33,33,33,33,33,33,34,33,34,33,34,19,33,33,33,33,33,33,33,33,34,33,33,33,33,33,33,35,
33,33,33,33,33,33,33,33,33,33,35,33,34,35,33,35,35,33,35,33,19,33,19,34,33,33,33,35,33,33,33,33,34,33,33,34,35,33,33,34,34,33,33,33,33,33,33,33,19,33,34,34,34,33,34,33,34,33,33,33,
33,33,33,33,33,33,33,35,33,35,33,33,34,33,33,33,33,33,33,33,33,33,33,35,35,35,35,33,35,35,33,35,34,33,33,34,33,33,33,33,33,33,33,33,33,35,35,34,35,33,35,33,33,33,33,33,33,33,33,35,
33,33,34,33,33,33,33,34,33,34,34,33,33,33,33,33,35,33,33,33,33,34,34,33,33,33,33,33,33,35,33,33,34,34,33,33,33,35,34,35,33,33,33,33,33,35,33,35,33,33,34,35,34,33,34,33,33,33,33,33,
34,33,33,34,33,33,33,33,33,33,33,34,33,33,34,34,33,34,33,33,35,34,19,33,33,33,33,33,34,33,33,19,33,33,34,33,19,33,33,33,33,33,33,34,33,34,33,33,33,34,33,33,35,34,33,33,33,33,33,33,
34,35,33,33,33,33,33,35,35,34,33,33,33,19,33,34,33,33,33,33,34,33,35,35,19,33,33,34,33,34,33,33,33,34,33,33,33,35,34,33,35,35,33,34,33,33,33,33,33,33,33,34,34,33,33,33,34,33,33,34,
33,33,33,35,35,35,33,34,33,35,33,35,33,33,34,35,19,33,34,33,33,33,19,33,19,33,33,33,33,33,33,33,33,19,33,33,33,33,35,33,33,33,35,33,33,19,33,33,33,33,34,33,33,33,33,33,33,33,33,33,
34,33,35,33,33,33,19,19,33,35,33,33,35,33,33,33,33,34,35,33,33,33,33,34,33,33,33,34,33,33,33,33,33,34,33,35,33,34,34,33,34,35,19,34,33,34,33,33,33,33,35,33,33,33,33,33,35,33,34,19,
33,33,35,34,33,33,34,33,33,35,33,33,33,34,33,33,33,35,33,35,33,35,33,33,35,34,33,33,33,33,33,33,34,33,33,33,33,33,34,33,34,33,33,33,35,33,33,33,19,33,35,33,34,33,35,33,33,33,33,34,
33,33,34,33,33,34,33,33,33,33,34,33,33,34,33,34,33,34,33,34,33,33,33,33,33,33,34,34,34,35,33,33,35,33,35,33,33,33,33,34,33,33,33,33,33,33,35,33,33,33,33,33,33,33,34,35,33,33,33,33,
33,33,33,33,33,33,34,33,33,34,33,34,34,34,33,33,34,33,33,33,33,33,33,34,34,33,33,33,34,35,34,33,33,33,33,34,33,33,33,33,33,34,33,33,19,33,33,35,33,34,34,33,34,33,33,34,33,33,33,35,
33,34,33,34,33,33,33,33,33,33,34,33,35,33,33,34,34,33,35,33,33,33,33,33,33,33,34,33,35,34,35,33,33,19,33,19,33,33,33,34,33,34,19,19,33,34,33,33,34,34,33,33,33,33,33,35,34,33,35,33,
33,33,33,33,19,35,33,33,33,35,33,33,34,35,35,33,33,34,33,33,34,33,34,33,33,35,34,33,33,33,33,33,33,33,33,33,33,33,19,33,34,33,33,33,33,33,33,34,33,35,33,33,35,34,19,33,33,34,34,33,
33,33,19,33,33,33,33,33,34,34,33,33,33,33,35,33,33,33,33,33,35,33,33,34,33,33,33,19,33,34,33,33,33,19,33,34,35,33,33,33,34,35,33,33,33,33,33,33,33,34,33,33,19,33,19,33,33,33,33,33,
33,34,19,34,33,33,33,33,34,33,33,33,33,33,33,33,33,33,33,33,35,33,35,33,34,19,34,33,35,35,33,33,33,33,33,34,33,33,33,33,35,35,34,34,34,33,33,33,35,34,35,33,35,35,33,33,33,19,33,33,
34,33,35,33,35,35,33,33,33,34,35,34,35,33,33,33,33,33,33,34,33,34,33,33,33,34,33,33,35,33,33,33,34,33,34,34,34,33,33,33,34,33,33,33,19,33,33,34,33,33,33,33,33,33,33,33,19,33,33,33,
33,33,34,33,33,33,34,33,33,33,33,34,33,33,35,33,33,33,33,33,33,33,33,33,33,33,33,34,33,33,33,33,33,33,33,33,33,33,33,34,33,33,19,33,33,33,35,35,34,33,34,33,33,35,33,33,33,33,34,33,
33,33,33,19,35,33,33,34,35,19,33,34,33,34,35,33,33,35,33,34,33,33,33,33,33,34,33,34,33,34,34,35,33,33,35,34,33,33,33,33,33,33,33,33,33,33,33,33,33,33,33,33,33,33,33,19,33,35,33,33,
19,33,34,33,33,33,33,33,33,33,33,33,35,33,35,33,33,19,34,34,33,19,19,33,33,19,33,34,33,34,33,33,33,33,33,33,34,33,33,33,33,33,33,33,33,33,33,33,34,33,34,19,33,33,33,33,34,33,33,33,
35,33,33,35,33,19,34,33,33,35,33,33,34,33,35,33,35,33,33,33,33,33,33,33,19,33,34,33,19,33,35,33,33,33,34,33,33,35,33,33,33,33,33,34,34,19,33,33,33,33,33,33,34,33,33,33,33,34,33,33,
33,35,33,33,34,34,33,33,34,33,34,33,34,33,33,33,34,34,34,33,33,33,33,33,33,33,33,34,35,33,19,33,33,33,33,35,33,19,33,35,33,33,19,33,33,33,33,33,33,33,33,34,33,34,34,33,35,33,33,33,
34,33,33,33,19,33,34,35,33,33,33,33,33,34,33,33,33,33,33,35,33,33,33,33,33,33,35,33,19,33,33,33,33,33,33,33,33,19,33,34,33,33,33,33,33,33,35,33,33,33,33,33,33,33,33,33,33,35,19,33,
35,33,33,35,33,34,33,34,33,33,33,35,35,33,35,33,33,33,34,33,19,33,33,34,33,33,34,34,33,33,33,33,34,34,19,33,33,33,33,19,33,33,33,33,33,33,33,33,34,34,33,33,33,33,34,19,19,33,33,35
</data>
 </layer>
 <layer id="2" name="Caminhos_Terra" width="60" height="60">
  <data encoding="csv">
0,0,0,0,0,0,0,0,0,0,0,0,0,0,0,0,0,0,0,0,0,0,0,0,0,114,114,114,0,0,0,0,0,0,0,0,0,0,0,0,0,0,0,0,0,0,0,0,0,0,0,0,0,0,0,0,0,0,0,0,
0,0,0,0,0,0,0,0,0,0,0,0,0,0,0,0,0,0,0,0,0,0,0,0,0,0,114,114,114,0,0,0,0,0,0,0,0,0,0,0,0,0,0,0,0,0,0,0,0,0,0,0,0,0,0,0,0,0,0,0,
0,0,0,0,0,0,0,0,0,0,0,0,0,0,0,0,0,0,0,0,0,0,0,0,0,0,0,114,114,114,114,0,0,0,0,0,0,0,0,0,0,0,0,0,0,0,0,0,0,0,0,0,0,0,0,0,0,0,0,0,
0,0,0,0,0,0,0,0,0,0,0,0,0,0,0,0,0,0,0,0,0,0,0,0,0,0,0,0,115,114,114,115,0,0,0,0,0,0,0,0,0,0,0,0,0,0,0,0,0,0,0,0,0,0,0,0,0,0,0,0,
0,0,0,0,0,0,0,0,0,0,0,0,0,0,0,0,0,0,0,0,0,0,0,0,0,0,0,0,0,0,114,114,114,0,0,0,0,0,0,0,0,0,0,0,0,0,0,0,0,0,0,0,0,0,0,0,0,0,0,0,
0,0,0,0,0,0,0,0,0,0,0,0,0,0,0,0,0,0,0,0,0,0,0,0,0,0,0,0,0,0,0,115,114,114,0,0,0,0,0,0,0,0,0,0,0,0,0,0,0,0,0,0,0,0,0,0,0,0,0,0,
0,0,0,0,0,0,0,0,0,0,0,0,0,0,0,0,0,0,0,0,0,0,0,0,0,0,0,0,0,0,0,0,115,114,114,0,0,0,0,0,0,0,0,0,0,0,0,0,0,0,0,0,0,0,0,0,0,0,0,0,
0,0,0,0,0,0,0,0,0,0,0,0,0,0,0,0,0,0,0,0,0,0,0,0,0,0,0,0,0,0,0,0,115,114,114,0,0,0,0,0,0,0,0,0,0,0,0,0,0,0,0,0,0,0,0,0,0,0,0,0,
0,0,0,0,0,0,0,0,0,0,0,0,0,0,0,0,0,0,0,0,0,0,0,0,0,0,0,0,0,0,0,0,0,114,114,115,0,0,0,0,0,0,0,0,0,0,0,0,0,0,0,0,0,0,0,0,0,0,0,0,
0,0,0,0,0,0,0,0,0,0,0,0,0,0,0,0,0,0,0,0,0,0,0,0,0,0,0,0,0,0,0,0,0,0,114,114,114,0,0,0,0,0,0,0,0,0,0,0,0,0,0,0,0,0,0,0,0,0,0,0,
0,0,0,0,0,0,0,0,0,0,0,0,0,0,0,0,0,0,0,0,0,0,0,0,0,0,0,0,0,0,0,0,0,0,114,114,114,0,0,0,0,0,0,0,0,0,0,0,0,0,0,0,0,0,0,0,0,0,0,0,
0,0,0,0,0,0,0,0,0,0,0,0,0,0,0,0,0,0,0,0,0,0,0,0,0,0,0,0,0,0,0,0,0,0,0,114,114,115,0,0,0,0,0,0,0,0,0,0,0,0,0,0,0,0,0,0,0,0,0,0,
0,0,0,0,0,0,0,0,0,0,0,0,0,0,0,0,0,0,0,0,0,0,0,0,0,0,0,0,0,0,0,0,0,0,0,114,115,115,0,0,0,0,0,0,0,0,0,0,0,0,0,0,0,0,0,0,0,0,0,0,
0,0,0,0,0,0,0,0,0,0,0,0,0,0,0,0,0,0,0,0,0,0,0,0,0,0,0,0,0,0,0,0,0,0,0,114,115,114,0,0,0,0,0,0,0,0,0,0,0,0,0,0,0,0,0,0,0,0,0,0,
0,0,0,0,0,0,0,0,0,0,0,0,0,0,0,0,0,0,0,0,0,0,0,0,0,0,0,0,0,0,0,0,0,0,114,114,115,0,0,0,0,0,0,0,0,0,0,0,0,0,0,0,0,0,0,0,0,0,0,0,
0,0,0,0,0,0,0,0,0,0,0,0,0,0,0,0,0,0,0,0,0,0,0,0,0,0,0,0,0,0,0,0,0,0,115,114,114,0,0,0,0,0,0,0,0,0,0,0,0,0,0,0,0,0,0,0,0,0,0,0,
0,0,0,0,0,0,0,0,0,0,0,0,0,0,0,0,0,0,0,0,0,0,0,0,0,0,0,0,0,0,0,0,0,115,114,115,0,0,0,0,0,0,0,0,0,0,0,0,0,0,0,0,0,0,0,0,0,0,0,0,
0,0,0,0,0,0,0,0,0,0,0,0,0,0,0,0,0,0,0,0,0,0,0,0,0,0,0,0,0,0,0,0,114,114,114,0,0,0,0,0,0,0,0,0,0,0,0,0,0,0,0,0,0,0,0,0,0,0,0,0,
0,0,0,0,0,0,0,0,0,0,0,0,0,0,0,0,0,0,0,0,0,0,0,0,0,0,0,0,0,0,0,114,114,114,0,0,0,0,0,0,0,0,0,0,0,0,0,0,0,0,0,0,0,0,0,0,0,0,0,0,
0,0,0,0,0,0,0,0,0,0,0,0,0,0,0,0,0,0,0,0,0,0,0,0,0,0,0,0,0,0,115,114,114,0,0,0,0,0,0,0,0,0,0,0,0,0,0,0,0,0,0,0,0,0,0,0,0,0,0,0,
0,0,0,0,0,0,0,0,0,0,0,0,0,0,0,0,0,0,0,0,0,0,0,0,0,0,0,0,114,115,114,115,0,0,0,0,114,0,0,0,0,0,0,0,0,0,0,0,0,0,0,0,0,0,0,0,0,0,0,0,
0,0,0,0,0,0,0,0,0,0,0,0,0,0,0,0,0,0,0,0,0,0,0,0,0,0,0,115,114,114,115,0,0,0,0,0,0,0,0,0,0,0,0,0,0,0,0,0,0,0,0,0,0,0,0,0,0,0,0,0,
0,0,0,0,0,0,0,0,0,0,0,0,0,0,0,0,0,0,0,0,0,0,0,0,0,0,114,114,114,0,0,0,0,0,0,0,0,0,0,0,0,0,0,0,0,0,0,0,0,0,0,0,0,0,0,0,0,0,0,0,
0,0,0,0,0,0,0,0,0,0,0,0,0,0,0,0,0,0,0,0,0,0,0,0,114,114,114,114,0,0,0,0,114,114,115,0,0,0,0,0,0,0,0,0,0,0,0,0,0,0,0,0,0,0,0,0,0,0,0,0,
0,0,0,0,0,0,0,0,0,0,0,0,0,0,0,0,0,0,0,0,0,0,0,114,114,114,114,0,0,0,0,115,114,114,115,115,0,0,0,0,0,0,0,0,0,0,0,0,0,0,0,0,0,0,0,0,0,0,0,0,
0,0,0,0,0,0,0,0,0,0,0,0,0,0,0,0,0,0,0,0,0,0,115,115,114,0,0,0,0,0,0,0,114,114,115,0,0,0,0,0,0,0,0,0,0,0,0,0,0,0,0,0,0,0,0,0,0,0,0,0,
0,0,0,0,0,0,0,0,0,0,0,0,0,0,0,0,0,0,0,0,0,114,114,114,0,0,0,0,0,0,0,0,0,0,0,0,0,0,0,0,0,0,0,0,0,0,0,0,0,0,0,0,0,0,0,0,0,0,0,0,
0,0,0,0,0,0,0,0,0,0,0,0,0,0,0,0,0,0,0,0,115,114,114,0,0,0,0,0,0,0,0,0,0,0,0,0,0,0,0,0,0,0,0,0,0,0,0,0,0,0,0,0,0,0,0,0,0,0,0,0,
0,0,0,0,0,0,0,0,0,0,0,0,0,0,0,0,0,0,0,114,114,115,0,0,0,0,0,0,0,0,0,0,0,0,0,0,0,0,0,0,0,0,0,0,0,0,0,0,0,0,0,0,0,0,0,0,0,0,0,0,
0,0,0,0,0,0,0,0,0,0,0,0,0,0,0,0,0,0,114,114,115,0,0,0,0,0,0,0,0,0,0,0,0,0,0,0,0,0,0,0,0,0,0,0,0,0,0,0,0,0,0,0,0,0,0,0,0,0,0,0,
0,0,0,0,0,0,0,0,0,0,0,0,115,0,0,0,0,0,114,114,114,0,0,0,0,0,0,0,0,0,0,0,0,0,0,0,0,0,0,0,0,0,0,0,0,0,0,0,0,0,0,0,0,0,0,0,0,0,0,0,
0,0,0,0,0,0,0,0,0,0,114,115,115,114,114,0,0,0,114,115,114,0,0,0,0,0,0,0,0,0,0,0,0,0,0,0,0,0,0,0,0,0,0,0,0,0,0,0,0,0,0,0,0,0,0,0,0,0,0,0,
0,0,0,0,0,0,0,0,0,114,115,115,114,114,114,114,0,0,114,114,114,0,0,0,0,0,0,0,0,0,0,0,0,0,0,0,0,0,0,0,0,0,0,0,0,0,0,0,0,0,0,0,0,0,0,0,0,0,0,0,
0,0,0,0,0,0,0,0,0,115,114,115,114,114,114,114,114,114,114,114,114,0,0,0,0,0,0,0,0,0,0,0,0,0,0,0,0,0,0,0,0,0,0,0,0,0,0,0,0,0,0,0,0,0,0,0,0,0,0,0,
0,0,0,0,0,0,0,0,114,115,114,114,114,114,114,114,114,114,115,114,115,114,114,115,114,114,0,0,0,0,0,0,0,0,0,0,0,0,0,0,0,0,0,0,0,0,0,0,0,0,0,0,0,0,0,0,0,0,0,0,
0,0,0,0,0,0,0,0,0,115,115,114,114,114,114,114,114,115,114,115,114,114,114,114,114,114,114,115,0,0,0,0,0,0,0,0,0,0,0,0,0,0,0,0,0,0,0,0,0,0,0,0,0,0,0,0,0,0,0,0,
0,0,0,0,0,0,0,0,0,114,115,114,114,114,114,114,0,114,114,115,114,114,114,115,114,114,115,114,114,0,0,0,0,0,0,0,0,0,0,0,0,0,0,0,0,0,0,0,0,0,0,0,0,0,0,0,0,0,0,0,
0,0,0,0,0,0,0,0,0,0,114,114,114,114,114,0,0,0,0,0,0,114,114,115,0,115,115,114,0,0,0,0,0,0,0,0,0,0,0,0,0,0,0,0,0,0,0,0,0,0,0,0,0,0,0,0,0,0,0,0,
0,0,0,0,0,0,0,0,0,0,0,0,114,0,0,0,0,0,0,0,0,0,114,114,114,0,0,0,0,0,0,0,0,0,0,0,0,0,0,0,0,0,0,0,0,0,0,0,0,0,0,0,0,0,0,0,0,0,0,0,
0,0,0,0,0,0,0,0,0,0,0,0,0,0,0,0,0,0,0,0,0,0,0,114,115,114,0,0,0,0,0,0,0,0,0,0,0,0,0,0,0,0,0,0,0,0,0,0,0,0,0,0,0,0,0,0,0,0,0,0,
0,0,0,0,0,0,0,0,0,0,0,0,0,0,0,0,0,0,0,0,0,0,0,0,114,115,114,114,0,0,0,0,0,0,0,0,0,0,0,0,0,0,0,0,0,0,0,0,0,0,0,0,0,0,0,0,0,0,0,0,
0,0,0,0,0,0,0,0,0,0,0,0,0,0,0,0,0,0,0,0,0,0,0,0,0,114,114,114,114,0,0,0,0,0,0,0,0,0,0,0,0,0,0,0,0,0,0,0,0,0,0,0,0,0,0,0,0,0,0,0,
0,0,0,0,0,0,0,0,0,0,0,0,0,0,0,0,0,0,0,0,0,0,0,0,0,0,0,115,115,114,114,0,0,0,0,0,0,0,0,0,0,0,0,0,0,0,0,0,0,0,0,0,0,0,0,0,0,0,0,0,
0,0,0,0,0,0,0,0,0,0,0,0,0,0,0,0,0,0,0,0,0,0,0,0,0,0,0,0,115,114,114,115,0,0,0,0,0,0,0,0,0,0,0,0,0,0,0,0,0,0,0,0,0,0,0,0,0,0,0,0,
0,0,0,0,0,0,0,0,0,0,0,0,0,0,0,0,0,0,0,0,0,0,0,0,0,0,0,0,0,0,114,114,115,0,0,0,0,0,0,0,0,0,0,0,0,0,0,0,0,0,0,0,0,0,0,0,0,0,0,0,
0,0,0,0,0,0,0,0,0,0,0,0,0,0,0,0,0,0,0,0,0,0,0,0,0,0,0,0,0,0,0,115,115,114,0,0,0,0,0,0,0,0,0,0,0,0,0,0,0,0,0,0,0,0,0,0,0,0,0,0,
0,0,0,0,0,0,0,0,0,0,0,0,0,0,0,0,0,0,0,0,0,0,0,0,0,0,0,0,0,0,0,0,114,114,114,0,0,0,0,0,0,0,0,0,0,0,0,0,0,0,0,0,0,0,0,0,0,0,0,0,
0,0,0,0,0,0,0,0,0,0,0,0,0,0,0,0,0,0,0,0,0,0,0,0,0,0,0,0,0,0,0,0,0,114,114,114,0,0,0,0,0,0,0,0,0,0,0,0,0,0,0,0,0,0,0,0,0,0,0,0,
0,0,0,0,0,0,0,0,0,0,0,0,0,0,0,0,0,0,0,0,0,0,0,0,0,0,0,0,0,0,0,0,0,0,115,114,114,0,0,0,0,0,0,0,0,0,0,0,0,0,0,0,0,0,0,0,0,0,0,0,
0,0,0,0,0,0,0,0,0,0,0,0,0,0,0,0,0,0,0,0,0,0,0,0,0,0,0,0,0,0,0,0,0,0,0,114,114,114,0,0,0,0,0,0,0,0,0,0,0,0,0,0,0,0,0,0,0,0,0,0,
0,0,0,0,0,0,0,0,0,0,0,0,0,0,0,0,0,0,0,0,0,0,0,0,0,0,0,0,0,0,0,0,0,0,0,115,115,114,0,0,0,0,0,0,0,0,0,0,0,0,0,0,0,0,0,0,0,0,0,0,
0,0,0,0,0,0,0,0,0,0,0,0,0,0,0,0,0,0,0,0,0,0,0,0,0,0,0,0,0,0,0,0,0,0,0,114,114,114,0,0,0,0,0,0,0,0,0,0,0,0,0,0,0,0,0,0,0,0,0,0,
0,0,0,0,0,0,0,0,0,0,0,0,0,0,0,0,0,0,0,0,0,0,0,0,0,0,0,0,0,0,0,0,0,0,0,114,114,114,0,0,0,0,0,0,0,0,0,0,0,0,0,0,0,0,0,0,0,0,0,0,
0,0,0,0,0,0,0,0,0,0,0,0,0,0,0,0,0,0,0,0,0,0,0,0,0,0,0,0,0,0,0,0,0,0,0,114,114,115,0,0,0,0,0,0,0,0,0,0,0,0,0,0,0,0,0,0,0,0,0,0,
0,0,0,0,0,0,0,0,0,0,0,0,0,0,0,0,0,0,0,0,0,0,0,0,0,0,0,0,0,0,0,0,0,0,0,115,114,115,0,0,0,0,0,0,0,0,0,0,0,0,0,0,0,0,0,0,0,0,0,0,
0,0,0,0,0,0,0,0,0,0,0,0,0,0,0,0,0,0,0,0,0,0,0,0,0,0,0,0,0,0,0,0,0,0,114,114,114,0,0,0,0,0,0,0,0,0,0,0,0,0,0,0,0,0,0,0,0,0,0,0,
0,0,0,0,0,0,0,0,0,0,0,0,0,0,0,0,0,0,0,0,0,0,0,0,0,0,0,0,0,0,0,0,0,0,115,114,114,0,0,0,0,0,0,0,0,0,0,0,0,0,0,0,0,0,0,0,0,0,0,0,
0,0,0,0,0,0,0,0,0,0,0,0,0,0,0,0,0,0,0,0,0,0,0,0,0,0,0,0,0,0,0,0,0,114,115,114,0,0,0,0,0,0,0,0,0,0,0,0,0,0,0,0,0,0,0,0,0,0,0,0,
0,0,0,0,0,0,0,0,0,0,0,0,0,0,0,0,0,0,0,0,0,0,0,0,0,0,0,0,0,0,0,0,114,114,114,0,0,0,0,0,0,0,0,0,0,0,0,0,0,0,0,0,0,0,0,0,0,0,0,0,
0,0,0,0,0,0,0,0,0,0,0,0,0,0,0,0,0,0,0,0,0,0,0,0,0,0,0,0,0,0,0,114,114,114,0,0,0,0,0,0,0,0,0,0,0,0,0,0,0,0,0,0,0,0,0,0,0,0,0,0
</data>
 </layer>
 <layer id="3" name="Agua_Lago" width="60" height="60">
  <data encoding="csv">
0,0,0,0,0,0,0,0,0,0,0,0,0,0,0,0,0,0,0,0,0,0,0,0,0,0,0,0,0,0,0,0,0,0,0,0,0,0,0,0,0,0,0,0,0,0,0,0,0,0,0,0,0,0,0,0,0,0,0,0,
0,0,0,0,0,0,0,0,0,0,0,0,0,0,0,0,0,0,0,0,0,0,0,0,0,0,0,0,0,0,0,0,0,0,0,0,0,0,0,0,0,0,0,0,0,0,0,0,0,0,0,0,0,0,0,0,0,0,0,0,
0,0,0,0,0,0,0,0,0,0,0,0,0,0,0,0,0,0,0,0,0,0,0,0,0,0,0,0,0,0,0,0,0,0,0,0,0,0,0,0,0,0,0,0,0,0,0,0,0,0,0,0,0,0,0,0,0,0,0,0,
0,0,0,0,0,0,0,0,0,0,0,0,0,0,0,0,0,0,0,0,0,0,0,0,0,0,0,0,0,0,0,0,0,0,0,0,0,0,0,0,0,0,0,0,0,0,0,0,0,0,0,0,0,0,0,0,0,0,0,0,
0,0,0,0,0,0,0,0,0,0,0,0,0,0,0,0,0,0,0,0,0,0,0,0,0,0,0,0,0,0,0,0,0,0,0,0,0,0,0,0,0,0,0,0,0,0,0,0,0,0,0,0,0,0,0,0,0,0,0,0,
0,0,0,0,0,0,0,0,0,0,0,0,0,0,0,0,0,0,0,0,0,0,0,0,0,0,0,0,0,0,0,0,0,0,0,0,0,0,0,0,0,0,0,0,0,0,0,0,0,0,0,0,0,0,0,0,0,0,0,0,
0,0,0,0,0,0,0,0,0,0,0,0,0,0,0,0,0,0,0,0,0,0,0,0,0,0,0,0,0,0,0,0,0,0,0,0,0,0,0,0,0,0,0,0,0,0,0,0,0,0,0,0,0,0,0,0,0,0,0,0,
0,0,0,0,0,0,0,0,0,0,0,0,0,0,0,0,0,0,0,0,0,0,0,0,0,0,0,0,0,0,0,0,0,0,0,0,0,0,0,0,0,0,0,0,0,0,0,0,0,0,0,0,0,0,0,0,0,0,0,0,
0,0,0,0,0,0,0,0,0,0,0,0,0,0,0,0,0,0,0,0,0,0,0,0,0,0,0,0,0,0,0,0,0,0,0,0,0,0,0,0,0,0,0,0,0,0,0,0,0,0,0,0,0,0,0,0,0,0,0,0,
0,0,0,0,0,0,0,0,0,0,0,0,0,0,0,0,0,0,0,0,0,0,0,0,0,0,0,0,0,0,0,0,0,0,0,0,0,0,0,0,0,0,0,0,0,0,0,0,0,0,0,0,0,0,0,0,0,0,0,0,
0,0,0,0,0,0,0,0,0,0,0,0,0,0,0,0,0,0,0,0,0,0,0,0,0,0,0,0,0,0,0,0,0,0,0,0,0,0,0,0,0,0,0,0,0,0,0,0,0,0,0,0,0,0,0,0,0,0,0,0,
0,0,0,0,0,0,0,0,0,0,0,0,0,0,0,0,0,0,0,0,0,0,0,0,0,0,0,0,0,0,0,0,0,0,0,0,0,0,0,0,0,0,0,0,0,0,0,0,0,0,0,0,0,0,0,0,0,0,0,0,
0,0,0,0,0,0,0,0,0,0,0,0,0,0,0,0,0,0,0,0,0,0,0,0,0,0,0,0,0,0,0,0,0,0,0,0,0,0,0,0,0,0,1777,1777,0,0,0,0,0,0,0,0,0,0,0,0,0,0,0,0,
0,0,0,0,0,0,0,0,0,0,0,0,0,0,0,0,0,0,0,0,0,0,0,0,0,0,0,0,0,0,0,0,0,0,0,0,0,0,0,0,0,1778,1778,1778,1777,1778,0,0,0,0,0,0,0,0,0,0,0,0,0,0,
0,0,0,0,0,0,0,0,0,0,0,0,0,0,0,0,0,0,0,0,0,0,0,0,0,0,0,0,0,0,0,0,0,0,0,0,0,0,0,0,1777,1777,1777,1778,1777,1777,1777,0,0,0,1777,1778,0,0,0,0,0,0,0,0,
0,0,0,0,0,0,0,0,0,0,0,0,0,0,0,0,0,0,0,0,0,0,0,0,0,0,0,0,0,0,0,0,0,0,0,0,0,0,0,0,1778,1777,1777,1777,1778,1778,1778,1777,0,1778,1777,1777,0,0,0,0,0,0,0,0,
0,0,0,0,0,0,0,0,0,0,0,0,0,0,0,0,0,0,0,0,0,0,0,0,0,0,0,0,0,0,0,0,0,0,0,0,0,0,0,0,1777,1778,1778,1777,1778,1777,1778,1778,0,1777,1777,1777,0,0,0,0,0,0,0,0,
0,0,0,0,0,0,0,0,0,0,0,0,0,0,0,0,0,0,0,0,0,0,0,0,0,0,0,0,0,0,0,0,0,0,0,0,0,0,0,0,1778,1777,1777,1777,1777,1777,1777,1777,0,0,1777,0,0,0,0,0,0,0,0,0,
0,0,0,0,0,0,0,0,0,0,0,0,0,0,0,0,0,0,0,0,0,0,0,0,0,0,0,0,0,0,0,0,0,0,0,0,0,0,0,0,1778,1778,1778,1778,1777,1778,1777,1778,1778,1777,1778,0,0,0,0,0,0,0,0,0,
0,0,0,0,0,0,0,0,0,0,0,0,0,0,0,0,0,0,0,0,0,0,0,0,0,0,0,0,0,0,0,0,0,0,0,0,0,0,0,1777,1777,1778,1777,1777,1778,1777,1777,1778,1777,1778,1777,1778,0,0,0,0,0,0,0,0,
0,0,0,0,0,0,0,0,0,0,0,0,0,0,0,0,0,0,0,0,0,0,0,0,0,0,0,0,0,0,0,0,0,0,0,0,0,0,0,1777,1778,1777,1777,1778,1777,1777,1778,1777,1777,1777,1777,1777,1778,0,0,0,0,0,0,0,
0,0,0,0,0,0,0,0,0,0,0,0,0,0,0,0,0,0,0,0,0,0,0,0,0,0,0,0,0,0,0,0,0,0,0,1777,1777,1777,1777,1777,1777,1778,1778,1777,1777,1777,1777,1778,1777,1777,1777,1778,1777,1777,0,0,0,0,0,0,
0,0,0,0,0,0,0,0,0,0,0,0,0,0,0,0,0,0,0,0,0,0,0,0,0,0,0,0,0,0,0,0,0,0,1777,1777,1778,1777,1777,1777,1777,1778,1778,1777,1778,1777,1777,1777,1777,1778,1777,1778,1778,1777,0,0,0,0,0,0,
0,0,0,0,0,0,0,0,0,0,0,0,0,0,0,0,0,0,0,0,0,0,0,0,0,0,0,0,0,0,0,0,0,0,0,1777,1777,1778,1777,1778,1777,1777,1778,1778,1777,1777,1778,1777,1778,1777,1777,1777,1778,1777,0,0,0,0,0,0,
0,0,0,0,0,0,0,0,0,0,0,0,0,0,0,0,0,0,0,0,0,0,0,0,0,0,0,0,0,0,0,0,0,0,0,0,0,0,0,1777,1778,1778,1777,1777,1778,1777,1777,1778,1778,1777,1777,1778,1777,0,0,0,0,0,0,0,
0,0,0,0,0,0,0,0,0,0,0,0,0,0,0,0,0,0,0,0,0,0,0,0,0,0,0,0,0,0,0,0,0,0,0,0,0,0,0,0,0,1777,1777,1777,1777,1778,1777,0,0,0,0,0,0,0,0,0,0,0,0,0,
0,0,0,0,0,0,0,0,0,0,0,0,0,0,0,0,0,0,0,0,0,0,0,0,0,0,0,0,0,0,0,0,0,0,0,0,0,0,0,0,0,0,1777,1778,1778,0,0,0,0,0,0,0,0,0,0,0,0,0,0,0,
0,0,0,0,0,0,0,0,0,0,0,0,0,0,0,0,0,0,0,0,0,0,0,0,0,0,0,0,0,0,0,0,0,0,0,0,0,0,0,0,0,0,0,0,0,0,0,0,0,0,0,0,0,0,0,0,0,0,0,0,
0,0,0,0,0,0,0,0,0,0,0,0,0,0,0,0,0,0,0,0,0,0,0,0,0,0,0,0,0,0,0,0,0,0,0,0,0,0,0,0,0,0,0,0,0,0,0,0,0,0,0,0,0,0,0,0,0,0,0,0,
0,0,0,0,0,0,0,0,0,0,0,0,0,0,0,0,0,0,0,0,0,0,0,0,0,0,0,0,0,0,0,0,0,0,0,0,0,0,0,0,0,0,0,0,0,0,0,0,0,0,0,0,0,0,0,0,0,0,0,0,
0,0,0,0,0,0,0,0,0,0,0,0,0,0,0,0,0,0,0,0,0,0,0,0,0,0,0,0,0,0,0,0,0,0,0,0,0,0,0,0,0,0,0,0,0,0,0,0,0,0,0,0,0,0,0,0,0,0,0,0,
0,0,0,0,0,0,0,0,0,0,0,0,0,0,0,0,0,0,0,0,0,0,0,0,0,0,0,0,0,0,0,0,0,0,0,0,0,0,0,0,0,0,0,0,0,0,0,0,0,0,0,0,0,0,0,0,0,0,0,0,
0,0,0,0,0,0,0,0,0,0,0,0,0,0,0,0,0,0,0,0,0,0,0,0,0,0,0,0,0,0,0,0,0,0,0,0,0,0,0,0,0,0,0,0,0,0,0,0,0,0,0,0,0,0,0,0,0,0,0,0,
0,0,0,0,0,0,0,0,0,0,0,0,0,0,0,0,0,0,0,0,0,0,0,0,0,0,0,0,0,0,0,0,0,0,0,0,0,0,0,0,0,0,0,0,0,0,0,0,0,0,0,0,0,0,0,0,0,0,0,0,
0,0,0,0,0,0,0,0,0,0,0,0,0,0,0,0,0,0,0,0,0,0,0,0,0,0,0,0,0,0,0,0,0,0,0,0,0,0,0,0,0,0,0,0,0,0,0,0,0,0,0,0,0,0,0,0,0,0,0,0,
0,0,0,0,0,0,0,0,0,0,0,0,0,0,0,0,0,0,0,0,0,0,0,0,0,0,0,0,0,0,0,0,0,0,0,0,0,0,0,0,0,0,0,0,0,0,0,0,0,0,0,0,0,0,0,0,0,0,0,0,
0,0,0,0,0,0,0,0,0,0,0,0,0,0,0,0,0,0,0,0,0,0,0,0,0,0,0,0,0,0,0,0,0,0,0,0,0,0,0,0,0,0,0,0,0,0,0,0,0,0,0,0,0,0,0,0,0,0,0,0,
0,0,0,0,0,0,0,0,0,0,0,0,0,0,0,0,0,0,0,0,0,0,0,0,0,0,0,0,0,0,0,0,0,0,0,0,0,0,0,0,0,0,0,0,0,0,0,0,0,0,0,0,0,0,0,0,0,0,0,0,
0,0,0,0,0,0,0,0,0,0,0,0,0,0,0,0,0,0,0,0,0,0,0,0,0,0,0,0,0,0,0,0,0,0,0,0,0,0,0,0,0,0,0,0,0,0,0,0,0,0,0,0,0,0,0,0,0,0,0,0,
0,0,0,0,0,0,0,0,0,0,0,0,0,0,0,0,0,0,0,0,0,0,0,0,0,0,0,0,0,0,0,0,0,0,0,0,0,0,0,0,0,0,0,0,0,0,0,0,0,0,0,0,0,0,0,0,0,0,0,0,
0,0,0,0,0,0,0,0,0,0,0,0,0,0,0,0,0,0,0,0,0,0,0,0,0,0,0,0,0,0,0,0,0,0,0,0,0,0,0,0,0,0,0,0,0,0,0,0,0,0,0,0,0,0,0,0,0,0,0,0,
0,0,0,0,0,0,0,0,0,0,0,0,0,0,0,0,0,0,0,0,0,0,0,0,0,0,0,0,0,0,0,0,0,0,0,0,0,0,0,0,0,0,0,0,0,0,0,0,0,0,0,0,0,0,0,0,0,0,0,0,
0,0,0,0,0,0,0,0,0,0,0,0,0,0,0,0,0,0,0,0,0,0,0,0,0,0,0,0,0,0,0,0,0,0,0,0,0,0,0,0,0,0,0,0,0,0,0,0,0,0,0,0,0,0,0,0,0,0,0,0,
0,0,0,0,0,0,0,0,0,0,0,0,0,0,0,0,0,0,0,0,0,0,0,0,0,0,0,0,0,0,0,0,0,0,0,0,0,0,0,0,0,0,0,0,0,0,0,0,0,0,0,0,0,0,0,0,0,0,0,0,
0,0,0,0,0,0,0,0,0,0,0,0,0,0,0,0,0,0,0,0,0,0,0,0,0,0,0,0,0,0,0,0,0,0,0,0,0,0,0,0,0,0,0,0,0,0,0,0,0,0,0,0,0,0,0,0,0,0,0,0,
0,0,0,0,0,0,0,0,0,0,0,0,0,0,0,0,0,0,0,0,0,0,0,0,0,0,0,0,0,0,0,0,0,0,0,0,0,0,0,0,0,0,0,0,0,0,0,0,0,0,0,0,0,0,0,0,0,0,0,0,
0,0,0,0,0,0,0,0,0,0,0,0,0,0,0,0,0,0,0,0,0,0,0,0,0,0,0,0,0,0,0,0,0,0,0,0,0,0,0,0,0,0,0,0,0,0,0,0,0,0,0,0,0,0,0,0,0,0,0,0,
0,0,0,0,0,0,0,0,0,0,0,0,0,0,0,0,0,0,0,0,0,0,0,0,0,0,0,0,0,0,0,0,0,0,0,0,0,0,0,0,0,0,0,0,0,0,0,0,0,0,0,0,0,0,0,0,0,0,0,0,
0,0,0,0,0,0,0,0,0,0,0,0,0,0,0,0,0,0,0,0,0,0,0,0,0,0,0,0,0,0,0,0,0,0,0,0,0,0,0,0,0,0,0,0,0,0,0,0,0,0,0,0,0,0,0,0,0,0,0,0,
0,0,0,0,0,0,0,0,0,0,0,0,0,0,0,0,0,0,0,0,0,0,0,0,0,0,0,0,0,0,0,0,0,0,0,0,0,0,0,0,0,0,0,0,0,0,0,0,0,0,0,0,0,0,0,0,0,0,0,0,
0,0,0,0,0,0,0,0,0,0,0,0,0,0,0,0,0,0,0,0,0,0,0,0,0,0,0,0,0,0,0,0,0,0,0,0,0,0,0,0,0,0,0,0,0,0,0,0,0,0,0,0,0,0,0,0,0,0,0,0,
0,0,0,0,0,0,0,0,0,0,0,0,0,0,0,0,0,0,0,0,0,0,0,0,0,0,0,0,0,0,0,0,0,0,0,0,0,0,0,0,0,0,0,0,0,0,0,0,0,0,0,0,0,0,0,0,0,0,0,0,
0,0,0,0,0,0,0,0,0,0,0,0,0,0,0,0,0,0,0,0,0,0,0,0,0,0,0,0,0,0,0,0,0,0,0,0,0,0,0,0,0,0,0,0,0,0,0,0,0,0,0,0,0,0,0,0,0,0,0,0,
0,0,0,0,0,0,0,0,0,0,0,0,0,0,0,0,0,0,0,0,0,0,0,0,0,0,0,0,0,0,0,0,0,0,0,0,0,0,0,0,0,0,0,0,0,0,0,0,0,0,0,0,0,0,0,0,0,0,0,0,
0,0,0,0,0,0,0,0,0,0,0,0,0,0,0,0,0,0,0,0,0,0,0,0,0,0,0,0,0,0,0,0,0,0,0,0,0,0,0,0,0,0,0,0,0,0,0,0,0,0,0,0,0,0,0,0,0,0,0,0,
0,0,0,0,0,0,0,0,0,0,0,0,0,0,0,0,0,0,0,0,0,0,0,0,0,0,0,0,0,0,0,0,0,0,0,0,0,0,0,0,0,0,0,0,0,0,0,0,0,0,0,0,0,0,0,0,0,0,0,0,
0,0,0,0,0,0,0,0,0,0,0,0,0,0,0,0,0,0,0,0,0,0,0,0,0,0,0,0,0,0,0,0,0,0,0,0,0,0,0,0,0,0,0,0,0,0,0,0,0,0,0,0,0,0,0,0,0,0,0,0,
0,0,0,0,0,0,0,0,0,0,0,0,0,0,0,0,0,0,0,0,0,0,0,0,0,0,0,0,0,0,0,0,0,0,0,0,0,0,0,0,0,0,0,0,0,0,0,0,0,0,0,0,0,0,0,0,0,0,0,0,
0,0,0,0,0,0,0,0,0,0,0,0,0,0,0,0,0,0,0,0,0,0,0,0,0,0,0,0,0,0,0,0,0,0,0,0,0,0,0,0,0,0,0,0,0,0,0,0,0,0,0,0,0,0,0,0,0,0,0,0,
0,0,0,0,0,0,0,0,0,0,0,0,0,0,0,0,0,0,0,0,0,0,0,0,0,0,0,0,0,0,0,0,0,0,0,0,0,0,0,0,0,0,0,0,0,0,0,0,0,0,0,0,0,0,0,0,0,0,0,0
</data>
 </layer>
 <layer id="4" name="Vegetacao_Rasteira" width="60" height="60">
  <data encoding="csv">
0,0,0,0,0,0,0,0,0,0,0,0,0,0,0,0,0,0,0,0,0,0,0,0,0,0,0,0,0,0,0,0,0,0,0,0,0,0,0,0,0,0,0,0,0,0,0,0,0,0,0,0,0,0,0,0,0,0,0,0,
0,0,0,0,0,0,0,0,0,0,1058,0,0,1074,1012,0,0,0,0,0,0,0,0,0,0,0,0,0,0,0,0,0,0,0,0,1058,1085,0,0,1093,0,0,0,1010,0,0,0,0,0,0,0,0,0,0,0,0,0,0,0,0,
0,1084,0,0,0,0,0,0,0,0,1057,0,0,0,1057,0,0,0,0,0,0,0,0,1094,0,0,0,0,0,0,0,0,0,0,0,0,0,0,0,0,0,0,0,0,0,0,0,0,0,0,0,0,1084,0,0,0,0,0,0,0,
0,0,0,0,0,0,1092,0,0,0,1093,0,1084,0,0,0,0,0,0,0,1084,1012,0,0,0,0,1014,0,0,0,0,0,0,0,0,1012,0,1074,0,0,1094,1014,1012,1010,1057,0,0,0,0,0,0,0,0,0,0,0,0,0,0,0,
0,0,0,0,0,0,0,1092,0,0,0,0,1058,0,0,0,0,1085,0,0,0,1014,1092,0,0,0,0,0,0,0,0,0,1074,1092,0,0,1058,0,1014,0,0,1085,0,0,0,0,1084,1074,1010,0,0,1057,1074,1093,0,1084,1085,0,0,0,
0,0,0,0,0,0,0,0,0,0,0,0,0,1085,0,0,1014,0,0,0,0,1057,0,0,0,0,0,0,0,0,0,0,0,0,0,1010,0,0,1010,1084,0,0,0,0,0,1057,1084,0,1085,0,0,0,0,1094,0,0,0,0,0,0,
0,0,0,0,0,0,0,0,0,0,0,0,0,0,0,0,0,1057,0,0,0,0,0,0,1014,0,0,0,0,0,0,0,0,0,0,0,0,1074,0,1092,0,0,0,0,0,0,0,0,1014,0,1085,0,0,1058,0,0,0,0,1093,0,
0,0,0,0,0,0,0,0,0,1093,0,0,0,0,0,0,0,0,1074,1058,0,0,0,0,1012,0,0,0,0,0,0,1084,0,0,0,0,0,0,0,0,0,0,0,0,0,0,0,0,0,0,0,0,0,0,0,0,0,0,0,0,
0,0,0,0,0,0,0,1094,0,0,0,1074,0,0,0,0,0,1092,0,0,0,0,1084,1012,0,0,0,0,0,0,0,0,1093,0,0,0,1074,0,0,1092,0,1092,0,0,0,0,0,0,0,0,0,0,0,1084,1010,1012,0,0,0,0,
0,0,0,1058,0,0,0,1057,0,0,1014,1092,0,0,0,0,1058,1092,0,0,0,0,1058,1074,0,1092,1014,0,1085,0,0,0,0,0,0,0,0,0,0,0,0,0,0,0,0,0,0,0,0,1014,0,0,0,1084,0,0,0,0,0,0,
0,0,0,1010,0,0,0,0,0,0,0,0,0,0,1058,0,1093,0,1085,0,0,1012,0,0,0,1093,0,1084,0,0,0,0,0,0,0,0,0,0,0,0,0,0,0,0,0,1012,0,0,0,0,0,0,0,0,0,0,0,0,1012,0,
0,1012,0,1093,1058,1057,0,1094,0,0,0,0,1010,0,0,0,0,0,0,0,1058,0,0,0,0,0,0,0,0,0,0,0,0,0,0,0,0,0,0,0,1012,0,0,1057,0,0,0,0,0,0,0,0,0,0,0,0,0,1094,1094,0,
0,0,0,0,0,0,0,0,0,0,0,0,1093,1074,1010,0,0,0,0,0,0,0,0,0,0,0,0,0,1085,0,0,0,0,0,0,0,0,0,0,0,0,0,0,0,1085,0,1092,1012,0,0,0,0,0,0,0,0,0,0,0,0,
0,0,0,0,0,0,0,0,0,0,0,0,1094,1012,0,0,0,0,1094,0,0,0,0,0,1085,1010,0,0,0,0,1092,0,0,1074,0,0,0,0,1010,0,0,0,0,0,0,0,0,0,0,0,0,1085,0,1092,0,0,1010,0,0,0,
0,0,0,0,0,0,0,0,0,0,0,1010,0,1092,0,1084,0,0,0,1058,0,0,0,0,1058,0,0,0,0,0,0,0,0,1010,0,0,0,0,0,1058,0,0,0,0,1073,0,1073,0,0,0,0,0,0,0,0,0,0,0,0,0,
0,1058,0,1085,0,0,1085,0,0,0,0,0,0,0,0,0,0,0,0,0,0,0,0,0,0,0,0,0,1094,0,0,0,0,0,0,0,0,0,1014,0,0,0,0,0,0,0,1073,0,0,0,0,0,0,0,1092,0,0,0,0,0,
0,0,0,0,0,0,0,0,1057,0,0,0,0,0,0,0,0,0,0,1010,0,0,0,0,1074,1085,0,0,0,0,0,0,0,0,0,0,0,1010,0,0,1074,1074,0,0,0,0,1073,0,1010,0,0,0,0,0,1094,0,0,0,0,0,
0,0,0,0,0,0,0,0,0,0,0,1058,0,0,0,1094,0,0,0,0,1012,1093,0,0,0,0,0,0,0,0,0,0,0,0,0,0,0,0,0,0,0,0,0,0,0,0,0,0,0,1092,0,0,1058,0,0,0,0,0,0,0,
0,0,0,0,1014,0,0,0,0,0,1093,0,0,0,1010,0,0,0,0,1093,0,0,0,0,1012,0,0,0,0,0,0,0,0,0,0,0,0,0,1074,0,0,0,1074,0,0,0,0,1073,0,1074,0,0,0,0,0,0,0,0,0,0,
0,1074,0,0,1094,1057,0,0,0,1094,0,0,0,0,0,1010,0,0,0,0,0,0,0,0,0,1014,0,0,0,0,0,0,0,0,0,0,0,0,0,0,0,0,0,0,0,1073,0,0,0,0,0,0,1058,0,1012,0,0,1092,0,0,
0,0,0,1057,0,0,0,0,0,0,0,1057,0,0,0,0,0,0,0,0,0,0,1074,0,1085,1094,0,0,0,0,0,0,0,0,1092,0,0,0,0,0,0,1074,0,0,0,0,1074,0,0,0,0,0,0,0,0,0,0,1010,0,0,
0,1014,1084,0,0,1014,0,0,0,0,0,0,1093,1092,0,1094,0,0,0,0,0,1084,0,0,0,0,0,0,0,0,0,1085,0,0,0,1074,0,0,0,0,0,0,0,0,0,0,0,0,0,0,0,0,0,0,0,0,0,0,0,0,
0,0,0,0,0,0,0,0,0,0,1084,0,0,0,0,1057,0,0,0,0,0,0,0,1058,0,0,0,0,0,0,1014,0,0,0,0,1074,0,0,0,0,0,0,1074,0,0,0,1074,0,0,0,1074,0,0,0,0,0,0,0,0,0,
0,0,0,0,0,1012,0,0,0,0,0,0,0,0,0,1014,1010,1084,0,0,1074,0,0,0,0,0,0,0,1093,0,0,0,0,0,0,0,0,0,0,0,1074,0,0,0,0,0,0,0,0,0,0,1073,1073,0,0,1085,0,0,0,0,
0,0,0,0,0,0,0,0,0,0,0,0,0,0,1014,0,0,0,0,0,0,0,0,0,0,0,0,0,1093,1084,0,0,0,0,0,0,0,0,0,0,0,0,1073,0,0,0,1073,0,0,0,0,1074,0,0,0,0,1084,0,0,0,
0,0,0,0,1084,0,0,0,0,0,1012,0,1084,1010,0,1010,0,0,1014,0,0,0,0,0,0,0,0,0,0,0,1085,0,0,0,0,0,0,0,0,0,0,0,0,0,0,0,1074,0,0,0,0,0,1074,1084,0,0,0,1074,0,0,
0,0,0,1010,0,0,0,1094,1094,0,0,0,0,0,0,0,0,0,0,0,0,0,0,0,0,0,1058,0,0,0,0,0,0,0,0,1010,0,0,1058,0,0,0,0,0,0,0,1010,0,1093,1057,0,0,1014,0,0,0,0,1094,1093,0,
0,0,0,0,0,0,0,0,0,0,0,0,0,0,1093,0,0,0,1084,1085,0,0,0,0,0,1058,1092,0,0,0,0,0,0,0,0,1094,0,0,0,0,0,1093,1058,0,0,0,0,0,0,0,0,0,1084,0,0,0,1074,0,0,0,
0,0,0,0,1057,1093,0,1093,0,0,0,0,0,0,0,1092,0,0,0,0,0,0,0,0,0,0,0,0,0,1014,1084,0,0,0,0,0,0,0,0,0,0,0,0,0,0,0,0,0,0,0,0,0,1058,0,0,0,0,1093,0,0,
0,0,0,1084,0,0,0,0,0,1058,0,0,0,0,0,0,1012,0,0,0,1084,0,1012,0,0,0,0,1012,0,0,1014,0,0,0,0,0,0,0,1093,0,0,0,0,0,0,0,0,0,0,0,1094,1014,0,1010,0,0,0,1093,0,0,
0,0,0,0,0,0,0,0,0,0,1057,0,0,0,0,0,0,0,1010,0,0,0,0,0,0,1014,0,0,0,0,0,0,0,0,1010,0,1085,0,0,0,0,0,0,0,0,0,0,0,0,0,1085,0,0,0,0,0,0,1085,0,0,
0,0,1057,1012,0,0,0,0,1092,0,0,0,0,0,0,0,1057,0,0,0,0,1092,0,0,0,0,1014,0,0,0,0,1094,0,0,1058,0,0,0,1010,0,0,0,0,0,0,0,1012,0,0,0,0,0,0,0,1012,1012,0,0,0,0,
0,0,1010,0,1084,1094,0,1058,1094,0,0,0,0,0,0,0,0,0,0,0,0,0,0,0,1093,0,0,0,0,0,0,0,0,0,1093,1058,0,0,0,0,0,0,0,0,0,0,1093,0,0,1085,0,0,0,0,0,0,1057,0,1094,0,
0,0,0,0,0,0,0,0,0,0,0,0,0,0,0,0,0,0,0,0,0,0,0,0,0,1094,0,0,0,0,0,0,1093,0,0,1012,0,0,0,0,0,0,1014,0,0,0,0,1058,0,0,0,0,0,1085,0,0,0,0,0,0,
0,0,0,1094,0,0,0,0,0,0,0,0,0,0,0,0,0,0,0,0,0,0,0,0,0,0,0,1012,0,0,0,0,0,0,0,1012,0,0,0,0,0,1094,0,1074,0,0,0,0,0,0,0,0,1084,0,0,0,0,0,0,0,
0,0,0,0,1010,0,0,0,0,0,0,0,0,0,1014,0,0,0,0,0,0,0,0,0,0,0,0,0,0,1057,0,1057,0,0,1014,0,0,0,0,1058,0,0,0,0,0,0,0,0,0,0,0,1010,0,0,0,1085,1093,0,1012,0,
0,0,0,0,0,0,1094,0,0,0,0,0,1057,0,0,0,1012,0,0,0,0,0,0,0,0,0,0,0,0,1094,0,1084,0,0,0,1093,0,0,0,0,0,0,0,0,0,0,0,0,1094,0,1012,0,1084,1058,0,0,0,0,1093,0,
0,0,0,0,1093,0,0,0,0,0,0,0,0,0,0,0,0,0,1012,0,0,0,1058,0,0,0,0,0,1057,1092,0,0,0,0,0,1092,0,0,1014,0,0,0,1092,0,0,0,0,0,1085,0,1094,0,0,0,0,0,0,0,0,0,
0,0,0,0,0,0,0,0,1014,0,0,1012,0,0,0,0,1010,0,1014,1084,0,0,0,0,0,0,0,0,0,0,1084,0,0,0,0,0,0,0,0,0,0,0,1058,0,0,1093,0,1012,0,1084,0,0,0,1010,0,0,0,0,1058,0,
0,0,0,0,0,0,0,1057,0,0,0,0,0,0,0,0,0,1093,0,1093,0,0,0,0,0,0,0,0,1057,0,0,0,1012,0,0,0,0,0,0,0,0,0,0,0,0,0,0,0,0,0,1092,0,0,1093,0,1074,0,1084,0,0,
0,1092,0,1085,0,0,0,0,0,0,0,0,0,1014,0,0,0,0,0,0,0,0,0,1084,0,0,0,0,0,0,0,0,0,1084,0,0,0,0,0,0,0,0,0,0,0,0,0,0,0,0,0,0,1058,0,0,0,1057,1074,0,0,
0,0,0,0,0,0,0,0,0,0,0,0,0,0,0,0,0,0,0,0,0,0,0,0,0,0,0,0,0,1092,0,0,0,0,0,0,0,0,1093,1057,0,0,0,0,0,0,0,0,0,0,1010,0,1012,0,0,0,0,0,0,0,
0,0,0,0,0,0,0,0,0,0,0,0,1094,1094,0,0,0,0,0,0,0,0,0,0,1074,0,0,0,0,0,0,0,1014,0,1094,0,0,0,0,0,0,0,0,1057,0,0,0,0,0,0,0,0,0,0,0,0,0,0,0,0,
0,1092,0,1074,0,0,0,0,0,0,0,1074,1074,0,0,0,0,0,0,0,0,0,0,0,1058,0,0,0,0,0,0,0,0,0,0,0,1085,0,1093,0,0,0,0,0,1093,0,0,0,0,0,0,0,0,0,0,0,0,0,1093,0,
0,0,1092,0,0,0,0,0,0,0,1084,0,1094,0,0,0,0,0,0,0,0,0,1010,0,1092,0,0,0,1058,0,0,0,0,0,0,0,0,0,1014,0,0,0,1014,0,0,0,0,0,0,0,0,0,0,0,0,0,1092,1085,0,0,
0,0,0,0,0,0,0,0,1084,0,0,1058,0,1014,0,0,1012,1012,1074,0,0,0,0,1094,0,0,1057,0,0,0,0,0,0,0,0,0,1085,0,0,0,0,0,0,0,0,1074,0,0,0,0,0,1085,0,0,0,0,0,1093,0,0,
0,0,0,1074,0,0,0,0,0,1084,0,0,0,0,1094,0,0,0,0,0,0,0,1010,0,0,0,0,0,0,1084,0,0,0,0,0,0,0,0,1074,0,1094,0,0,0,0,0,0,0,0,0,0,1010,0,0,0,0,0,0,0,0,
0,0,1085,0,1012,0,0,0,1084,0,1074,0,0,0,0,0,0,0,0,0,0,0,0,0,0,0,0,0,0,0,0,1092,1085,0,0,0,0,0,0,0,0,0,0,0,0,0,0,1057,1057,0,0,0,0,0,0,1085,0,0,0,0,
0,0,0,1057,1074,0,0,0,0,0,0,0,0,0,0,0,1010,1093,1093,0,0,0,1084,0,0,0,0,1057,0,0,0,1094,0,0,0,0,1085,0,0,1074,0,0,0,0,0,0,0,0,0,0,0,0,0,0,1094,0,0,0,1093,0,
0,0,0,0,0,0,0,0,0,0,0,0,0,0,0,1012,0,1092,0,0,0,1058,0,0,0,0,0,1057,0,0,0,0,0,1074,0,0,0,0,0,0,0,0,0,0,0,0,1092,0,0,0,0,1010,0,1057,0,0,0,0,0,0,
0,0,0,0,0,1014,0,1085,0,0,0,0,0,1092,0,1092,0,0,0,0,0,0,0,0,0,0,1074,0,0,0,0,0,0,0,0,0,0,0,0,0,0,0,0,0,1057,1074,1085,0,0,0,0,0,1084,0,0,0,0,0,1057,0,
0,0,0,1093,0,0,0,0,1084,0,1074,0,0,0,0,0,0,0,1092,0,1092,0,0,0,0,1057,0,0,0,0,0,0,0,0,1057,0,0,0,0,0,0,1010,1085,1010,0,0,1092,0,0,0,0,0,0,0,0,0,1012,0,0,0,
0,1092,0,0,1085,0,0,1074,1014,0,0,0,0,0,0,0,0,0,0,0,0,0,1085,0,0,0,0,0,0,0,0,0,0,0,0,0,0,0,0,0,1092,0,0,0,0,0,0,0,0,0,0,0,0,0,0,0,0,0,1092,0,
0,0,0,0,0,0,0,0,1084,0,0,0,1093,0,0,0,0,0,0,0,0,0,0,1010,1074,0,0,0,0,0,0,0,0,0,0,0,0,0,1012,0,0,0,0,0,0,0,0,0,0,0,0,0,1057,1012,0,0,1094,0,0,0,
0,0,0,0,1084,1092,0,0,0,0,0,1092,0,0,0,0,0,0,0,1012,0,0,0,0,0,1084,0,0,0,1010,0,0,0,0,0,0,0,1093,0,0,0,0,0,0,1010,0,0,0,0,0,0,0,0,0,0,0,0,0,0,0,
0,0,0,0,0,0,0,1084,1012,0,0,0,0,0,0,1057,0,0,0,0,0,0,0,0,0,0,0,0,1084,0,0,1074,0,0,0,0,0,0,0,0,0,0,0,0,0,1010,0,0,0,0,0,0,0,0,0,1014,0,0,0,0,
0,1084,0,0,0,0,0,1014,0,0,0,0,1093,0,0,0,0,0,0,1094,0,0,0,0,0,0,0,1057,0,0,0,0,0,0,0,0,0,0,1092,0,0,0,0,0,0,0,0,0,0,0,0,0,0,0,0,0,0,0,0,0,
0,0,0,1014,1074,0,0,1058,0,0,1057,0,0,0,0,0,0,0,1074,0,0,0,0,1058,0,0,0,0,0,0,1058,0,1057,0,0,0,0,0,1093,0,0,0,1093,0,0,0,0,0,0,1085,0,0,0,1012,0,1012,0,0,0,0,
0,0,0,0,1085,1084,0,0,1093,0,0,0,1093,0,0,1057,0,0,0,0,1010,0,0,0,0,0,0,0,0,1092,0,0,0,0,0,1074,0,0,0,0,0,0,1074,0,0,0,0,0,0,1093,0,1084,0,0,0,0,0,0,0,0,
0,0,0,0,0,0,0,0,0,0,0,0,0,0,0,0,0,0,0,0,0,0,0,0,0,0,0,0,0,0,0,0,0,0,0,0,0,0,0,0,0,0,0,0,0,0,0,0,0,0,0,0,0,0,0,0,0,0,0,0
</data>
 </layer>
 <layer id="5" name="Obstaculos_Solidos" width="60" height="60">
  <data encoding="csv">
0,0,0,0,0,0,0,0,0,0,0,0,0,0,0,0,0,0,0,0,0,0,0,0,0,0,0,0,0,0,0,0,0,0,0,0,0,0,0,0,0,0,0,0,0,0,0,0,0,0,0,0,0,0,0,0,0,0,0,0,
0,0,0,0,0,0,0,0,0,0,0,0,0,0,0,0,0,0,0,0,0,0,0,0,0,0,0,0,0,0,0,0,0,0,0,0,0,0,0,0,0,0,0,0,0,0,0,0,0,0,0,0,0,0,0,0,0,0,0,0,
0,0,0,0,1364,0,0,0,1364,0,0,0,1366,0,0,0,1332,0,1183,0,1362,1182,0,0,0,0,0,0,0,0,0,0,0,0,1362,0,1181,0,1332,0,0,0,1362,1181,0,0,1332,0,0,0,1362,0,0,0,0,1332,0,0,0,0,
0,0,0,0,0,0,0,0,0,0,0,0,0,0,0,0,0,0,0,0,0,0,0,0,0,0,0,0,0,0,0,0,0,0,0,0,0,0,0,0,0,0,0,0,0,0,0,0,0,0,0,0,0,0,1182,0,1179,0,0,0,
0,0,0,0,0,1177,0,0,0,0,0,0,0,0,0,0,0,0,0,0,0,0,0,0,1334,0,0,0,0,0,0,0,0,0,0,0,0,0,0,0,0,0,0,0,0,1182,0,0,0,0,0,0,0,0,0,0,0,0,0,0,
0,0,0,0,0,0,0,0,0,0,0,1181,0,0,0,0,0,0,0,0,0,0,1179,0,0,0,0,0,0,0,0,0,0,0,0,0,0,1181,0,0,0,0,0,0,0,0,0,0,0,1177,1178,1182,0,0,0,0,0,0,0,0,
0,0,1362,0,0,0,1362,0,0,1334,0,0,0,0,0,1364,0,0,1178,0,0,0,1178,0,0,0,0,1332,0,0,0,0,0,0,0,0,0,0,0,0,0,0,0,1364,0,0,0,0,0,0,0,0,0,0,0,1334,0,0,0,0,
0,0,0,0,0,0,0,0,0,0,0,0,1178,1181,0,0,0,1177,0,0,0,0,0,0,0,0,0,0,0,0,1181,0,0,0,0,0,0,1182,1181,0,0,1177,0,0,0,0,0,0,0,0,0,1179,0,1182,0,0,0,0,0,0,
0,0,0,0,0,1179,1181,0,0,0,0,0,0,0,0,0,0,0,0,0,0,1364,0,0,0,0,0,0,1177,0,0,1177,0,0,0,0,0,0,0,0,0,0,0,0,0,0,0,1362,0,0,0,0,0,0,0,0,0,0,0,0,
0,0,0,0,0,0,0,0,0,0,0,0,0,0,0,0,0,0,0,0,0,0,0,0,0,0,0,0,0,0,0,0,0,0,0,0,0,0,0,0,0,0,0,0,0,0,0,0,1182,0,1183,0,0,0,0,0,0,0,0,0,
0,0,1364,0,0,0,1332,0,0,1332,1178,0,0,1334,0,0,0,0,0,0,1182,0,0,0,0,0,0,0,0,0,0,0,0,0,0,0,0,0,0,0,0,1364,1182,0,0,0,0,1183,1182,0,0,0,0,0,0,1334,0,0,0,0,
0,0,1181,0,0,0,0,0,0,1179,1178,0,0,1178,0,0,0,0,0,1178,0,1178,0,0,0,0,0,0,1179,0,0,0,0,0,0,0,0,0,0,1183,0,0,0,0,0,0,0,0,0,0,0,0,0,0,0,0,0,0,0,0,
0,0,0,0,0,0,0,0,1182,1183,0,0,0,0,0,0,0,0,0,0,0,0,0,1183,0,0,0,0,0,0,0,1362,0,1178,0,0,0,0,1181,0,1179,0,0,0,0,0,0,0,0,1364,0,1178,0,1177,0,0,0,1178,0,0,
0,0,0,0,0,0,0,0,0,0,0,0,0,0,1183,0,0,0,0,0,0,0,0,0,0,0,0,0,0,0,0,0,0,0,0,0,0,0,0,0,0,0,0,0,0,0,0,0,0,0,0,0,0,0,0,0,0,0,0,0,
0,0,1332,0,0,0,1364,0,0,1334,0,0,0,0,0,0,0,1364,0,0,0,0,0,1366,0,0,0,0,1182,0,0,0,0,0,0,0,0,0,0,0,0,0,0,0,0,0,0,0,0,0,0,0,0,1177,0,1362,0,0,0,0,
0,0,1182,0,0,0,0,0,0,0,0,0,0,0,0,1182,1178,0,0,0,0,0,0,1183,0,0,0,0,0,1182,0,0,0,0,0,0,0,0,0,0,0,0,0,0,0,0,0,0,0,0,0,0,0,0,0,0,1178,0,0,0,
0,0,0,0,0,0,0,0,0,0,0,0,0,1362,0,0,0,0,0,0,0,0,0,0,0,0,0,1334,0,0,0,1178,0,0,0,0,1179,0,0,0,0,0,0,0,0,0,0,0,0,0,0,0,0,0,0,0,0,0,0,0,
0,0,0,0,0,0,0,0,0,0,0,0,0,0,0,0,0,0,0,0,0,0,0,0,0,0,0,0,0,1181,0,0,0,0,0,0,0,0,0,0,0,0,0,0,0,0,0,0,0,0,0,0,0,0,0,0,0,0,0,0,
0,0,1332,0,0,0,1332,1183,0,1332,0,0,0,0,0,0,0,1334,0,0,0,0,0,1334,0,1182,0,0,1178,1182,0,0,0,0,0,0,1179,0,0,1182,0,0,0,0,0,0,0,0,0,0,0,0,0,0,0,1364,0,0,0,0,
0,0,0,0,0,0,0,0,1178,0,0,0,0,0,0,0,0,0,0,0,0,0,0,1182,0,0,0,0,0,0,0,0,0,0,0,0,0,0,0,0,0,0,0,0,0,0,0,0,0,0,0,0,0,0,0,1177,0,0,0,0,
0,0,0,0,0,0,0,0,1178,0,0,0,0,1362,0,1183,0,1177,0,0,0,0,0,0,0,0,0,0,0,0,0,0,0,0,0,0,0,0,0,0,0,0,0,0,0,0,0,0,0,0,0,0,0,0,0,0,0,0,0,0,
0,0,0,0,0,0,0,0,0,0,0,0,0,0,0,0,0,0,0,0,0,0,0,0,0,0,0,0,0,0,0,0,0,0,0,0,0,0,0,0,0,0,0,0,0,0,0,0,0,0,0,0,0,0,0,0,0,0,0,0,
0,0,0,0,1332,0,0,1364,0,0,0,0,0,0,0,0,0,1332,1183,0,0,0,0,0,0,0,0,0,0,0,0,0,0,0,0,0,0,0,0,0,0,0,0,0,0,0,0,0,0,0,0,0,0,0,0,0,0,1362,0,0,
0,0,0,0,0,0,1178,1179,0,0,0,1178,0,0,0,0,0,0,0,0,0,0,0,1179,0,0,0,0,0,0,0,1179,0,0,0,0,0,0,0,0,0,0,0,0,0,0,0,0,0,0,0,0,0,0,0,0,0,1178,0,0,
0,0,0,0,0,0,0,0,1181,1181,0,0,0,1364,0,0,0,1181,0,0,0,0,0,0,0,0,0,0,0,0,0,0,0,0,0,0,0,0,0,0,0,0,0,0,0,0,0,0,0,0,0,0,0,0,0,0,0,0,0,0,
0,0,0,0,0,0,0,0,0,0,0,0,0,0,0,0,0,0,0,0,0,0,0,0,0,0,0,0,0,0,0,0,0,0,0,0,0,0,0,0,0,0,0,0,0,0,0,0,0,0,0,0,0,0,0,0,0,0,0,0,
0,0,1334,0,0,0,1362,0,0,0,0,0,0,0,0,1177,0,1364,0,0,0,0,0,0,0,0,0,0,0,1334,0,0,0,0,0,0,0,0,0,0,0,0,0,0,0,0,0,1179,0,0,0,0,0,0,0,1364,0,0,0,0,
0,0,0,0,0,0,0,0,0,0,0,0,1182,0,0,0,0,0,0,0,0,0,0,0,0,0,0,0,0,0,0,0,0,0,0,0,0,0,0,0,0,0,0,0,0,0,0,0,0,0,0,0,0,0,0,0,0,0,0,0,
0,0,0,0,0,0,1178,0,0,0,0,1364,0,0,0,0,0,0,0,0,0,0,0,0,0,0,0,0,1178,0,0,0,0,1334,0,0,0,0,0,1366,0,0,0,0,1178,0,0,1332,0,0,0,1366,0,0,0,0,0,0,0,0,
0,0,0,0,0,0,0,1183,1177,0,0,0,0,0,0,0,0,0,0,0,0,0,0,1182,0,0,0,0,0,0,0,1183,0,0,0,0,0,0,0,1177,0,0,0,0,0,0,0,0,0,0,0,0,0,0,0,0,0,0,0,0,
0,0,1332,0,0,0,1366,0,0,0,0,0,0,0,0,0,0,0,0,0,0,0,0,0,0,0,0,0,0,1334,0,0,0,1179,0,0,0,0,0,0,0,0,0,1177,0,0,0,1177,0,0,0,0,1181,0,0,1362,0,0,0,0,
0,0,0,0,0,0,0,1183,0,0,0,0,1181,0,0,0,0,0,0,0,0,0,0,0,0,0,0,0,0,0,0,0,0,0,0,0,0,0,0,0,0,0,0,0,0,0,0,0,0,0,0,0,0,0,0,0,0,0,0,0,
0,0,0,0,0,0,0,0,0,1181,0,0,0,0,0,1181,0,0,0,0,0,0,1182,0,0,0,1182,0,0,0,0,0,0,1362,0,0,0,1364,0,1177,0,1362,0,0,0,1364,0,0,0,0,0,1364,0,0,0,0,0,0,0,0,
0,0,0,1178,0,0,0,0,0,0,0,0,0,0,0,0,0,0,0,0,0,0,0,0,1183,0,0,0,0,0,0,0,0,0,0,0,0,1182,0,0,0,0,0,0,0,0,0,0,0,1179,1179,0,0,0,0,0,0,0,0,0,
0,0,1332,0,0,0,1366,0,0,0,0,0,2083,0,0,0,0,0,0,0,0,0,0,0,0,0,0,0,0,1177,0,1178,0,0,0,0,0,0,0,0,0,0,0,0,0,0,0,0,0,0,0,0,0,0,0,1364,0,0,0,0,
0,0,0,0,0,0,0,0,0,0,0,0,0,0,0,0,0,0,0,0,0,0,0,0,0,0,0,0,0,0,0,0,0,0,0,0,0,0,1183,0,0,0,0,0,0,1179,0,0,0,1178,0,0,0,0,0,0,0,1181,0,0,
0,0,0,0,0,0,0,0,0,1181,0,0,0,0,0,1181,0,0,0,0,0,0,0,0,0,0,0,0,0,0,0,0,0,0,0,0,0,1334,0,0,0,0,0,1362,0,0,0,1366,0,0,0,0,0,0,0,0,0,0,0,0,
0,0,0,1177,0,0,0,0,0,0,0,0,1181,0,0,0,0,0,0,0,1178,0,0,0,0,0,0,0,0,0,0,0,0,0,0,0,0,0,0,0,0,1182,0,0,0,0,0,1178,0,0,0,0,0,1177,0,0,0,0,0,0,
0,0,1332,0,1177,0,1362,0,0,0,0,0,0,0,0,0,0,0,0,0,0,0,0,0,0,0,0,0,0,0,0,0,0,1366,0,0,0,0,0,0,0,0,0,0,0,0,0,0,0,0,0,0,0,0,0,1334,0,0,0,0,
0,0,0,0,0,0,0,0,0,0,0,0,1179,0,0,0,0,0,0,0,1177,0,0,0,0,0,0,0,0,0,0,0,0,0,0,0,0,0,0,0,1181,0,0,0,0,0,0,0,0,0,0,0,0,0,0,0,0,0,0,0,
0,0,0,0,1182,0,0,0,0,1362,1177,0,0,0,0,1366,0,0,0,0,1182,0,0,0,0,0,0,0,0,0,0,0,0,0,0,0,0,0,0,0,1178,0,0,1334,0,0,0,0,0,1362,0,0,0,0,0,0,0,0,0,0,
0,0,0,1177,0,0,0,0,0,0,0,0,0,0,0,1182,0,0,0,0,0,0,0,0,1183,0,0,0,0,0,0,0,0,0,0,0,0,0,0,0,0,0,0,0,0,1179,0,0,0,0,0,0,0,0,0,0,0,0,0,0,
0,0,1366,0,0,0,1334,0,0,0,0,0,0,0,0,0,0,0,0,0,0,0,0,0,0,0,0,0,0,0,0,0,0,0,0,0,0,0,0,0,0,0,0,0,0,0,0,0,0,1181,0,0,0,1181,0,0,0,1334,0,0,
0,0,1179,0,0,0,0,0,0,0,0,0,0,0,0,0,0,0,0,0,0,0,0,0,0,0,0,0,0,0,0,0,0,0,0,0,0,0,0,0,0,0,0,0,0,0,0,0,0,1183,0,0,0,0,0,0,0,0,0,0,
0,0,0,1181,0,0,0,0,0,1366,0,0,0,0,0,1334,0,0,0,0,0,0,0,0,0,1179,0,0,0,0,0,0,0,0,0,0,0,0,0,0,0,1334,0,0,0,0,0,1362,0,0,0,1366,0,0,0,0,0,0,0,0,
0,0,0,0,0,0,0,0,0,0,0,0,1177,0,0,0,0,0,0,0,0,0,0,0,0,0,0,0,0,0,0,0,0,0,0,0,0,0,0,0,0,0,0,1183,0,0,0,0,0,0,0,0,0,0,0,0,0,0,0,0,
0,0,1362,0,1178,0,1366,0,0,0,1183,1178,0,0,0,0,1181,0,0,0,0,1364,0,0,0,1366,0,0,1181,0,0,0,0,0,0,0,0,0,0,0,0,0,0,0,0,1181,0,0,0,0,0,0,0,0,0,1334,0,0,0,0,
0,0,0,0,0,1178,0,0,0,0,0,0,0,0,0,0,0,0,1177,0,0,0,0,0,0,0,0,0,0,0,0,0,0,0,0,0,0,1178,0,0,0,0,0,1182,0,0,0,0,0,1178,0,0,0,0,0,0,0,0,0,0,
0,0,0,0,0,0,0,0,0,0,0,0,0,0,0,1364,0,0,0,0,0,0,0,0,0,0,0,0,0,1332,1181,0,0,0,0,0,0,0,0,0,0,1364,0,0,0,1362,0,0,0,0,0,1366,0,0,0,0,0,0,0,0,
0,0,0,0,0,0,0,0,0,0,0,0,0,0,0,0,0,0,0,0,0,0,0,0,1182,0,0,0,0,0,0,0,1178,0,0,0,0,0,0,0,0,0,0,0,0,0,0,0,0,0,0,0,0,0,0,0,1177,0,0,0,
0,0,1364,1181,0,0,0,0,0,1334,0,0,0,0,0,0,0,0,0,1366,0,1181,0,1364,0,0,0,0,0,0,0,0,0,0,1182,0,0,0,0,0,0,0,0,0,0,0,0,0,0,0,0,0,0,0,0,1332,0,0,0,0,
0,0,0,0,0,0,0,0,0,0,0,0,0,0,0,0,0,0,0,0,0,0,1181,0,0,0,0,0,1183,0,0,0,0,0,0,0,0,0,0,0,0,0,0,0,0,0,0,1183,0,0,0,0,0,0,0,0,0,0,0,0,
0,0,0,0,0,0,1334,0,0,1177,0,0,0,1366,0,0,0,0,0,0,0,0,0,0,1179,0,0,1364,0,1183,0,0,0,1364,0,0,0,0,0,0,0,1183,0,0,0,1362,0,0,0,0,0,1334,0,0,0,0,0,0,0,0,
0,0,0,0,0,0,0,0,0,0,0,0,0,0,1178,0,0,0,0,0,0,0,0,0,0,0,0,0,0,0,0,0,0,0,0,0,0,0,0,1179,0,0,1182,0,0,1177,0,0,0,0,0,0,0,0,0,0,0,0,0,0,
0,0,1364,0,0,0,0,0,0,0,0,0,0,0,0,0,0,0,0,0,0,0,0,0,0,0,0,0,0,0,0,0,0,0,0,0,0,0,0,0,0,1332,0,0,0,0,0,1177,0,0,0,0,0,0,0,1366,1181,0,0,0,
0,0,0,0,0,0,0,0,0,0,0,1183,0,0,0,0,0,0,0,1177,0,0,0,0,0,0,0,0,0,0,0,0,0,0,0,0,0,0,0,0,0,1183,0,0,0,0,1177,0,0,0,1179,0,0,0,0,0,0,0,0,0,
0,0,0,0,0,0,1364,0,0,0,1364,0,0,0,1366,0,0,0,1332,0,0,0,1366,0,1178,0,1364,0,0,0,1364,0,0,0,0,0,0,0,0,0,1177,0,0,0,1366,0,0,0,1364,0,0,0,1366,1181,0,0,1182,0,0,0,
0,0,0,0,0,0,0,0,0,0,0,1181,0,0,0,0,0,0,0,0,0,0,0,0,0,0,0,0,0,0,0,0,0,0,0,0,0,0,0,0,0,0,0,0,0,0,0,0,0,0,1181,0,1179,0,0,0,0,0,0,0,
0,0,0,0,0,0,0,0,0,0,0,0,0,0,0,0,0,0,0,0,0,0,0,0,0,0,0,0,0,0,0,0,0,0,0,0,0,0,0,0,1362,0,0,0,0,0,0,0,0,0,0,0,0,0,0,0,0,1334,0,0,
0,0,0,0,0,0,0,0,0,0,0,0,0,0,0,0,0,0,0,0,0,0,0,0,0,0,0,0,0,0,0,0,0,0,0,0,0,0,0,0,0,0,0,0,0,0,0,0,0,0,0,0,0,0,0,0,0,0,0,0
</data>
 </layer>
 <layer id="6" name="Copas_Arvores" width="60" height="60">
  <properties>
   <property name="overhead" type="bool" value="true"/>
  </properties>
  <data encoding="csv">
0,0,0,0,0,0,0,0,0,0,0,0,0,0,0,0,0,0,0,0,0,0,0,0,0,0,0,0,0,0,0,0,0,0,0,0,0,0,0,0,0,0,0,0,0,0,0,0,0,0,0,0,0,0,0,0,0,0,0,0,
0,0,0,1347,1348,0,0,1347,1348,0,0,1349,1350,0,0,1315,1316,0,0,1345,1346,0,0,0,0,0,0,0,0,0,0,0,0,1345,1346,0,0,1315,1316,0,0,1345,1346,0,0,1315,1316,0,0,1345,1346,0,0,0,1315,1316,0,0,0,0,
0,0,0,1363,0,0,0,1363,0,0,0,1365,0,0,0,1331,0,0,0,1361,0,0,0,0,0,0,0,0,0,0,0,0,0,1361,0,0,0,1331,0,0,0,1361,0,0,0,1331,0,0,0,1361,0,0,0,0,1331,0,0,0,0,0,
0,0,0,0,0,0,0,0,0,0,0,0,0,0,0,0,0,0,0,0,0,0,0,1317,1318,0,0,0,0,0,0,0,0,0,0,0,0,0,0,0,0,0,0,0,0,0,0,0,0,0,0,0,0,0,0,0,0,0,0,0,
0,0,0,0,0,0,0,0,0,0,0,0,0,0,0,0,0,0,0,0,0,0,0,1333,0,0,0,0,0,0,0,0,0,0,0,0,0,0,0,0,0,0,0,0,0,0,0,0,0,0,0,0,0,0,0,0,0,0,0,0,
0,1345,1346,0,0,1345,1346,0,1317,1318,0,0,0,0,1347,1348,0,0,0,0,0,0,0,0,0,0,1315,1316,0,0,0,0,0,0,0,0,0,0,0,0,0,0,1347,1348,0,0,0,0,0,0,0,0,0,0,1317,1318,0,0,0,0,
0,1361,0,0,0,1361,0,0,1333,0,0,0,0,0,1363,0,0,0,0,0,0,0,0,0,0,0,1331,0,0,0,0,0,0,0,0,0,0,0,0,0,0,0,1363,0,0,0,0,0,0,0,0,0,0,0,1333,0,0,0,0,0,
0,0,0,0,0,0,0,0,0,0,0,0,0,0,0,0,0,0,0,0,1347,1348,0,0,0,0,0,0,0,0,0,0,0,0,0,0,0,0,0,0,0,0,0,0,0,0,1345,1346,0,0,0,0,0,0,0,0,0,0,0,0,
0,0,0,0,0,0,0,0,0,0,0,0,0,0,0,0,0,0,0,0,1363,0,0,0,0,0,0,0,0,0,0,0,0,0,0,0,0,0,0,0,0,0,0,0,0,0,1361,0,0,0,0,0,0,0,0,0,0,0,0,0,
0,1347,1348,0,0,1315,1316,0,1315,1316,0,0,1317,1318,0,0,0,0,0,0,0,0,0,0,0,0,0,0,0,0,0,0,0,0,0,0,0,0,0,0,1347,1348,0,0,0,0,0,0,0,0,0,0,0,0,1317,1318,0,0,0,0,
0,1363,0,0,0,1331,0,0,1331,0,0,0,1333,0,0,0,0,0,0,0,0,0,0,0,0,0,0,0,0,0,0,0,0,0,0,0,0,0,0,0,1363,0,0,0,0,0,0,0,0,0,0,0,0,0,1333,0,0,0,0,0,
0,0,0,0,0,0,0,0,0,0,0,0,0,0,0,0,0,0,0,0,0,0,0,0,0,0,0,0,0,0,1345,1346,0,0,0,0,0,0,0,0,0,0,0,0,0,0,0,0,1347,1348,0,0,0,0,0,0,0,0,0,0,
0,0,0,0,0,0,0,0,0,0,0,0,0,0,0,0,0,0,0,0,0,0,0,0,0,0,0,0,0,0,1361,0,0,0,0,0,0,0,0,0,0,0,0,0,0,0,0,0,1363,0,0,0,0,0,0,0,0,0,0,0,
0,1315,1316,0,0,1347,1348,0,1317,1318,0,0,0,0,0,0,1347,1348,0,0,0,0,1349,1350,0,0,0,0,0,0,0,0,0,0,0,0,0,0,0,0,0,0,0,0,0,0,0,0,0,0,0,0,0,0,1345,1346,0,0,0,0,
0,1331,0,0,0,1363,0,0,1333,0,0,0,0,0,0,0,1363,0,0,0,0,0,1365,0,0,0,0,0,0,0,0,0,0,0,0,0,0,0,0,0,0,0,0,0,0,0,0,0,0,0,0,0,0,0,1361,0,0,0,0,0,
0,0,0,0,0,0,0,0,0,0,0,0,1345,1346,0,0,0,0,0,0,0,0,0,0,0,0,1317,1318,0,0,0,0,0,0,0,0,0,0,0,0,0,0,0,0,0,0,0,0,0,0,0,0,0,0,0,0,0,0,0,0,
0,0,0,0,0,0,0,0,0,0,0,0,1361,0,0,0,0,0,0,0,0,0,0,0,0,0,1333,0,0,0,0,0,0,0,0,0,0,0,0,0,0,0,0,0,0,0,0,0,0,0,0,0,0,0,0,0,0,0,0,0,
0,1315,1316,0,0,1315,1316,0,1315,1316,0,0,0,0,0,0,1317,1318,0,0,0,0,1317,1318,0,0,0,0,0,0,0,0,0,0,0,0,0,0,0,0,0,0,0,0,0,0,0,0,0,0,0,0,0,0,1347,1348,0,0,0,0,
0,1331,0,0,0,1331,0,0,1331,0,0,0,0,0,0,0,1333,0,0,0,0,0,1333,0,0,0,0,0,0,0,0,0,0,0,0,0,0,0,0,0,0,0,0,0,0,0,0,0,0,0,0,0,0,0,1363,0,0,0,0,0,
0,0,0,0,0,0,0,0,0,0,0,0,1345,1346,0,0,0,0,0,0,0,0,0,0,0,0,0,0,0,0,0,0,0,0,0,0,0,0,0,0,0,0,0,0,0,0,0,0,0,0,0,0,0,0,0,0,0,0,0,0,
0,0,0,0,0,0,0,0,0,0,0,0,1361,0,0,0,0,0,0,0,0,0,0,0,0,0,0,0,0,0,0,0,0,0,0,0,0,0,0,0,0,0,0,0,0,0,0,0,0,0,0,0,0,0,0,0,0,0,0,0,
0,0,0,1315,1316,0,1347,1348,0,0,0,0,0,0,0,0,1315,1316,0,0,0,0,0,0,0,0,0,0,0,0,0,0,0,0,0,0,0,0,0,0,0,0,0,0,0,0,0,0,0,0,0,0,0,0,0,0,1345,1346,0,0,
0,0,0,1331,0,0,1363,0,0,0,0,0,0,0,0,0,1331,0,0,0,0,0,0,0,0,0,0,0,0,0,0,0,0,0,0,0,0,0,0,0,0,0,0,0,0,0,0,0,0,0,0,0,0,0,0,0,1361,0,0,0,
0,0,0,0,0,0,0,0,0,0,0,0,1347,1348,0,0,0,0,0,0,0,0,0,0,0,0,0,0,0,0,0,0,0,0,0,0,0,0,0,0,0,0,0,0,0,0,0,0,0,0,0,0,0,0,0,0,0,0,0,0,
0,0,0,0,0,0,0,0,0,0,0,0,1363,0,0,0,0,0,0,0,0,0,0,0,0,0,0,0,0,0,0,0,0,0,0,0,0,0,0,0,0,0,0,0,0,0,0,0,0,0,0,0,0,0,0,0,0,0,0,0,
0,1317,1318,0,0,1345,1346,0,0,0,0,0,0,0,0,0,1347,1348,0,0,0,0,0,0,0,0,0,0,1317,1318,0,0,0,0,0,0,0,0,0,0,0,0,0,0,0,0,0,0,0,0,0,0,0,0,1347,1348,0,0,0,0,
0,1333,0,0,0,1361,0,0,0,0,0,0,0,0,0,0,1363,0,0,0,0,0,0,0,0,0,0,0,1333,0,0,0,0,0,0,0,0,0,0,0,0,0,0,0,0,0,0,0,0,0,0,0,0,0,1363,0,0,0,0,0,
0,0,0,0,0,0,0,0,0,0,1347,1348,0,0,0,0,0,0,0,0,0,0,0,0,0,0,0,0,0,0,0,0,1317,1318,0,0,0,0,1349,1350,0,0,0,0,0,0,1315,1316,0,0,1349,1350,0,0,0,0,0,0,0,0,
0,0,0,0,0,0,0,0,0,0,1363,0,0,0,0,0,0,0,0,0,0,0,0,0,0,0,0,0,0,0,0,0,1333,0,0,0,0,0,1365,0,0,0,0,0,0,0,1331,0,0,0,1365,0,0,0,0,0,0,0,0,0,
0,1315,1316,0,0,1349,1350,0,0,0,0,0,0,0,0,0,0,0,0,0,0,0,0,0,0,0,0,0,1317,1318,0,0,0,0,0,0,0,0,0,0,0,0,0,0,0,0,0,0,0,0,0,0,0,0,1345,1346,0,0,0,0,
0,1331,0,0,0,1365,0,0,0,0,0,0,0,0,0,0,0,0,0,0,0,0,0,0,0,0,0,0,1333,0,0,0,0,0,0,0,0,0,0,0,0,0,0,0,0,0,0,0,0,0,0,0,0,0,1361,0,0,0,0,0,
0,0,0,0,0,0,0,0,0,0,0,0,0,0,0,0,0,0,0,0,0,0,0,0,0,0,0,0,0,0,0,0,1345,1346,0,0,1347,1348,0,0,1345,1346,0,0,1347,1348,0,0,0,0,1347,1348,0,0,0,0,0,0,0,0,
0,0,0,0,0,0,0,0,0,0,0,0,0,0,0,0,0,0,0,0,0,0,0,0,0,0,0,0,0,0,0,0,1361,0,0,0,1363,0,0,0,1361,0,0,0,1363,0,0,0,0,0,1363,0,0,0,0,0,0,0,0,0,
0,1315,1316,0,0,1349,1350,0,0,0,0,0,0,0,0,0,0,0,0,0,0,0,0,0,0,0,0,0,0,0,0,0,0,0,0,0,0,0,0,0,0,0,0,0,0,0,0,0,0,0,0,0,0,0,1347,1348,0,0,0,0,
0,1331,0,0,0,1365,0,0,0,0,0,0,0,0,0,0,0,0,0,0,0,0,0,0,0,0,0,0,0,0,0,0,0,0,0,0,0,0,0,0,0,0,0,0,0,0,0,0,0,0,0,0,0,0,1363,0,0,0,0,0,
0,0,0,0,0,0,0,0,0,0,0,0,0,0,0,0,0,0,0,0,0,0,0,0,0,0,0,0,0,0,0,0,0,0,0,0,1317,1318,0,0,0,0,1345,1346,0,0,1349,1350,0,0,0,0,0,0,0,0,0,0,0,0,
0,0,0,0,0,0,0,0,0,0,0,0,0,0,0,0,0,0,0,0,0,0,0,0,0,0,0,0,0,0,0,0,0,0,0,0,1333,0,0,0,0,0,1361,0,0,0,1365,0,0,0,0,0,0,0,0,0,0,0,0,0,
0,1315,1316,0,0,1345,1346,0,0,0,0,0,0,0,0,0,0,0,0,0,0,0,0,0,0,0,0,0,0,0,0,0,1349,1350,0,0,0,0,0,0,0,0,0,0,0,0,0,0,0,0,0,0,0,0,1317,1318,0,0,0,0,
0,1331,0,0,0,1361,0,0,0,0,0,0,0,0,0,0,0,0,0,0,0,0,0,0,0,0,0,0,0,0,0,0,1365,0,0,0,0,0,0,0,0,0,0,0,0,0,0,0,0,0,0,0,0,0,1333,0,0,0,0,0,
0,0,0,0,0,0,0,0,1345,1346,0,0,0,0,1349,1350,0,0,0,0,0,0,0,0,0,0,0,0,0,0,0,0,0,0,0,0,0,0,0,0,0,0,1317,1318,0,0,0,0,1345,1346,0,0,0,0,0,0,0,0,0,0,
0,0,0,0,0,0,0,0,1361,0,0,0,0,0,1365,0,0,0,0,0,0,0,0,0,0,0,0,0,0,0,0,0,0,0,0,0,0,0,0,0,0,0,1333,0,0,0,0,0,1361,0,0,0,0,0,0,0,0,0,0,0,
0,1349,1350,0,0,1317,1318,0,0,0,0,0,0,0,0,0,0,0,0,0,0,0,0,0,0,0,0,0,0,0,0,0,0,0,0,0,0,0,0,0,0,0,0,0,0,0,0,0,0,0,0,0,0,0,0,0,1317,1318,0,0,
0,1365,0,0,0,1333,0,0,0,0,0,0,0,0,0,0,0,0,0,0,0,0,0,0,0,0,0,0,0,0,0,0,0,0,0,0,0,0,0,0,0,0,0,0,0,0,0,0,0,0,0,0,0,0,0,0,1333,0,0,0,
0,0,0,0,0,0,0,0,1349,1350,0,0,0,0,1317,1318,0,0,0,0,0,0,0,0,0,0,0,0,0,0,0,0,0,0,0,0,0,0,0,0,1317,1318,0,0,0,0,1345,1346,0,0,1349,1350,0,0,0,0,0,0,0,0,
0,0,0,0,0,0,0,0,1365,0,0,0,0,0,1333,0,0,0,0,0,0,0,0,0,0,0,0,0,0,0,0,0,0,0,0,0,0,0,0,0,1333,0,0,0,0,0,1361,0,0,0,1365,0,0,0,0,0,0,0,0,0,
0,1345,1346,0,0,1349,1350,0,0,0,0,0,0,0,0,0,0,0,0,0,1347,1348,0,0,1349,1350,0,0,0,0,0,0,0,0,0,0,0,0,0,0,0,0,0,0,0,0,0,0,0,0,0,0,0,0,1317,1318,0,0,0,0,
0,1361,0,0,0,1365,0,0,0,0,0,0,0,0,0,0,0,0,0,0,1363,0,0,0,1365,0,0,0,0,0,0,0,0,0,0,0,0,0,0,0,0,0,0,0,0,0,0,0,0,0,0,0,0,0,1333,0,0,0,0,0,
0,0,0,0,0,0,0,0,0,0,0,0,0,0,1347,1348,0,0,0,0,0,0,0,0,0,0,0,0,1315,1316,0,0,0,0,0,0,0,0,0,0,1347,1348,0,0,1345,1346,0,0,0,0,1349,1350,0,0,0,0,0,0,0,0,
0,0,0,0,0,0,0,0,0,0,0,0,0,0,1363,0,0,0,0,0,0,0,0,0,0,0,0,0,1331,0,0,0,0,0,0,0,0,0,0,0,1363,0,0,0,1361,0,0,0,0,0,1365,0,0,0,0,0,0,0,0,0,
0,1347,1348,0,0,0,0,0,1317,1318,0,0,0,0,0,0,0,0,1349,1350,0,0,1347,1348,0,0,0,0,0,0,0,0,0,0,0,0,0,0,0,0,0,0,0,0,0,0,0,0,0,0,0,0,0,0,1315,1316,0,0,0,0,
0,1363,0,0,0,0,0,0,1333,0,0,0,0,0,0,0,0,0,1365,0,0,0,1363,0,0,0,0,0,0,0,0,0,0,0,0,0,0,0,0,0,0,0,0,0,0,0,0,0,0,0,0,0,0,0,1331,0,0,0,0,0,
0,0,0,0,0,1317,1318,0,0,0,0,0,1349,1350,0,0,0,0,0,0,0,0,0,0,0,0,1347,1348,0,0,0,0,1347,1348,0,0,0,0,0,0,0,0,0,0,1345,1346,0,0,0,0,1317,1318,0,0,0,0,0,0,0,0,
0,0,0,0,0,1333,0,0,0,0,0,0,1365,0,0,0,0,0,0,0,0,0,0,0,0,0,1363,0,0,0,0,0,1363,0,0,0,0,0,0,0,0,0,0,0,1361,0,0,0,0,0,1333,0,0,0,0,0,0,0,0,0,
0,1347,1348,0,0,0,0,0,0,0,0,0,0,0,0,0,0,0,0,0,0,0,0,0,0,0,0,0,0,0,0,0,0,0,0,0,0,0,0,0,1315,1316,0,0,0,0,0,0,0,0,0,0,0,0,1349,1350,0,0,0,0,
0,1363,0,0,0,0,0,0,0,0,0,0,0,0,0,0,0,0,0,0,0,0,0,0,0,0,0,0,0,0,0,0,0,0,0,0,0,0,0,0,1331,0,0,0,0,0,0,0,0,0,0,0,0,0,1365,0,0,0,0,0,
0,0,0,0,0,1347,1348,0,0,1347,1348,0,0,1349,1350,0,0,1315,1316,0,0,1349,1350,0,0,1347,1348,0,0,1347,1348,0,0,0,0,0,0,0,0,0,0,0,0,1349,1350,0,0,1347,1348,0,0,1349,1350,0,0,0,0,0,0,0,
0,0,0,0,0,1363,0,0,0,1363,0,0,0,1365,0,0,0,1331,0,0,0,1365,0,0,0,1363,0,0,0,1363,0,0,0,0,0,0,0,0,0,0,0,0,0,1365,0,0,0,1363,0,0,0,1365,0,0,0,0,0,0,0,0,
0,0,0,0,0,0,0,0,0,0,0,0,0,0,0,0,0,0,0,0,0,0,0,0,0,0,0,0,0,0,0,0,0,0,0,0,0,0,0,1345,1346,0,0,0,0,0,0,0,0,0,0,0,0,0,0,0,1317,1318,0,0,
0,0,0,0,0,0,0,0,0,0,0,0,0,0,0,0,0,0,0,0,0,0,0,0,0,0,0,0,0,0,0,0,0,0,0,0,0,0,0,1361,0,0,0,0,0,0,0,0,0,0,0,0,0,0,0,0,1333,0,0,0,
0,0,0,0,0,0,0,0,0,0,0,0,0,0,0,0,0,0,0,0,0,0,0,0,0,0,0,0,0,0,0,0,0,0,0,0,0,0,0,0,0,0,0,0,0,0,0,0,0,0,0,0,0,0,0,0,0,0,0,0
</data>
 </layer>
 <objectgroup id="7" name="Colisoes" color="#ff0000">
  <object id="1" name="Agua_Profunda" type="Agua" x="1344" y="384" width="32" height="32"/>
  <object id="2" name="Agua_Profunda" type="Agua" x="1376" y="384" width="32" height="32"/>
  <object id="3" name="Agua_Profunda" type="Agua" x="1312" y="416" width="32" height="32"/>
  <object id="4" name="Agua_Profunda" type="Agua" x="1344" y="416" width="32" height="32"/>
  <object id="5" name="Agua_Profunda" type="Agua" x="1376" y="416" width="32" height="32"/>
  <object id="6" name="Agua_Profunda" type="Agua" x="1408" y="416" width="32" height="32"/>
  <object id="7" name="Agua_Profunda" type="Agua" x="1440" y="416" width="32" height="32"/>
  <object id="8" name="Agua_Profunda" type="Agua" x="1280" y="448" width="32" height="32"/>
  <object id="9" name="Agua_Profunda" type="Agua" x="1312" y="448" width="32" height="32"/>
  <object id="10" name="Agua_Profunda" type="Agua" x="1344" y="448" width="32" height="32"/>
  <object id="11" name="Agua_Profunda" type="Agua" x="1376" y="448" width="32" height="32"/>
  <object id="12" name="Agua_Profunda" type="Agua" x="1408" y="448" width="32" height="32"/>
  <object id="13" name="Agua_Profunda" type="Agua" x="1440" y="448" width="32" height="32"/>
  <object id="14" name="Agua_Profunda" type="Agua" x="1472" y="448" width="32" height="32"/>
  <object id="15" name="Agua_Profunda" type="Agua" x="1600" y="448" width="32" height="32"/>
  <object id="16" name="Agua_Profunda" type="Agua" x="1632" y="448" width="32" height="32"/>
  <object id="17" name="Agua_Profunda" type="Agua" x="1280" y="480" width="32" height="32"/>
  <object id="18" name="Agua_Profunda" type="Agua" x="1312" y="480" width="32" height="32"/>
  <object id="19" name="Agua_Profunda" type="Agua" x="1344" y="480" width="32" height="32"/>
  <object id="20" name="Agua_Profunda" type="Agua" x="1376" y="480" width="32" height="32"/>
  <object id="21" name="Agua_Profunda" type="Agua" x="1408" y="480" width="32" height="32"/>
  <object id="22" name="Agua_Profunda" type="Agua" x="1440" y="480" width="32" height="32"/>
  <object id="23" name="Agua_Profunda" type="Agua" x="1472" y="480" width="32" height="32"/>
  <object id="24" name="Agua_Profunda" type="Agua" x="1504" y="480" width="32" height="32"/>
  <object id="25" name="Agua_Profunda" type="Agua" x="1568" y="480" width="32" height="32"/>
  <object id="26" name="Agua_Profunda" type="Agua" x="1600" y="480" width="32" height="32"/>
  <object id="27" name="Agua_Profunda" type="Agua" x="1632" y="480" width="32" height="32"/>
  <object id="28" name="Agua_Profunda" type="Agua" x="1280" y="512" width="32" height="32"/>
  <object id="29" name="Agua_Profunda" type="Agua" x="1312" y="512" width="32" height="32"/>
  <object id="30" name="Agua_Profunda" type="Agua" x="1344" y="512" width="32" height="32"/>
  <object id="31" name="Agua_Profunda" type="Agua" x="1376" y="512" width="32" height="32"/>
  <object id="32" name="Agua_Profunda" type="Agua" x="1408" y="512" width="32" height="32"/>
  <object id="33" name="Agua_Profunda" type="Agua" x="1440" y="512" width="32" height="32"/>
  <object id="34" name="Agua_Profunda" type="Agua" x="1472" y="512" width="32" height="32"/>
  <object id="35" name="Agua_Profunda" type="Agua" x="1504" y="512" width="32" height="32"/>
  <object id="36" name="Agua_Profunda" type="Agua" x="1568" y="512" width="32" height="32"/>
  <object id="37" name="Agua_Profunda" type="Agua" x="1600" y="512" width="32" height="32"/>
  <object id="38" name="Agua_Profunda" type="Agua" x="1632" y="512" width="32" height="32"/>
  <object id="39" name="Agua_Profunda" type="Agua" x="1280" y="544" width="32" height="32"/>
  <object id="40" name="Agua_Profunda" type="Agua" x="1312" y="544" width="32" height="32"/>
  <object id="41" name="Agua_Profunda" type="Agua" x="1344" y="544" width="32" height="32"/>
  <object id="42" name="Agua_Profunda" type="Agua" x="1376" y="544" width="32" height="32"/>
  <object id="43" name="Agua_Profunda" type="Agua" x="1408" y="544" width="32" height="32"/>
  <object id="44" name="Agua_Profunda" type="Agua" x="1440" y="544" width="32" height="32"/>
  <object id="45" name="Agua_Profunda" type="Agua" x="1472" y="544" width="32" height="32"/>
  <object id="46" name="Agua_Profunda" type="Agua" x="1504" y="544" width="32" height="32"/>
  <object id="47" name="Agua_Profunda" type="Agua" x="1600" y="544" width="32" height="32"/>
  <object id="48" name="Agua_Profunda" type="Agua" x="1280" y="576" width="32" height="32"/>
  <object id="49" name="Agua_Profunda" type="Agua" x="1312" y="576" width="32" height="32"/>
  <object id="50" name="Agua_Profunda" type="Agua" x="1344" y="576" width="32" height="32"/>
  <object id="51" name="Agua_Profunda" type="Agua" x="1376" y="576" width="32" height="32"/>
  <object id="52" name="Agua_Profunda" type="Agua" x="1408" y="576" width="32" height="32"/>
  <object id="53" name="Agua_Profunda" type="Agua" x="1440" y="576" width="32" height="32"/>
  <object id="54" name="Agua_Profunda" type="Agua" x="1472" y="576" width="32" height="32"/>
  <object id="55" name="Agua_Profunda" type="Agua" x="1504" y="576" width="32" height="32"/>
  <object id="56" name="Agua_Profunda" type="Agua" x="1536" y="576" width="32" height="32"/>
  <object id="57" name="Agua_Profunda" type="Agua" x="1568" y="576" width="32" height="32"/>
  <object id="58" name="Agua_Profunda" type="Agua" x="1600" y="576" width="32" height="32"/>
  <object id="59" name="Agua_Profunda" type="Agua" x="1248" y="608" width="32" height="32"/>
  <object id="60" name="Agua_Profunda" type="Agua" x="1280" y="608" width="32" height="32"/>
  <object id="61" name="Agua_Profunda" type="Agua" x="1312" y="608" width="32" height="32"/>
  <object id="62" name="Agua_Profunda" type="Agua" x="1344" y="608" width="32" height="32"/>
  <object id="63" name="Agua_Profunda" type="Agua" x="1376" y="608" width="32" height="32"/>
  <object id="64" name="Agua_Profunda" type="Agua" x="1408" y="608" width="32" height="32"/>
  <object id="65" name="Agua_Profunda" type="Agua" x="1440" y="608" width="32" height="32"/>
  <object id="66" name="Agua_Profunda" type="Agua" x="1472" y="608" width="32" height="32"/>
  <object id="67" name="Agua_Profunda" type="Agua" x="1504" y="608" width="32" height="32"/>
  <object id="68" name="Agua_Profunda" type="Agua" x="1536" y="608" width="32" height="32"/>
  <object id="69" name="Agua_Profunda" type="Agua" x="1568" y="608" width="32" height="32"/>
  <object id="70" name="Agua_Profunda" type="Agua" x="1600" y="608" width="32" height="32"/>
  <object id="71" name="Agua_Profunda" type="Agua" x="1632" y="608" width="32" height="32"/>
  <object id="72" name="Agua_Profunda" type="Agua" x="1248" y="640" width="32" height="32"/>
  <object id="73" name="Agua_Profunda" type="Agua" x="1280" y="640" width="32" height="32"/>
  <object id="74" name="Agua_Profunda" type="Agua" x="1312" y="640" width="32" height="32"/>
  <object id="75" name="Agua_Profunda" type="Agua" x="1344" y="640" width="32" height="32"/>
  <object id="76" name="Agua_Profunda" type="Agua" x="1376" y="640" width="32" height="32"/>
  <object id="77" name="Agua_Profunda" type="Agua" x="1408" y="640" width="32" height="32"/>
  <object id="78" name="Agua_Profunda" type="Agua" x="1440" y="640" width="32" height="32"/>
  <object id="79" name="Agua_Profunda" type="Agua" x="1472" y="640" width="32" height="32"/>
  <object id="80" name="Agua_Profunda" type="Agua" x="1504" y="640" width="32" height="32"/>
  <object id="81" name="Agua_Profunda" type="Agua" x="1536" y="640" width="32" height="32"/>
  <object id="82" name="Agua_Profunda" type="Agua" x="1568" y="640" width="32" height="32"/>
  <object id="83" name="Agua_Profunda" type="Agua" x="1600" y="640" width="32" height="32"/>
  <object id="84" name="Agua_Profunda" type="Agua" x="1632" y="640" width="32" height="32"/>
  <object id="85" name="Agua_Profunda" type="Agua" x="1664" y="640" width="32" height="32"/>
  <object id="86" name="Agua_Profunda" type="Agua" x="1120" y="672" width="32" height="32"/>
  <object id="87" name="Agua_Profunda" type="Agua" x="1152" y="672" width="32" height="32"/>
  <object id="88" name="Agua_Profunda" type="Agua" x="1184" y="672" width="32" height="32"/>
  <object id="89" name="Agua_Profunda" type="Agua" x="1216" y="672" width="32" height="32"/>
  <object id="90" name="Agua_Profunda" type="Agua" x="1248" y="672" width="32" height="32"/>
  <object id="91" name="Agua_Profunda" type="Agua" x="1280" y="672" width="32" height="32"/>
  <object id="92" name="Agua_Profunda" type="Agua" x="1312" y="672" width="32" height="32"/>
  <object id="93" name="Agua_Profunda" type="Agua" x="1344" y="672" width="32" height="32"/>
  <object id="94" name="Agua_Profunda" type="Agua" x="1376" y="672" width="32" height="32"/>
  <object id="95" name="Agua_Profunda" type="Agua" x="1408" y="672" width="32" height="32"/>
  <object id="96" name="Agua_Profunda" type="Agua" x="1440" y="672" width="32" height="32"/>
  <object id="97" name="Agua_Profunda" type="Agua" x="1472" y="672" width="32" height="32"/>
  <object id="98" name="Agua_Profunda" type="Agua" x="1504" y="672" width="32" height="32"/>
  <object id="99" name="Agua_Profunda" type="Agua" x="1536" y="672" width="32" height="32"/>
  <object id="100" name="Agua_Profunda" type="Agua" x="1568" y="672" width="32" height="32"/>
  <object id="101" name="Agua_Profunda" type="Agua" x="1600" y="672" width="32" height="32"/>
  <object id="102" name="Agua_Profunda" type="Agua" x="1632" y="672" width="32" height="32"/>
  <object id="103" name="Agua_Profunda" type="Agua" x="1664" y="672" width="32" height="32"/>
  <object id="104" name="Agua_Profunda" type="Agua" x="1696" y="672" width="32" height="32"/>
  <object id="105" name="Agua_Profunda" type="Agua" x="1088" y="704" width="32" height="32"/>
  <object id="106" name="Agua_Profunda" type="Agua" x="1120" y="704" width="32" height="32"/>
  <object id="107" name="Agua_Profunda" type="Agua" x="1152" y="704" width="32" height="32"/>
  <object id="108" name="Agua_Profunda" type="Agua" x="1184" y="704" width="32" height="32"/>
  <object id="109" name="Agua_Profunda" type="Agua" x="1216" y="704" width="32" height="32"/>
  <object id="110" name="Agua_Profunda" type="Agua" x="1248" y="704" width="32" height="32"/>
  <object id="111" name="Agua_Profunda" type="Agua" x="1280" y="704" width="32" height="32"/>
  <object id="112" name="Agua_Profunda" type="Agua" x="1312" y="704" width="32" height="32"/>
  <object id="113" name="Agua_Profunda" type="Agua" x="1344" y="704" width="32" height="32"/>
  <object id="114" name="Agua_Profunda" type="Agua" x="1376" y="704" width="32" height="32"/>
  <object id="115" name="Agua_Profunda" type="Agua" x="1408" y="704" width="32" height="32"/>
  <object id="116" name="Agua_Profunda" type="Agua" x="1440" y="704" width="32" height="32"/>
  <object id="117" name="Agua_Profunda" type="Agua" x="1472" y="704" width="32" height="32"/>
  <object id="118" name="Agua_Profunda" type="Agua" x="1504" y="704" width="32" height="32"/>
  <object id="119" name="Agua_Profunda" type="Agua" x="1536" y="704" width="32" height="32"/>
  <object id="120" name="Agua_Profunda" type="Agua" x="1568" y="704" width="32" height="32"/>
  <object id="121" name="Agua_Profunda" type="Agua" x="1600" y="704" width="32" height="32"/>
  <object id="122" name="Agua_Profunda" type="Agua" x="1632" y="704" width="32" height="32"/>
  <object id="123" name="Agua_Profunda" type="Agua" x="1664" y="704" width="32" height="32"/>
  <object id="124" name="Agua_Profunda" type="Agua" x="1696" y="704" width="32" height="32"/>
  <object id="125" name="Agua_Profunda" type="Agua" x="1120" y="736" width="32" height="32"/>
  <object id="126" name="Agua_Profunda" type="Agua" x="1152" y="736" width="32" height="32"/>
  <object id="127" name="Agua_Profunda" type="Agua" x="1184" y="736" width="32" height="32"/>
  <object id="128" name="Agua_Profunda" type="Agua" x="1216" y="736" width="32" height="32"/>
  <object id="129" name="Agua_Profunda" type="Agua" x="1248" y="736" width="32" height="32"/>
  <object id="130" name="Agua_Profunda" type="Agua" x="1280" y="736" width="32" height="32"/>
  <object id="131" name="Agua_Profunda" type="Agua" x="1312" y="736" width="32" height="32"/>
  <object id="132" name="Agua_Profunda" type="Agua" x="1344" y="736" width="32" height="32"/>
  <object id="133" name="Agua_Profunda" type="Agua" x="1376" y="736" width="32" height="32"/>
  <object id="134" name="Agua_Profunda" type="Agua" x="1408" y="736" width="32" height="32"/>
  <object id="135" name="Agua_Profunda" type="Agua" x="1440" y="736" width="32" height="32"/>
  <object id="136" name="Agua_Profunda" type="Agua" x="1472" y="736" width="32" height="32"/>
  <object id="137" name="Agua_Profunda" type="Agua" x="1504" y="736" width="32" height="32"/>
  <object id="138" name="Agua_Profunda" type="Agua" x="1536" y="736" width="32" height="32"/>
  <object id="139" name="Agua_Profunda" type="Agua" x="1568" y="736" width="32" height="32"/>
  <object id="140" name="Agua_Profunda" type="Agua" x="1600" y="736" width="32" height="32"/>
  <object id="141" name="Agua_Profunda" type="Agua" x="1632" y="736" width="32" height="32"/>
  <object id="142" name="Agua_Profunda" type="Agua" x="1664" y="736" width="32" height="32"/>
  <object id="143" name="Agua_Profunda" type="Agua" x="1696" y="736" width="32" height="32"/>
  <object id="144" name="Agua_Profunda" type="Agua" x="1248" y="768" width="32" height="32"/>
  <object id="145" name="Agua_Profunda" type="Agua" x="1280" y="768" width="32" height="32"/>
  <object id="146" name="Agua_Profunda" type="Agua" x="1312" y="768" width="32" height="32"/>
  <object id="147" name="Agua_Profunda" type="Agua" x="1344" y="768" width="32" height="32"/>
  <object id="148" name="Agua_Profunda" type="Agua" x="1376" y="768" width="32" height="32"/>
  <object id="149" name="Agua_Profunda" type="Agua" x="1408" y="768" width="32" height="32"/>
  <object id="150" name="Agua_Profunda" type="Agua" x="1440" y="768" width="32" height="32"/>
  <object id="151" name="Agua_Profunda" type="Agua" x="1472" y="768" width="32" height="32"/>
  <object id="152" name="Agua_Profunda" type="Agua" x="1504" y="768" width="32" height="32"/>
  <object id="153" name="Agua_Profunda" type="Agua" x="1536" y="768" width="32" height="32"/>
  <object id="154" name="Agua_Profunda" type="Agua" x="1568" y="768" width="32" height="32"/>
  <object id="155" name="Agua_Profunda" type="Agua" x="1600" y="768" width="32" height="32"/>
  <object id="156" name="Agua_Profunda" type="Agua" x="1632" y="768" width="32" height="32"/>
  <object id="157" name="Agua_Profunda" type="Agua" x="1664" y="768" width="32" height="32"/>
  <object id="158" name="Agua_Profunda" type="Agua" x="1312" y="800" width="32" height="32"/>
  <object id="159" name="Agua_Profunda" type="Agua" x="1344" y="800" width="32" height="32"/>
  <object id="160" name="Agua_Profunda" type="Agua" x="1376" y="800" width="32" height="32"/>
  <object id="161" name="Agua_Profunda" type="Agua" x="1408" y="800" width="32" height="32"/>
  <object id="162" name="Agua_Profunda" type="Agua" x="1440" y="800" width="32" height="32"/>
  <object id="163" name="Agua_Profunda" type="Agua" x="1472" y="800" width="32" height="32"/>
  <object id="164" name="Agua_Profunda" type="Agua" x="1344" y="832" width="32" height="32"/>
  <object id="165" name="Agua_Profunda" type="Agua" x="1376" y="832" width="32" height="32"/>
  <object id="166" name="Agua_Profunda" type="Agua" x="1408" y="832" width="32" height="32"/>
  <object id="167" name="Bau_do_Tesouro" type="Solido" x="386" y="1092" width="28" height="24"/>
  <object id="168" name="Pedra_Clareira" type="Solido" x="292" y="1030" width="24" height="22"/>
  <object id="169" name="Pedra_Clareira" type="Solido" x="484" y="1030" width="24" height="22"/>
  <object id="170" name="Pedra_Clareira" type="Solido" x="292" y="1158" width="24" height="22"/>
  <object id="171" name="Pedra_Clareira" type="Solido" x="484" y="1158" width="24" height="22"/>
  <object id="172" name="Pedra_Clareira" type="Solido" x="388" y="998" width="24" height="22"/>
  <object id="173" name="Pedra_Clareira" type="Solido" x="388" y="1190" width="24" height="22"/>
  <object id="174" name="Tronco_Carvalho" type="Solido" x="132" y="70" width="24" height="22"/>
  <object id="175" name="Tronco_Macieira" type="Solido" x="1764" y="70" width="24" height="22"/>
  <object id="176" name="Tronco_Arvore_Dourada" type="Solido" x="68" y="198" width="24" height="22"/>
  <object id="177" name="Tronco_Arvore_Dourada" type="Solido" x="196" y="198" width="24" height="22"/>
  <object id="178" name="Tronco_Ameixeira" type="Solido" x="1764" y="198" width="24" height="22"/>
  <object id="179" name="Tronco_Carvalho" type="Solido" x="68" y="326" width="24" height="22"/>
  <object id="180" name="Tronco_Macieira" type="Solido" x="196" y="326" width="24" height="22"/>
  <object id="181" name="Tronco_Ameixeira" type="Solido" x="1764" y="326" width="24" height="22"/>
  <object id="182" name="Tronco_Macieira" type="Solido" x="68" y="454" width="24" height="22"/>
  <object id="183" name="Tronco_Carvalho" type="Solido" x="196" y="454" width="24" height="22"/>
  <object id="184" name="Tronco_Arvore_Dourada" type="Solido" x="1764" y="454" width="24" height="22"/>
  <object id="185" name="Tronco_Macieira" type="Solido" x="68" y="582" width="24" height="22"/>
  <object id="186" name="Tronco_Macieira" type="Solido" x="196" y="582" width="24" height="22"/>
  <object id="187" name="Tronco_Carvalho" type="Solido" x="1764" y="582" width="24" height="22"/>
  <object id="188" name="Tronco_Macieira" type="Solido" x="132" y="710" width="24" height="22"/>
  <object id="189" name="Tronco_Arvore_Dourada" type="Solido" x="1828" y="710" width="24" height="22"/>
  <object id="190" name="Tronco_Ameixeira" type="Solido" x="68" y="838" width="24" height="22"/>
  <object id="191" name="Tronco_Arvore_Dourada" type="Solido" x="196" y="838" width="24" height="22"/>
  <object id="192" name="Tronco_Carvalho" type="Solido" x="1764" y="838" width="24" height="22"/>
  <object id="193" name="Tronco_Macieira" type="Solido" x="68" y="966" width="24" height="22"/>
  <object id="194" name="Tronco_Cerejeira" type="Solido" x="196" y="966" width="24" height="22"/>
  <object id="195" name="Tronco_Arvore_Dourada" type="Solido" x="1764" y="966" width="24" height="22"/>
  <object id="196" name="Tronco_Macieira" type="Solido" x="68" y="1094" width="24" height="22"/>
  <object id="197" name="Tronco_Cerejeira" type="Solido" x="196" y="1094" width="24" height="22"/>
  <object id="198" name="Tronco_Carvalho" type="Solido" x="1764" y="1094" width="24" height="22"/>
  <object id="199" name="Tronco_Macieira" type="Solido" x="68" y="1222" width="24" height="22"/>
  <object id="200" name="Tronco_Arvore_Dourada" type="Solido" x="196" y="1222" width="24" height="22"/>
  <object id="201" name="Tronco_Ameixeira" type="Solido" x="1764" y="1222" width="24" height="22"/>
  <object id="202" name="Tronco_Cerejeira" type="Solido" x="68" y="1350" width="24" height="22"/>
  <object id="203" name="Tronco_Ameixeira" type="Solido" x="196" y="1350" width="24" height="22"/>
  <object id="204" name="Tronco_Ameixeira" type="Solido" x="1828" y="1350" width="24" height="22"/>
  <object id="205" name="Tronco_Arvore_Dourada" type="Solido" x="68" y="1478" width="24" height="22"/>
  <object id="206" name="Tronco_Cerejeira" type="Solido" x="196" y="1478" width="24" height="22"/>
  <object id="207" name="Tronco_Ameixeira" type="Solido" x="1764" y="1478" width="24" height="22"/>
  <object id="208" name="Tronco_Carvalho" type="Solido" x="68" y="1606" width="24" height="22"/>
  <object id="209" name="Tronco_Macieira" type="Solido" x="1764" y="1606" width="24" height="22"/>
  <object id="210" name="Tronco_Ameixeira" type="Solido" x="196" y="1670" width="24" height="22"/>
  <object id="211" name="Tronco_Carvalho" type="Solido" x="68" y="1734" width="24" height="22"/>
  <object id="212" name="Tronco_Cerejeira" type="Solido" x="1764" y="1734" width="24" height="22"/>
  <object id="213" name="Tronco_Carvalho" type="Solido" x="196" y="1798" width="24" height="22"/>
  <object id="214" name="Tronco_Ameixeira" type="Solido" x="1828" y="1862" width="24" height="22"/>
  <object id="215" name="Tronco_Carvalho" type="Solido" x="260" y="70" width="24" height="22"/>
  <object id="216" name="Tronco_Carvalho" type="Solido" x="324" y="1798" width="24" height="22"/>
  <object id="217" name="Tronco_Cerejeira" type="Solido" x="388" y="70" width="24" height="22"/>
  <object id="218" name="Tronco_Cerejeira" type="Solido" x="452" y="1798" width="24" height="22"/>
  <object id="219" name="Tronco_Macieira" type="Solido" x="516" y="70" width="24" height="22"/>
  <object id="220" name="Tronco_Macieira" type="Solido" x="580" y="1798" width="24" height="22"/>
  <object id="221" name="Tronco_Arvore_Dourada" type="Solido" x="644" y="70" width="24" height="22"/>
  <object id="222" name="Tronco_Cerejeira" type="Solido" x="708" y="1798" width="24" height="22"/>
  <object id="223" name="Tronco_Ameixeira" type="Solido" x="772" y="134" width="24" height="22"/>
  <object id="224" name="Tronco_Carvalho" type="Solido" x="836" y="1798" width="24" height="22"/>
  <object id="225" name="Tronco_Carvalho" type="Solido" x="964" y="1798" width="24" height="22"/>
  <object id="226" name="Tronco_Arvore_Dourada" type="Solido" x="1092" y="70" width="24" height="22"/>
  <object id="227" name="Tronco_Macieira" type="Solido" x="1220" y="70" width="24" height="22"/>
  <object id="228" name="Tronco_Arvore_Dourada" type="Solido" x="1284" y="1862" width="24" height="22"/>
  <object id="229" name="Tronco_Arvore_Dourada" type="Solido" x="1348" y="70" width="24" height="22"/>
  <object id="230" name="Tronco_Cerejeira" type="Solido" x="1412" y="1798" width="24" height="22"/>
  <object id="231" name="Tronco_Macieira" type="Solido" x="1476" y="70" width="24" height="22"/>
  <object id="232" name="Tronco_Carvalho" type="Solido" x="1540" y="1798" width="24" height="22"/>
  <object id="233" name="Tronco_Arvore_Dourada" type="Solido" x="1604" y="70" width="24" height="22"/>
  <object id="234" name="Tronco_Cerejeira" type="Solido" x="1668" y="1798" width="24" height="22"/>
  <object id="235" name="Tronco_Ameixeira" type="Solido" x="292" y="198" width="24" height="22"/>
  <object id="236" name="Tronco_Carvalho" type="Solido" x="484" y="198" width="24" height="22"/>
  <object id="237" name="Tronco_Macieira" type="Solido" x="868" y="198" width="24" height="22"/>
  <object id="238" name="Tronco_Carvalho" type="Solido" x="1380" y="198" width="24" height="22"/>
  <object id="239" name="Tronco_Carvalho" type="Solido" x="676" y="262" width="24" height="22"/>
  <object id="240" name="Tronco_Arvore_Dourada" type="Solido" x="1508" y="262" width="24" height="22"/>
  <object id="241" name="Tronco_Macieira" type="Solido" x="292" y="326" width="24" height="22"/>
  <object id="242" name="Tronco_Ameixeira" type="Solido" x="420" y="326" width="24" height="22"/>
  <object id="243" name="Tronco_Carvalho" type="Solido" x="1316" y="326" width="24" height="22"/>
  <object id="244" name="Tronco_Arvore_Dourada" type="Solido" x="996" y="390" width="24" height="22"/>
  <object id="245" name="Tronco_Carvalho" type="Solido" x="1572" y="390" width="24" height="22"/>
  <object id="246" name="Tronco_Ameixeira" type="Solido" x="292" y="454" width="24" height="22"/>
  <object id="247" name="Tronco_Carvalho" type="Solido" x="548" y="454" width="24" height="22"/>
  <object id="248" name="Tronco_Cerejeira" type="Solido" x="740" y="454" width="24" height="22"/>
  <object id="249" name="Tronco_Arvore_Dourada" type="Solido" x="420" y="518" width="24" height="22"/>
  <object id="250" name="Tronco_Ameixeira" type="Solido" x="868" y="518" width="24" height="22"/>
  <object id="251" name="Tronco_Macieira" type="Solido" x="292" y="582" width="24" height="22"/>
  <object id="252" name="Tronco_Ameixeira" type="Solido" x="548" y="582" width="24" height="22"/>
  <object id="253" name="Tronco_Ameixeira" type="Solido" x="740" y="582" width="24" height="22"/>
  <object id="254" name="Tronco_Arvore_Dourada" type="Solido" x="420" y="646" width="24" height="22"/>
  <object id="255" name="Tronco_Carvalho" type="Solido" x="228" y="710" width="24" height="22"/>
  <object id="256" name="Tronco_Macieira" type="Solido" x="548" y="710" width="24" height="22"/>
  <object id="257" name="Tronco_Carvalho" type="Solido" x="420" y="774" width="24" height="22"/>
  <object id="258" name="Tronco_Carvalho" type="Solido" x="548" y="838" width="24" height="22"/>
  <object id="259" name="Tronco_Ameixeira" type="Solido" x="932" y="838" width="24" height="22"/>
  <object id="260" name="Tronco_Carvalho" type="Solido" x="356" y="902" width="24" height="22"/>
  <object id="261" name="Tronco_Ameixeira" type="Solido" x="1060" y="902" width="24" height="22"/>
  <object id="262" name="Tronco_Cerejeira" type="Solido" x="1252" y="902" width="24" height="22"/>
  <object id="263" name="Tronco_Macieira" type="Solido" x="1508" y="902" width="24" height="22"/>
  <object id="264" name="Tronco_Cerejeira" type="Solido" x="1636" y="902" width="24" height="22"/>
  <object id="265" name="Tronco_Ameixeira" type="Solido" x="932" y="966" width="24" height="22"/>
  <object id="266" name="Tronco_Arvore_Dourada" type="Solido" x="1060" y="1030" width="24" height="22"/>
  <object id="267" name="Tronco_Carvalho" type="Solido" x="1188" y="1030" width="24" height="22"/>
  <object id="268" name="Tronco_Arvore_Dourada" type="Solido" x="1316" y="1030" width="24" height="22"/>
  <object id="269" name="Tronco_Carvalho" type="Solido" x="1444" y="1030" width="24" height="22"/>
  <object id="270" name="Tronco_Carvalho" type="Solido" x="1636" y="1030" width="24" height="22"/>
  <object id="271" name="Tronco_Ameixeira" type="Solido" x="1188" y="1158" width="24" height="22"/>
  <object id="272" name="Tronco_Arvore_Dourada" type="Solido" x="1380" y="1158" width="24" height="22"/>
  <object id="273" name="Tronco_Cerejeira" type="Solido" x="1508" y="1158" width="24" height="22"/>
  <object id="274" name="Tronco_Cerejeira" type="Solido" x="1060" y="1222" width="24" height="22"/>
  <object id="275" name="Tronco_Arvore_Dourada" type="Solido" x="292" y="1286" width="24" height="22"/>
  <object id="276" name="Tronco_Cerejeira" type="Solido" x="484" y="1286" width="24" height="22"/>
  <object id="277" name="Tronco_Ameixeira" type="Solido" x="1380" y="1286" width="24" height="22"/>
  <object id="278" name="Tronco_Arvore_Dourada" type="Solido" x="1572" y="1286" width="24" height="22"/>
  <object id="279" name="Tronco_Cerejeira" type="Solido" x="292" y="1414" width="24" height="22"/>
  <object id="280" name="Tronco_Ameixeira" type="Solido" x="484" y="1414" width="24" height="22"/>
  <object id="281" name="Tronco_Ameixeira" type="Solido" x="1316" y="1414" width="24" height="22"/>
  <object id="282" name="Tronco_Arvore_Dourada" type="Solido" x="1508" y="1414" width="24" height="22"/>
  <object id="283" name="Tronco_Cerejeira" type="Solido" x="1636" y="1414" width="24" height="22"/>
  <object id="284" name="Tronco_Carvalho" type="Solido" x="676" y="1478" width="24" height="22"/>
  <object id="285" name="Tronco_Cerejeira" type="Solido" x="804" y="1478" width="24" height="22"/>
  <object id="286" name="Tronco_Carvalho" type="Solido" x="484" y="1542" width="24" height="22"/>
  <object id="287" name="Tronco_Macieira" type="Solido" x="932" y="1542" width="24" height="22"/>
  <object id="288" name="Tronco_Carvalho" type="Solido" x="1316" y="1542" width="24" height="22"/>
  <object id="289" name="Tronco_Arvore_Dourada" type="Solido" x="1444" y="1542" width="24" height="22"/>
  <object id="290" name="Tronco_Cerejeira" type="Solido" x="1636" y="1542" width="24" height="22"/>
  <object id="291" name="Tronco_Ameixeira" type="Solido" x="292" y="1606" width="24" height="22"/>
  <object id="292" name="Tronco_Cerejeira" type="Solido" x="612" y="1606" width="24" height="22"/>
  <object id="293" name="Tronco_Carvalho" type="Solido" x="740" y="1606" width="24" height="22"/>
  <object id="294" name="Tronco_Cerejeira" type="Solido" x="420" y="1670" width="24" height="22"/>
  <object id="295" name="Tronco_Carvalho" type="Solido" x="868" y="1670" width="24" height="22"/>
  <object id="296" name="Tronco_Carvalho" type="Solido" x="1060" y="1670" width="24" height="22"/>
  <object id="297" name="Tronco_Arvore_Dourada" type="Solido" x="1444" y="1670" width="24" height="22"/>
  <object id="298" name="Tronco_Ameixeira" type="Solido" x="1636" y="1670" width="24" height="22"/>
  <object id="299" name="Tronco_Macieira" type="Solido" x="1316" y="1734" width="24" height="22"/>
  <object id="300" name="Pedra_Musgosa_3" type="Solido" x="580" y="70" width="24" height="22"/>
  <object id="301" name="Pedra_Musgosa_2" type="Solido" x="676" y="70" width="24" height="22"/>
  <object id="302" name="Pedra_Musgosa_1" type="Solido" x="1156" y="70" width="24" height="22"/>
  <object id="303" name="Pedra_Musgosa_1" type="Solido" x="1380" y="70" width="24" height="22"/>
  <object id="304" name="Pedra_Musgosa_2" type="Solido" x="1732" y="102" width="24" height="22"/>
  <object id="305" name="Arbusto_Verde" type="Solido" x="1796" y="102" width="24" height="22"/>
  <object id="306" name="Arbusto_Frutas" type="Solido" x="164" y="134" width="24" height="22"/>
  <object id="307" name="Pedra_Musgosa_2" type="Solido" x="1444" y="134" width="24" height="22"/>
  <object id="308" name="Pedra_Musgosa_1" type="Solido" x="356" y="166" width="24" height="22"/>
  <object id="309" name="Arbusto_Verde" type="Solido" x="708" y="166" width="24" height="22"/>
  <object id="310" name="Pedra_Musgosa_1" type="Solido" x="1188" y="166" width="24" height="22"/>
  <object id="311" name="Arbusto_Frutas" type="Solido" x="1572" y="166" width="24" height="22"/>
  <object id="312" name="Arbusto_Flores" type="Solido" x="1604" y="166" width="24" height="22"/>
  <object id="313" name="Pedra_Musgosa_2" type="Solido" x="1636" y="166" width="24" height="22"/>
  <object id="314" name="Arbusto_Flores" type="Solido" x="580" y="198" width="24" height="22"/>
  <object id="315" name="Arbusto_Flores" type="Solido" x="708" y="198" width="24" height="22"/>
  <object id="316" name="Arbusto_Flores" type="Solido" x="388" y="230" width="24" height="22"/>
  <object id="317" name="Pedra_Musgosa_1" type="Solido" x="420" y="230" width="24" height="22"/>
  <object id="318" name="Arbusto_Frutas" type="Solido" x="548" y="230" width="24" height="22"/>
  <object id="319" name="Pedra_Musgosa_1" type="Solido" x="964" y="230" width="24" height="22"/>
  <object id="320" name="Pedra_Musgosa_2" type="Solido" x="1188" y="230" width="24" height="22"/>
  <object id="321" name="Pedra_Musgosa_1" type="Solido" x="1220" y="230" width="24" height="22"/>
  <object id="322" name="Arbusto_Frutas" type="Solido" x="1316" y="230" width="24" height="22"/>
  <object id="323" name="Arbusto_Verde" type="Solido" x="1636" y="230" width="24" height="22"/>
  <object id="324" name="Pedra_Musgosa_2" type="Solido" x="1700" y="230" width="24" height="22"/>
  <object id="325" name="Arbusto_Verde" type="Solido" x="164" y="262" width="24" height="22"/>
  <object id="326" name="Pedra_Musgosa_1" type="Solido" x="196" y="262" width="24" height="22"/>
  <object id="327" name="Arbusto_Frutas" type="Solido" x="900" y="262" width="24" height="22"/>
  <object id="328" name="Arbusto_Frutas" type="Solido" x="996" y="262" width="24" height="22"/>
  <object id="329" name="Pedra_Musgosa_2" type="Solido" x="1540" y="294" width="24" height="22"/>
  <object id="330" name="Pedra_Musgosa_3" type="Solido" x="1604" y="294" width="24" height="22"/>
  <object id="331" name="Arbusto_Flores" type="Solido" x="324" y="326" width="24" height="22"/>
  <object id="332" name="Pedra_Musgosa_2" type="Solido" x="644" y="326" width="24" height="22"/>
  <object id="333" name="Pedra_Musgosa_2" type="Solido" x="1348" y="326" width="24" height="22"/>
  <object id="334" name="Pedra_Musgosa_3" type="Solido" x="1508" y="326" width="24" height="22"/>
  <object id="335" name="Pedra_Musgosa_2" type="Solido" x="1540" y="326" width="24" height="22"/>
  <object id="336" name="Pedra_Musgosa_1" type="Solido" x="68" y="358" width="24" height="22"/>
  <object id="337" name="Arbusto_Verde" type="Solido" x="292" y="358" width="24" height="22"/>
  <object id="338" name="Arbusto_Flores" type="Solido" x="324" y="358" width="24" height="22"/>
  <object id="339" name="Arbusto_Flores" type="Solido" x="420" y="358" width="24" height="22"/>
  <object id="340" name="Arbusto_Flores" type="Solido" x="612" y="358" width="24" height="22"/>
  <object id="341" name="Arbusto_Flores" type="Solido" x="676" y="358" width="24" height="22"/>
  <object id="342" name="Arbusto_Verde" type="Solido" x="900" y="358" width="24" height="22"/>
  <object id="343" name="Pedra_Musgosa_3" type="Solido" x="1252" y="358" width="24" height="22"/>
  <object id="344" name="Pedra_Musgosa_2" type="Solido" x="260" y="390" width="24" height="22"/>
  <object id="345" name="Pedra_Musgosa_3" type="Solido" x="292" y="390" width="24" height="22"/>
  <object id="346" name="Pedra_Musgosa_3" type="Solido" x="740" y="390" width="24" height="22"/>
  <object id="347" name="Arbusto_Flores" type="Solido" x="1060" y="390" width="24" height="22"/>
  <object id="348" name="Pedra_Musgosa_1" type="Solido" x="1220" y="390" width="24" height="22"/>
  <object id="349" name="Arbusto_Verde" type="Solido" x="1284" y="390" width="24" height="22"/>
  <object id="350" name="Arbusto_Flores" type="Solido" x="1636" y="390" width="24" height="22"/>
  <object id="351" name="Arbusto_Frutas" type="Solido" x="1700" y="390" width="24" height="22"/>
  <object id="352" name="Arbusto_Flores" type="Solido" x="1828" y="390" width="24" height="22"/>
  <object id="353" name="Pedra_Musgosa_3" type="Solido" x="452" y="422" width="24" height="22"/>
  <object id="354" name="Pedra_Musgosa_2" type="Solido" x="900" y="454" width="24" height="22"/>
  <object id="355" name="Arbusto_Frutas" type="Solido" x="1700" y="454" width="24" height="22"/>
  <object id="356" name="Pedra_Musgosa_2" type="Solido" x="68" y="486" width="24" height="22"/>
  <object id="357" name="Pedra_Musgosa_2" type="Solido" x="484" y="486" width="24" height="22"/>
  <object id="358" name="Arbusto_Flores" type="Solido" x="516" y="486" width="24" height="22"/>
  <object id="359" name="Pedra_Musgosa_3" type="Solido" x="740" y="486" width="24" height="22"/>
  <object id="360" name="Pedra_Musgosa_2" type="Solido" x="932" y="486" width="24" height="22"/>
  <object id="361" name="Arbusto_Flores" type="Solido" x="1796" y="486" width="24" height="22"/>
  <object id="362" name="Arbusto_Flores" type="Solido" x="996" y="518" width="24" height="22"/>
  <object id="363" name="Arbusto_Verde" type="Solido" x="1156" y="518" width="24" height="22"/>
  <object id="364" name="Pedra_Musgosa_1" type="Solido" x="932" y="550" width="24" height="22"/>
  <object id="365" name="Pedra_Musgosa_3" type="Solido" x="228" y="582" width="24" height="22"/>
  <object id="366" name="Pedra_Musgosa_2" type="Solido" x="804" y="582" width="24" height="22"/>
  <object id="367" name="Arbusto_Flores" type="Solido" x="900" y="582" width="24" height="22"/>
  <object id="368" name="Pedra_Musgosa_2" type="Solido" x="932" y="582" width="24" height="22"/>
  <object id="369" name="Arbusto_Verde" type="Solido" x="1156" y="582" width="24" height="22"/>
  <object id="370" name="Pedra_Musgosa_2" type="Solido" x="1252" y="582" width="24" height="22"/>
  <object id="371" name="Arbusto_Flores" type="Solido" x="260" y="614" width="24" height="22"/>
  <object id="372" name="Pedra_Musgosa_2" type="Solido" x="740" y="614" width="24" height="22"/>
  <object id="373" name="Arbusto_Frutas" type="Solido" x="1764" y="614" width="24" height="22"/>
  <object id="374" name="Arbusto_Flores" type="Solido" x="260" y="646" width="24" height="22"/>
  <object id="375" name="Pedra_Musgosa_3" type="Solido" x="484" y="646" width="24" height="22"/>
  <object id="376" name="Arbusto_Frutas" type="Solido" x="548" y="646" width="24" height="22"/>
  <object id="377" name="Pedra_Musgosa_3" type="Solido" x="580" y="710" width="24" height="22"/>
  <object id="378" name="Arbusto_Flores" type="Solido" x="196" y="742" width="24" height="22"/>
  <object id="379" name="Arbusto_Verde" type="Solido" x="228" y="742" width="24" height="22"/>
  <object id="380" name="Arbusto_Flores" type="Solido" x="356" y="742" width="24" height="22"/>
  <object id="381" name="Arbusto_Verde" type="Solido" x="740" y="742" width="24" height="22"/>
  <object id="382" name="Arbusto_Verde" type="Solido" x="996" y="742" width="24" height="22"/>
  <object id="383" name="Arbusto_Flores" type="Solido" x="1828" y="742" width="24" height="22"/>
  <object id="384" name="Pedra_Musgosa_1" type="Solido" x="260" y="774" width="24" height="22"/>
  <object id="385" name="Pedra_Musgosa_1" type="Solido" x="292" y="774" width="24" height="22"/>
  <object id="386" name="Pedra_Musgosa_1" type="Solido" x="548" y="774" width="24" height="22"/>
  <object id="387" name="Arbusto_Frutas" type="Solido" x="484" y="838" width="24" height="22"/>
  <object id="388" name="Arbusto_Verde" type="Solido" x="1508" y="838" width="24" height="22"/>
  <object id="389" name="Pedra_Musgosa_2" type="Solido" x="388" y="870" width="24" height="22"/>
  <object id="390" name="Arbusto_Flores" type="Solido" x="196" y="902" width="24" height="22"/>
  <object id="391" name="Arbusto_Flores" type="Solido" x="900" y="902" width="24" height="22"/>
  <object id="392" name="Arbusto_Flores" type="Solido" x="1412" y="902" width="24" height="22"/>
  <object id="393" name="Pedra_Musgosa_3" type="Solido" x="228" y="934" width="24" height="22"/>
  <object id="394" name="Arbusto_Frutas" type="Solido" x="260" y="934" width="24" height="22"/>
  <object id="395" name="Pedra_Musgosa_2" type="Solido" x="740" y="934" width="24" height="22"/>
  <object id="396" name="Pedra_Musgosa_3" type="Solido" x="996" y="934" width="24" height="22"/>
  <object id="397" name="Arbusto_Frutas" type="Solido" x="1252" y="934" width="24" height="22"/>
  <object id="398" name="Arbusto_Verde" type="Solido" x="1060" y="966" width="24" height="22"/>
  <object id="399" name="Arbusto_Frutas" type="Solido" x="1380" y="966" width="24" height="22"/>
  <object id="400" name="Arbusto_Frutas" type="Solido" x="1508" y="966" width="24" height="22"/>
  <object id="401" name="Pedra_Musgosa_1" type="Solido" x="1668" y="966" width="24" height="22"/>
  <object id="402" name="Pedra_Musgosa_3" type="Solido" x="228" y="998" width="24" height="22"/>
  <object id="403" name="Pedra_Musgosa_2" type="Solido" x="708" y="1030" width="24" height="22"/>
  <object id="404" name="Pedra_Musgosa_2" type="Solido" x="836" y="1030" width="24" height="22"/>
  <object id="405" name="Arbusto_Frutas" type="Solido" x="1252" y="1030" width="24" height="22"/>
  <object id="406" name="Arbusto_Flores" type="Solido" x="100" y="1062" width="24" height="22"/>
  <object id="407" name="Pedra_Musgosa_3" type="Solido" x="772" y="1062" width="24" height="22"/>
  <object id="408" name="Pedra_Musgosa_2" type="Solido" x="1188" y="1062" width="24" height="22"/>
  <object id="409" name="Arbusto_Verde" type="Solido" x="1572" y="1062" width="24" height="22"/>
  <object id="410" name="Arbusto_Verde" type="Solido" x="1604" y="1062" width="24" height="22"/>
  <object id="411" name="Arbusto_Frutas" type="Solido" x="932" y="1094" width="24" height="22"/>
  <object id="412" name="Arbusto_Flores" type="Solido" x="996" y="1094" width="24" height="22"/>
  <object id="413" name="Pedra_Musgosa_3" type="Solido" x="1220" y="1126" width="24" height="22"/>
  <object id="414" name="Arbusto_Verde" type="Solido" x="1444" y="1126" width="24" height="22"/>
  <object id="415" name="Arbusto_Flores" type="Solido" x="1572" y="1126" width="24" height="22"/>
  <object id="416" name="Pedra_Musgosa_1" type="Solido" x="1828" y="1126" width="24" height="22"/>
  <object id="417" name="Arbusto_Frutas" type="Solido" x="100" y="1190" width="24" height="22"/>
  <object id="418" name="Arbusto_Flores" type="Solido" x="644" y="1190" width="24" height="22"/>
  <object id="419" name="Pedra_Musgosa_2" type="Solido" x="1316" y="1190" width="24" height="22"/>
  <object id="420" name="Arbusto_Flores" type="Solido" x="1508" y="1190" width="24" height="22"/>
  <object id="421" name="Arbusto_Frutas" type="Solido" x="1700" y="1190" width="24" height="22"/>
  <object id="422" name="Arbusto_Frutas" type="Solido" x="132" y="1222" width="24" height="22"/>
  <object id="423" name="Arbusto_Verde" type="Solido" x="388" y="1254" width="24" height="22"/>
  <object id="424" name="Arbusto_Frutas" type="Solido" x="644" y="1254" width="24" height="22"/>
  <object id="425" name="Pedra_Musgosa_1" type="Solido" x="1284" y="1254" width="24" height="22"/>
  <object id="426" name="Pedra_Musgosa_2" type="Solido" x="132" y="1286" width="24" height="22"/>
  <object id="427" name="Arbusto_Frutas" type="Solido" x="324" y="1286" width="24" height="22"/>
  <object id="428" name="Pedra_Musgosa_2" type="Solido" x="644" y="1286" width="24" height="22"/>
  <object id="429" name="Arbusto_Flores" type="Solido" x="1284" y="1286" width="24" height="22"/>
  <object id="430" name="Arbusto_Frutas" type="Solido" x="100" y="1318" width="24" height="22"/>
  <object id="431" name="Pedra_Musgosa_2" type="Solido" x="484" y="1318" width="24" height="22"/>
  <object id="432" name="Pedra_Musgosa_3" type="Solido" x="772" y="1318" width="24" height="22"/>
  <object id="433" name="Arbusto_Verde" type="Solido" x="1444" y="1318" width="24" height="22"/>
  <object id="434" name="Pedra_Musgosa_1" type="Solido" x="1572" y="1350" width="24" height="22"/>
  <object id="435" name="Pedra_Musgosa_1" type="Solido" x="1700" y="1350" width="24" height="22"/>
  <object id="436" name="Arbusto_Verde" type="Solido" x="68" y="1382" width="24" height="22"/>
  <object id="437" name="Pedra_Musgosa_3" type="Solido" x="1572" y="1382" width="24" height="22"/>
  <object id="438" name="Pedra_Musgosa_1" type="Solido" x="100" y="1414" width="24" height="22"/>
  <object id="439" name="Arbusto_Verde" type="Solido" x="804" y="1414" width="24" height="22"/>
  <object id="440" name="Arbusto_Frutas" type="Solido" x="388" y="1446" width="24" height="22"/>
  <object id="441" name="Pedra_Musgosa_3" type="Solido" x="1380" y="1446" width="24" height="22"/>
  <object id="442" name="Arbusto_Flores" type="Solido" x="132" y="1478" width="24" height="22"/>
  <object id="443" name="Pedra_Musgosa_3" type="Solido" x="324" y="1478" width="24" height="22"/>
  <object id="444" name="Arbusto_Flores" type="Solido" x="356" y="1478" width="24" height="22"/>
  <object id="445" name="Pedra_Musgosa_1" type="Solido" x="516" y="1478" width="24" height="22"/>
  <object id="446" name="Pedra_Musgosa_1" type="Solido" x="900" y="1478" width="24" height="22"/>
  <object id="447" name="Pedra_Musgosa_1" type="Solido" x="1444" y="1478" width="24" height="22"/>
  <object id="448" name="Arbusto_Flores" type="Solido" x="164" y="1510" width="24" height="22"/>
  <object id="449" name="Arbusto_Frutas" type="Solido" x="580" y="1510" width="24" height="22"/>
  <object id="450" name="Arbusto_Flores" type="Solido" x="1188" y="1510" width="24" height="22"/>
  <object id="451" name="Pedra_Musgosa_2" type="Solido" x="1380" y="1510" width="24" height="22"/>
  <object id="452" name="Arbusto_Flores" type="Solido" x="1572" y="1510" width="24" height="22"/>
  <object id="453" name="Pedra_Musgosa_1" type="Solido" x="964" y="1542" width="24" height="22"/>
  <object id="454" name="Pedra_Musgosa_2" type="Solido" x="772" y="1574" width="24" height="22"/>
  <object id="455" name="Arbusto_Flores" type="Solido" x="1028" y="1574" width="24" height="22"/>
  <object id="456" name="Arbusto_Frutas" type="Solido" x="1796" y="1574" width="24" height="22"/>
  <object id="457" name="Pedra_Musgosa_1" type="Solido" x="100" y="1606" width="24" height="22"/>
  <object id="458" name="Pedra_Musgosa_1" type="Solido" x="676" y="1606" width="24" height="22"/>
  <object id="459" name="Pedra_Musgosa_2" type="Solido" x="1092" y="1606" width="24" height="22"/>
  <object id="460" name="Pedra_Musgosa_1" type="Solido" x="708" y="1638" width="24" height="22"/>
  <object id="461" name="Pedra_Musgosa_3" type="Solido" x="900" y="1638" width="24" height="22"/>
  <object id="462" name="Pedra_Musgosa_3" type="Solido" x="1508" y="1638" width="24" height="22"/>
  <object id="463" name="Arbusto_Frutas" type="Solido" x="292" y="1670" width="24" height="22"/>
  <object id="464" name="Arbusto_Verde" type="Solido" x="772" y="1670" width="24" height="22"/>
  <object id="465" name="Pedra_Musgosa_3" type="Solido" x="932" y="1670" width="24" height="22"/>
  <object id="466" name="Pedra_Musgosa_3" type="Solido" x="1316" y="1670" width="24" height="22"/>
  <object id="467" name="Arbusto_Flores" type="Solido" x="452" y="1702" width="24" height="22"/>
  <object id="468" name="Arbusto_Verde" type="Solido" x="1252" y="1702" width="24" height="22"/>
  <object id="469" name="Pedra_Musgosa_2" type="Solido" x="1348" y="1702" width="24" height="22"/>
  <object id="470" name="Arbusto_Frutas" type="Solido" x="1444" y="1702" width="24" height="22"/>
  <object id="471" name="Arbusto_Frutas" type="Solido" x="1508" y="1734" width="24" height="22"/>
  <object id="472" name="Pedra_Musgosa_1" type="Solido" x="1796" y="1734" width="24" height="22"/>
  <object id="473" name="Pedra_Musgosa_3" type="Solido" x="356" y="1766" width="24" height="22"/>
  <object id="474" name="Arbusto_Frutas" type="Solido" x="612" y="1766" width="24" height="22"/>
  <object id="475" name="Pedra_Musgosa_3" type="Solido" x="1316" y="1766" width="24" height="22"/>
  <object id="476" name="Arbusto_Frutas" type="Solido" x="1476" y="1766" width="24" height="22"/>
  <object id="477" name="Arbusto_Verde" type="Solido" x="1604" y="1766" width="24" height="22"/>
  <object id="478" name="Arbusto_Flores" type="Solido" x="772" y="1798" width="24" height="22"/>
  <object id="479" name="Arbusto_Frutas" type="Solido" x="1284" y="1798" width="24" height="22"/>
  <object id="480" name="Pedra_Musgosa_1" type="Solido" x="1700" y="1798" width="24" height="22"/>
  <object id="481" name="Pedra_Musgosa_2" type="Solido" x="1796" y="1798" width="24" height="22"/>
  <object id="482" name="Pedra_Musgosa_1" type="Solido" x="356" y="1830" width="24" height="22"/>
  <object id="483" name="Pedra_Musgosa_1" type="Solido" x="1604" y="1830" width="24" height="22"/>
  <object id="484" name="Arbusto_Verde" type="Solido" x="1668" y="1830" width="24" height="22"/>
 </objectgroup>
</map>
