<?xml version="1.0" encoding="UTF-8"?>
<map version="1.10" tiledversion="1.10.2" orientation="orthogonal" renderorder="right-down" width="80" height="80" tilewidth="32" tileheight="32" infinite="0" nextlayerid="6" nextobjectid="1039">
 <tileset firstgid="1" source="chao.tsx"/>
 <tileset firstgid="1009" source="nature.tsx"/>
 <tileset firstgid="1777" source="agua.tsx"/>
 <tileset firstgid="2049" source="walls.tsx"/>
 <tileset firstgid="3073" source="walls2.tsx"/>
 <tileset firstgid="4049" source="town.tsx"/>
 <tileset firstgid="4977" source="otsp_doors_01.tsx"/>
 <layer id="1" name="Chao" width="80" height="80">
  <data encoding="csv">
22,22,22,22,23,22,22,22,23,22,22,22,22,22,22,22,22,22,22,23,22,22,22,22,22,22,22,22,22,22,22,23,22,22,22,22,23,22,23,22,22,22,22,22,22,22,285,285,285,285,285,285,285,285,285,285,285,285,285,285,285,285,285,285,285,285,285,285,285,285,285,285,285,285,285,285,285,285,285,285,
23,22,22,22,22,22,22,23,22,22,22,22,22,22,22,22,22,23,22,22,22,22,22,22,23,22,22,22,22,24,22,22,22,22,22,22,22,22,22,22,22,22,24,22,22,22,285,285,285,285,285,285,285,285,285,285,285,285,285,285,285,285,285,285,285,285,285,285,285,285,285,285,285,285,285,285,285,285,285,285,
22,22,22,22,22,22,22,22,22,22,22,22,22,23,23,22,22,22,22,22,22,23,24,22,22,22,22,22,22,22,22,22,22,22,22,22,22,22,22,24,22,22,22,22,22,22,285,285,285,285,285,285,285,285,285,285,285,285,285,285,285,285,285,285,285,285,285,285,285,285,285,285,285,285,285,285,285,285,285,285,
22,23,22,24,23,22,22,22,22,22,22,22,22,22,24,22,22,22,22,22,22,22,23,23,22,22,22,22,22,22,22,22,22,22,22,22,23,22,22,22,22,22,22,22,23,22,285,285,285,285,285,285,285,285,285,285,285,285,285,285,285,285,285,285,285,285,285,285,285,285,285,285,285,285,285,285,285,285,285,285,
22,22,22,22,22,22,22,22,23,22,22,22,22,22,22,22,22,22,22,22,22,215,215,22,22,22,22,22,22,22,24,22,22,23,22,22,22,22,22,24,22,22,22,23,22,24,285,285,285,285,285,285,285,285,285,285,285,285,285,285,285,285,285,285,285,285,285,285,285,285,285,285,285,285,285,285,285,285,285,285,
22,22,22,22,22,22,22,22,22,22,23,22,22,22,22,22,22,22,22,22,22,215,215,24,22,22,22,22,22,22,22,22,22,22,22,22,22,24,22,22,22,22,22,22,22,22,285,285,285,285,285,285,285,285,285,285,285,285,285,285,285,285,285,285,285,285,285,285,285,285,285,285,285,285,285,285,285,285,285,285,
22,24,22,22,22,22,23,22,22,22,22,22,22,22,22,22,22,22,22,22,22,215,215,22,22,22,22,22,22,22,24,22,22,22,24,24,22,22,22,22,22,22,22,22,22,22,285,285,285,285,285,285,285,285,285,285,285,285,285,285,285,285,285,285,285,285,285,285,285,285,285,285,285,285,285,285,285,285,285,285,
22,22,22,22,24,22,22,22,23,22,22,22,23,22,22,22,22,22,22,22,22,215,215,23,22,22,22,22,24,22,22,22,22,22,23,22,22,22,22,22,22,22,22,22,22,22,285,285,285,285,285,285,285,285,285,285,285,285,285,285,285,285,285,285,285,285,285,285,285,285,285,285,285,285,285,285,285,285,285,285,
22,22,23,22,22,22,22,22,283,283,283,283,283,283,283,283,283,283,22,22,22,215,215,22,22,22,280,280,280,280,280,280,280,280,280,280,280,280,22,22,22,22,22,23,22,22,285,285,285,285,285,285,285,285,285,285,285,285,285,285,285,285,285,285,285,285,285,285,285,285,285,285,285,285,285,285,285,285,285,285,
22,22,22,22,22,22,22,23,283,283,283,283,283,283,283,283,283,283,22,22,22,215,215,22,23,22,280,280,280,280,280,280,280,280,280,280,280,280,23,22,22,22,22,23,22,22,285,285,285,285,285,285,285,285,285,285,285,285,285,285,285,285,285,285,285,285,285,285,285,285,285,285,285,285,285,285,285,285,285,285,
22,22,22,22,22,22,22,22,283,283,283,283,283,283,283,283,283,283,22,22,22,215,215,23,22,23,280,280,280,280,280,280,280,280,280,280,280,280,22,23,23,23,22,22,22,22,285,285,285,285,285,285,285,285,285,285,282,282,282,282,282,282,282,282,282,282,285,285,285,285,285,285,285,285,285,285,285,285,285,285,
22,22,22,22,22,22,22,22,283,283,283,283,283,283,283,283,283,283,22,22,22,215,215,22,22,22,280,280,280,280,280,280,280,280,280,280,280,280,22,22,22,23,22,22,22,23,285,285,285,285,285,285,285,285,285,285,282,282,282,282,282,282,282,282,282,282,285,285,285,285,285,285,285,285,285,285,285,285,285,285,
22,23,22,23,22,22,22,24,283,283,283,283,283,283,283,283,283,283,22,22,24,215,215,22,22,22,280,280,280,280,280,280,280,280,280,280,280,280,22,22,22,22,23,22,22,22,285,285,285,285,285,285,285,285,285,285,282,282,282,282,282,282,282,282,282,282,285,285,285,285,285,285,285,285,285,285,285,285,285,285,
22,24,22,22,22,22,22,22,283,283,283,283,283,283,283,283,283,283,22,22,22,215,215,22,22,22,280,280,280,280,280,280,280,280,280,280,280,280,22,22,22,22,22,22,22,22,285,285,285,285,285,285,285,285,285,285,282,282,282,282,282,282,282,282,282,282,285,285,285,285,285,285,285,285,285,285,285,285,285,285,
22,22,22,22,22,22,22,22,283,283,283,283,283,283,283,283,283,283,22,22,22,215,215,22,22,22,280,280,280,280,280,280,280,280,280,280,280,280,22,23,22,22,24,22,22,22,285,285,285,285,285,285,285,285,285,285,282,282,282,282,282,282,282,282,282,282,285,285,285,285,285,285,285,285,285,285,285,285,285,285,
22,22,22,22,22,22,23,22,283,283,283,283,283,283,283,283,283,283,22,22,22,215,215,22,22,22,280,280,280,280,280,280,280,280,280,280,280,280,22,22,22,22,22,22,22,24,285,285,285,285,285,285,285,285,285,285,282,282,282,282,282,282,282,282,282,282,285,285,285,285,285,285,285,285,285,285,285,285,285,285,
23,22,22,22,22,22,22,22,22,22,22,22,22,22,22,22,22,22,22,22,23,215,215,22,22,22,280,280,280,280,280,280,280,280,280,280,280,280,22,22,22,22,22,23,22,22,285,285,285,285,285,285,285,285,285,285,282,282,282,282,282,282,282,282,282,282,285,285,285,285,285,285,285,285,285,285,285,285,285,285,
22,22,22,22,22,22,22,22,22,22,22,23,22,22,22,22,22,23,22,22,22,215,215,22,22,24,22,22,22,22,22,22,22,24,22,22,22,22,22,22,22,22,22,22,23,22,285,285,285,285,285,285,285,285,285,285,282,282,282,282,282,282,282,282,282,282,285,285,285,285,285,285,285,285,285,285,285,285,285,285,
22,22,22,22,22,22,22,24,22,22,22,22,23,22,22,22,22,22,22,23,22,215,215,22,22,22,22,22,22,22,22,22,22,22,22,22,22,24,22,22,22,23,22,22,22,22,285,285,285,285,285,285,285,285,285,285,285,285,285,285,285,285,285,285,285,285,285,285,285,285,285,285,285,285,285,285,285,285,285,285,
22,22,23,22,24,22,22,22,22,22,22,22,22,22,22,22,22,24,22,22,24,215,215,22,23,22,22,22,22,22,22,22,22,22,22,22,22,22,23,22,24,22,22,23,22,22,285,285,285,285,285,285,285,285,285,285,285,285,285,285,285,285,285,285,285,285,285,285,285,285,285,285,285,285,285,285,285,285,285,285,
22,22,22,22,22,22,22,22,22,22,23,22,22,22,22,22,22,22,22,22,22,215,215,22,24,22,22,23,22,23,22,22,22,23,22,22,22,22,22,22,22,24,22,24,22,22,285,285,285,285,285,285,285,285,285,285,285,285,285,285,285,285,285,285,285,285,285,285,285,285,285,285,285,285,285,285,285,285,285,285,
22,22,22,22,215,215,215,215,215,215,215,215,215,215,215,215,215,215,215,215,215,215,215,215,215,215,215,215,215,215,215,215,215,215,215,215,215,215,215,215,215,215,215,215,215,215,215,215,215,215,215,215,215,215,215,215,215,215,215,215,215,215,215,215,215,215,215,215,215,215,215,215,215,215,215,215,285,285,285,285,
22,22,23,22,215,215,215,215,215,215,215,215,215,215,215,215,215,215,215,215,215,215,215,215,215,215,215,215,215,215,215,215,215,215,215,215,215,215,215,215,215,215,215,215,215,215,215,215,86,86,215,215,215,215,215,215,215,215,215,215,215,215,215,215,215,215,215,215,215,215,215,215,215,215,215,215,285,285,285,285,
22,22,22,22,22,22,22,22,22,22,22,22,22,23,22,22,22,22,22,23,22,215,215,23,24,22,23,22,22,22,22,24,22,22,23,24,22,22,22,24,22,22,22,22,22,22,285,285,86,86,285,285,285,285,285,285,285,285,285,285,285,285,285,285,285,285,285,285,285,285,285,285,285,285,285,285,285,285,285,285,
22,22,22,24,22,22,22,22,22,22,22,22,22,22,22,22,22,22,22,22,22,215,215,22,22,22,22,22,24,22,22,22,24,24,22,22,22,22,22,22,22,22,22,22,22,22,285,285,86,86,285,285,285,285,285,285,285,285,285,285,285,285,285,285,285,285,285,285,285,285,285,285,285,285,285,285,285,285,285,285,
24,22,22,22,22,22,22,22,22,22,22,22,22,22,22,22,22,22,24,22,23,215,215,24,23,22,22,22,22,22,22,22,22,22,22,22,22,22,22,22,22,22,22,23,22,23,285,285,86,86,285,285,285,285,285,285,285,285,285,285,285,285,285,285,285,285,285,285,285,285,285,285,285,285,285,285,285,285,285,285,
22,22,22,22,22,22,22,22,281,281,281,281,281,281,281,281,281,281,281,281,22,215,215,22,22,22,22,22,22,23,22,22,22,22,22,22,22,22,24,23,22,22,22,22,22,22,285,285,86,86,285,285,285,285,285,285,285,285,285,285,285,285,285,285,285,285,285,285,285,285,285,285,285,285,285,285,285,285,285,285,
24,22,22,24,22,22,23,22,281,281,281,281,281,281,281,281,281,281,281,281,23,215,215,23,22,22,22,22,24,22,22,22,22,22,23,23,22,22,22,22,22,22,22,22,22,22,285,285,86,86,285,285,285,285,285,285,285,285,285,285,285,285,285,285,285,285,285,285,285,285,285,285,285,285,285,285,285,285,285,285,
22,22,22,23,22,22,22,22,281,281,281,281,281,281,281,281,281,281,281,281,22,215,215,22,22,22,22,22,22,22,22,22,24,22,22,22,22,22,22,22,22,22,22,22,22,22,285,285,86,86,285,285,285,285,285,285,285,285,285,285,285,285,285,285,285,285,285,285,285,285,285,285,285,285,285,285,285,285,285,285,
22,22,22,22,22,22,22,22,281,281,281,281,281,281,281,281,281,281,281,281,22,215,215,22,23,22,22,22,22,22,23,22,22,22,24,22,22,22,22,22,22,22,22,22,22,22,285,285,86,86,285,285,285,285,285,285,285,285,285,285,285,285,285,285,285,285,285,285,285,285,285,285,285,285,285,285,285,285,285,285,
22,24,22,23,22,22,23,22,281,281,281,281,281,281,281,281,281,281,281,281,22,215,215,22,23,22,22,22,22,22,24,22,22,24,22,22,22,22,23,24,22,22,22,22,22,22,285,285,86,86,285,285,285,285,285,285,285,285,285,285,285,285,285,285,285,285,285,285,285,285,285,285,285,285,285,285,285,285,285,285,
22,22,22,22,22,22,23,22,281,281,281,281,281,281,281,281,281,281,281,281,22,215,215,22,22,23,22,22,22,22,22,22,24,22,22,23,23,22,22,22,22,23,22,22,22,22,285,285,86,86,285,285,285,285,285,285,285,285,285,285,285,285,285,285,285,285,285,285,285,285,285,285,285,285,285,285,285,285,285,285,
22,22,22,22,22,22,22,22,281,281,281,281,281,281,281,281,281,281,281,281,22,215,215,23,22,23,24,22,22,22,22,22,22,22,23,22,24,22,22,22,22,22,22,23,22,22,285,285,86,86,285,285,285,285,285,285,285,285,285,285,285,285,285,285,285,285,285,285,285,285,285,285,285,285,285,285,285,285,285,285,
22,22,22,22,22,24,23,22,281,281,281,281,281,281,281,281,281,281,281,281,23,215,215,22,22,22,22,22,23,22,22,22,22,22,22,22,22,23,22,22,22,22,22,22,22,22,285,285,86,86,285,285,285,285,285,285,285,285,285,285,285,285,285,285,285,285,285,285,285,285,285,285,285,285,285,285,285,285,285,285,
22,22,23,22,22,22,22,22,281,281,281,281,281,281,281,281,281,281,281,281,22,215,215,24,23,22,22,22,22,22,22,22,22,22,22,23,23,22,23,22,23,22,22,22,22,22,285,285,86,86,285,285,285,285,285,285,285,285,285,285,285,285,285,285,285,285,285,285,285,285,285,285,285,285,285,285,285,285,285,285,
22,22,22,22,22,22,22,22,281,281,281,281,281,281,281,281,281,281,281,281,22,215,215,22,22,22,22,22,22,24,22,22,22,24,24,22,24,22,22,22,22,22,23,22,22,22,285,285,86,86,285,285,285,285,285,285,285,285,285,285,285,285,285,285,285,285,285,285,285,285,285,285,285,285,285,285,285,285,285,285,
24,23,22,22,22,22,22,24,22,22,22,22,22,22,22,22,22,24,22,22,22,215,215,22,22,22,22,22,22,22,22,22,22,23,22,22,22,23,22,22,24,23,23,23,22,22,285,285,86,86,285,285,285,285,285,285,285,285,285,285,285,285,285,285,285,285,285,285,285,285,285,285,285,285,285,285,285,285,285,285,
22,22,22,22,22,22,22,22,22,22,22,22,22,22,22,22,22,22,22,24,22,215,215,22,22,22,22,22,22,22,22,23,23,22,22,22,24,22,23,22,22,22,22,22,22,22,285,285,86,86,285,285,285,285,285,285,285,285,285,285,285,285,285,285,285,285,285,285,285,285,285,285,285,285,285,285,285,285,285,285,
22,22,22,22,22,22,22,22,23,22,22,22,22,22,22,22,22,23,23,22,22,215,215,22,22,23,22,22,22,22,22,23,22,22,22,22,22,22,22,22,22,22,22,22,22,23,285,285,86,86,285,285,285,285,285,285,285,285,285,285,285,285,285,285,285,285,285,285,285,285,285,285,285,285,285,285,285,285,285,285,
22,22,22,23,22,24,22,22,22,23,22,22,22,22,22,22,22,23,22,22,22,215,215,22,22,22,22,24,23,22,24,22,23,22,22,22,22,22,22,22,24,23,22,22,22,23,285,285,86,86,285,285,285,285,285,285,285,285,285,285,285,285,285,285,285,285,285,285,285,285,285,285,285,285,285,285,285,285,285,285,
22,22,22,22,22,22,22,22,22,22,24,22,22,22,22,22,22,22,22,22,22,215,215,22,24,22,22,24,23,22,22,22,22,22,22,22,22,24,22,22,22,22,22,22,22,22,285,285,86,86,285,285,285,285,285,285,285,285,285,285,285,285,285,285,285,285,285,285,285,285,285,285,285,285,285,285,285,285,285,285,
22,22,22,22,22,22,22,22,22,22,23,22,23,22,22,24,22,23,22,24,22,215,215,22,22,22,22,23,22,22,22,22,22,22,22,22,23,24,22,22,22,22,22,24,22,22,285,285,86,86,285,285,285,285,285,285,285,285,285,285,285,285,285,285,285,285,285,285,285,285,285,285,285,285,285,285,285,285,285,285,
23,22,22,22,23,23,23,23,22,22,23,22,22,22,24,22,22,22,22,22,22,215,215,24,22,22,22,22,22,22,22,22,22,22,22,23,23,22,22,23,23,24,22,22,22,22,285,285,86,86,285,285,285,285,285,285,285,285,285,285,285,285,285,285,285,285,285,285,285,285,285,285,285,285,285,285,285,285,285,285,
22,22,22,23,22,22,22,22,22,22,23,24,23,22,22,22,22,22,22,22,22,215,215,22,22,22,23,22,22,23,22,22,23,22,22,22,22,22,22,22,22,22,22,23,22,22,285,285,86,86,285,285,285,285,285,285,285,285,285,285,285,285,285,285,285,285,285,285,285,285,285,285,285,285,285,285,285,285,285,285,
23,23,23,22,22,22,22,22,22,22,22,22,22,23,22,22,22,23,22,22,22,215,215,23,22,22,22,24,22,22,22,23,22,22,23,22,22,22,22,22,22,22,22,22,22,22,285,285,86,86,285,285,285,285,285,285,285,285,285,285,285,285,285,285,285,285,285,285,285,285,285,285,285,285,285,285,285,285,285,285,
22,22,22,22,22,22,22,22,22,22,22,22,22,24,22,23,86,22,22,22,22,215,215,23,22,22,22,22,22,22,22,22,23,22,22,22,22,22,22,22,23,22,22,22,22,22,285,285,86,86,285,285,285,285,285,285,285,285,285,285,285,285,285,285,285,285,285,285,285,285,285,285,285,285,285,285,285,285,285,285,
54,54,54,70,54,70,70,54,70,54,54,54,54,70,54,54,86,70,54,54,54,70,54,54,54,54,70,70,54,70,70,54,54,54,54,54,70,54,54,54,54,54,54,54,70,54,118,118,86,86,118,119,119,118,118,118,118,118,118,118,118,118,118,118,118,118,119,119,118,119,118,119,118,118,118,118,119,118,118,119,
54,54,54,54,54,54,70,54,54,54,54,54,54,54,54,54,86,54,54,54,54,54,54,70,54,54,54,70,54,54,54,54,54,54,54,54,70,54,54,54,54,54,54,54,54,54,118,118,86,86,119,119,118,118,118,118,118,119,119,118,118,118,118,118,118,118,118,118,118,118,118,119,119,118,118,118,118,118,118,118,
54,54,70,54,70,54,54,54,54,54,54,54,70,54,70,54,86,54,54,54,54,70,54,54,54,54,54,54,54,54,54,54,54,54,54,54,54,54,54,54,54,54,54,54,54,54,118,119,86,86,118,118,119,118,118,118,118,118,118,118,118,118,118,118,119,118,118,119,119,118,118,118,118,118,119,118,118,118,118,119,
54,54,70,54,70,54,70,54,54,54,70,54,54,54,54,54,86,54,54,54,70,54,54,54,70,54,54,54,54,70,54,54,54,54,54,54,54,54,54,54,54,54,70,54,70,54,119,118,86,86,118,118,118,119,118,119,118,118,118,118,119,118,118,118,118,119,118,118,118,118,119,118,119,118,118,118,118,118,118,118,
54,54,54,54,70,54,54,70,54,54,54,54,70,54,54,54,86,70,70,54,70,54,54,70,54,54,54,54,54,54,54,54,54,54,54,54,54,54,54,70,54,54,54,54,54,54,119,118,86,86,118,119,118,118,119,118,118,118,118,119,118,119,119,118,118,119,118,118,119,119,118,118,118,118,118,118,119,118,118,118,
54,54,54,54,54,54,54,54,54,54,54,54,54,54,70,54,86,54,54,54,54,54,54,54,54,70,54,54,54,54,70,54,54,70,70,54,54,54,54,54,70,70,54,70,70,54,118,118,86,86,118,118,119,118,118,118,118,118,119,118,119,118,118,118,118,118,118,118,118,118,119,119,118,119,118,118,119,119,118,118,
54,54,54,54,70,54,54,54,70,54,70,70,70,70,70,70,70,70,70,70,54,54,54,70,54,70,54,54,54,54,54,54,54,54,54,54,70,70,54,54,70,54,54,70,54,54,118,118,86,86,118,119,118,119,118,118,119,118,118,22,22,22,1777,22,22,22,118,118,119,119,118,118,118,118,118,118,118,118,118,118,
1777,70,54,54,54,54,54,54,54,54,70,70,70,70,70,70,70,70,70,70,54,54,54,54,70,54,54,54,54,54,54,54,54,54,54,54,54,54,54,54,54,70,54,70,54,70,118,118,86,86,118,118,118,118,119,118,118,118,22,22,1777,1777,1777,1777,1777,22,22,118,118,118,118,118,118,119,118,118,118,118,118,118,
1777,1777,70,54,54,54,54,54,54,54,70,70,70,70,70,70,70,70,70,70,54,54,54,54,54,54,54,54,54,54,70,54,54,54,70,54,54,54,54,70,54,54,70,54,54,54,118,118,86,86,118,118,119,118,119,118,118,118,22,1777,1777,1777,1777,1777,1777,1777,22,118,118,119,118,118,118,118,118,118,118,118,118,118,
1777,1777,54,54,54,54,54,54,54,70,70,70,70,70,70,70,70,70,70,70,54,54,54,54,70,54,54,54,54,54,70,54,54,54,54,54,54,70,54,54,70,54,70,54,70,54,118,118,86,86,118,118,118,118,119,118,119,118,22,1777,1777,1777,1777,1777,1777,1777,22,118,118,118,118,119,118,118,118,119,118,118,119,118,
1777,1777,1777,54,54,70,54,54,54,54,70,70,70,70,70,70,70,70,70,70,1777,54,54,70,54,54,54,54,54,54,54,54,54,70,54,54,54,54,54,54,54,70,70,54,54,54,118,118,86,86,119,118,118,118,118,118,118,118,1777,1777,1777,1777,1777,1777,1777,1777,1777,118,118,118,118,119,119,118,118,118,118,118,118,118,
1777,1777,1777,1777,54,54,54,54,54,54,70,70,70,70,70,70,70,70,70,70,1777,1777,54,54,54,54,54,54,70,54,70,70,54,54,54,54,54,54,54,70,54,70,54,70,70,70,118,119,86,86,118,119,119,118,118,118,118,118,22,1777,1777,1777,1777,1777,1777,1777,22,118,118,118,118,118,118,118,119,118,118,118,118,119,
54,1777,1777,1777,1777,54,54,54,54,54,70,70,70,70,70,70,70,70,70,70,1777,1777,1777,70,54,54,70,54,54,54,54,54,54,54,54,54,54,54,54,54,54,54,54,54,54,70,118,118,86,86,119,118,118,118,118,118,119,118,22,1777,1777,1777,1777,1777,1777,1777,22,118,118,118,118,119,118,119,118,118,118,118,118,118,
54,54,1777,1777,1777,1777,54,70,70,70,70,70,70,70,70,70,70,70,70,70,1777,1777,1777,1777,54,54,54,70,54,54,54,54,54,54,54,54,54,70,54,54,54,54,70,54,54,70,118,119,86,86,118,118,118,118,118,118,118,118,22,22,1777,1777,1777,1777,1777,22,22,118,118,118,118,118,118,118,118,118,118,118,119,119,
54,54,1777,1777,1777,1777,1777,1777,1777,1777,1777,1777,1777,1777,1777,1777,86,54,54,54,1777,1777,1777,1777,70,54,54,54,54,54,54,54,54,54,54,54,54,54,54,54,54,54,54,70,54,54,118,118,86,86,118,118,118,119,119,118,118,118,118,22,22,22,1777,22,22,22,119,118,118,118,118,118,118,118,119,118,119,119,118,118,
70,70,54,1777,1777,1777,1777,1777,1777,1777,1777,1777,1777,1777,54,70,86,54,54,54,54,1777,1777,1777,1777,70,54,54,54,70,54,54,70,70,54,54,54,54,54,54,54,54,70,54,54,54,119,118,86,86,118,118,118,118,118,118,119,118,118,118,119,119,119,118,118,118,118,118,118,118,118,118,119,118,118,118,118,118,119,118,
54,54,54,54,1777,1777,1777,1777,1777,1777,1777,1777,1777,70,54,54,86,54,54,54,54,54,1777,1777,1777,1777,54,54,54,54,54,54,70,54,54,54,54,54,54,70,54,54,70,54,54,70,118,119,86,86,118,118,118,118,118,118,118,118,118,118,119,118,118,118,118,118,118,118,118,118,118,118,118,118,118,118,118,118,118,118,
70,54,54,54,54,1777,1777,1777,1777,1777,1777,1777,54,54,54,54,86,54,70,70,54,70,70,1777,1777,1777,54,54,54,54,54,54,54,54,54,70,54,54,54,54,54,54,54,70,70,54,118,119,86,86,118,118,119,118,119,118,119,118,118,118,118,118,118,119,118,118,118,119,118,118,118,118,119,119,118,119,118,119,119,118,
54,54,54,54,54,54,1777,1777,1777,1777,54,54,54,54,54,54,86,54,54,70,70,54,54,54,1777,1777,1777,54,54,54,54,54,54,54,70,54,54,54,54,54,54,54,54,70,54,70,119,118,86,86,119,118,119,118,281,281,281,281,281,281,281,281,281,281,281,281,118,118,118,119,118,118,118,119,118,118,118,118,118,118,
70,54,70,54,54,70,54,54,54,54,54,70,54,54,70,54,86,54,70,70,54,70,54,54,1777,1777,1777,54,54,54,54,54,70,54,70,70,70,54,54,54,54,1777,1777,54,54,70,118,118,86,86,118,118,118,118,281,281,281,281,281,281,281,281,281,281,281,281,118,118,118,119,118,118,118,118,119,118,118,118,118,118,
54,54,54,54,54,54,54,54,54,54,54,54,70,54,54,70,54,54,54,54,54,54,54,54,70,1777,1777,1777,70,54,70,54,54,54,70,54,54,54,70,54,1777,1777,1777,54,54,54,118,118,86,86,118,118,118,119,281,281,281,281,281,281,281,281,281,281,281,281,118,119,118,118,119,118,118,118,118,118,118,118,118,118,
54,54,54,54,54,54,54,70,54,70,54,54,54,54,54,70,54,54,54,70,54,54,70,54,54,70,1777,1777,1777,54,54,70,54,70,70,54,70,54,1777,1777,1777,1777,1777,70,54,70,118,118,86,86,119,119,118,118,281,281,281,281,281,281,281,281,281,281,281,281,118,118,118,119,118,118,119,118,119,118,118,118,118,118,
54,54,54,54,54,54,54,54,54,70,54,70,70,54,54,54,70,54,54,54,54,54,70,54,70,54,1777,1777,1777,1777,54,54,54,70,54,54,54,1777,1777,1777,1777,1777,1777,54,54,54,119,118,86,86,118,118,118,118,281,281,281,281,281,281,281,281,281,281,281,281,118,118,119,119,118,118,118,118,118,119,118,119,118,118,
54,70,54,54,70,54,54,54,54,54,54,54,70,54,54,54,54,54,54,54,54,54,54,54,54,54,70,1777,1777,1777,1777,54,54,54,54,70,1777,1777,1777,1777,1777,1777,1777,54,54,54,118,118,86,86,118,118,118,118,281,281,281,281,281,281,281,281,281,281,281,281,118,118,118,118,119,118,119,118,118,119,118,118,118,119,
54,54,54,54,54,54,54,54,54,54,54,54,54,54,54,54,54,70,54,54,54,54,70,54,54,54,54,1777,1777,1777,1777,1777,1777,1777,1777,1777,1777,1777,1777,1777,1777,54,54,54,54,54,118,118,86,86,119,118,118,118,281,281,281,281,281,281,281,281,281,281,281,281,119,119,119,119,118,118,119,119,118,118,119,119,118,119,
54,54,54,54,54,54,54,54,54,54,70,54,54,54,54,54,54,54,54,54,70,54,54,54,54,54,54,54,1777,1777,1777,1777,1777,1777,1777,1777,1777,1777,1777,1777,54,54,54,70,54,54,118,118,86,86,118,118,118,118,281,281,281,281,281,281,281,281,281,281,281,281,118,118,118,118,118,119,118,118,119,118,118,118,118,118,
54,54,70,54,70,54,54,54,70,54,54,54,54,54,54,54,70,54,54,54,54,54,54,54,54,54,70,54,70,1777,1777,1777,1777,1777,1777,1777,1777,1777,70,54,54,70,54,54,54,54,118,118,86,86,118,118,118,118,281,281,281,281,281,281,281,281,281,281,281,281,118,119,118,118,118,118,118,118,118,118,118,118,118,118,
54,54,54,54,54,54,54,54,70,54,54,54,70,54,54,70,54,54,70,54,54,54,54,54,70,54,70,54,70,54,1777,1777,1777,1777,1777,1777,1777,54,54,70,54,54,54,54,70,54,118,118,86,86,118,118,118,118,281,281,281,281,281,281,281,281,281,281,281,281,118,118,119,118,119,118,119,118,118,118,118,118,119,118,
54,70,54,54,70,54,54,54,54,54,54,70,54,70,70,70,54,54,54,54,54,54,54,54,54,54,54,70,70,54,54,1777,1777,1777,1777,1777,70,54,54,70,54,54,70,70,70,54,118,118,86,86,118,118,118,118,118,118,118,118,118,118,118,118,118,118,118,119,119,118,118,119,119,118,119,118,118,118,118,119,119,118,
54,54,54,54,54,54,54,70,70,54,54,54,70,54,54,54,54,70,54,54,70,70,54,54,54,54,54,54,54,54,54,54,54,54,54,54,54,54,70,54,70,54,54,70,54,54,118,118,86,86,118,118,118,118,119,118,119,118,119,118,118,119,119,118,119,118,118,118,119,119,119,119,118,118,118,118,118,118,118,118,
54,54,70,70,70,54,54,54,70,54,54,54,54,54,54,54,54,54,54,54,70,54,54,70,54,54,54,54,54,70,54,54,70,54,54,54,54,54,54,70,54,54,54,70,54,54,118,118,118,118,118,119,118,118,118,118,118,118,118,118,118,118,118,118,119,118,118,118,118,118,118,118,118,118,118,118,118,118,119,119,
54,54,54,54,54,54,54,54,70,54,54,54,70,54,54,70,54,54,54,70,54,54,54,54,54,54,54,54,54,54,54,54,54,54,54,54,54,54,54,54,54,54,54,70,70,54,118,118,119,118,118,118,118,118,118,118,118,118,118,119,118,118,118,118,118,118,118,118,119,118,118,118,119,118,118,118,118,118,119,118,
54,54,54,54,54,54,54,54,54,70,54,54,54,54,54,54,54,54,54,54,54,54,54,54,70,54,70,54,54,54,54,54,54,70,54,54,70,54,54,54,70,54,54,54,54,54,118,119,118,118,118,119,118,118,119,119,118,118,119,118,118,118,118,118,118,118,119,119,118,118,118,118,119,118,118,118,119,118,118,118,
54,54,54,54,54,54,70,54,54,70,70,54,54,54,54,54,54,54,54,54,54,54,54,54,54,70,54,54,54,54,54,54,54,54,54,70,54,54,54,54,54,54,54,54,70,54,118,118,119,119,118,118,118,118,119,118,118,118,119,119,118,118,118,118,118,118,119,119,119,119,118,118,118,119,118,119,118,118,119,118
  </data>
 </layer>
 <objectgroup id="2" name="Estruturas_e_Casas">
  <object id="270" name="Cabana_Jogador_Telhado_Topo" type="Roof" gid="296" x="224" y="224" width="32" height="32"/>
  <object id="271" name="Cabana_Jogador_Telhado_Borda" type="Roof" gid="297" x="224" y="256" width="32" height="32"/>
  <object id="272" name="Cabana_Jogador_Telhado_Topo" type="Roof" gid="296" x="256" y="224" width="32" height="32"/>
  <object id="273" name="Cabana_Jogador_Telhado_Borda" type="Roof" gid="297" x="256" y="256" width="32" height="32"/>
  <object id="274" name="Cabana_Jogador_Telhado_Topo" type="Roof" gid="296" x="288" y="224" width="32" height="32"/>
  <object id="275" name="Cabana_Jogador_Telhado_Borda" type="Roof" gid="297" x="288" y="256" width="32" height="32"/>
  <object id="276" name="Cabana_Jogador_Telhado_Topo" type="Roof" gid="296" x="320" y="224" width="32" height="32"/>
  <object id="277" name="Cabana_Jogador_Telhado_Borda" type="Roof" gid="297" x="320" y="256" width="32" height="32"/>
  <object id="278" name="Cabana_Jogador_Telhado_Topo" type="Roof" gid="296" x="352" y="224" width="32" height="32"/>
  <object id="279" name="Cabana_Jogador_Telhado_Borda" type="Roof" gid="297" x="352" y="256" width="32" height="32"/>
  <object id="280" name="Cabana_Jogador_Telhado_Topo" type="Roof" gid="296" x="384" y="224" width="32" height="32"/>
  <object id="281" name="Cabana_Jogador_Telhado_Borda" type="Roof" gid="297" x="384" y="256" width="32" height="32"/>
  <object id="282" name="Cabana_Jogador_Telhado_Topo" type="Roof" gid="296" x="416" y="224" width="32" height="32"/>
  <object id="283" name="Cabana_Jogador_Telhado_Borda" type="Roof" gid="297" x="416" y="256" width="32" height="32"/>
  <object id="284" name="Cabana_Jogador_Telhado_Topo" type="Roof" gid="296" x="448" y="224" width="32" height="32"/>
  <object id="285" name="Cabana_Jogador_Telhado_Borda" type="Roof" gid="297" x="448" y="256" width="32" height="32"/>
  <object id="286" name="Cabana_Jogador_Telhado_Topo" type="Roof" gid="296" x="480" y="224" width="32" height="32"/>
  <object id="287" name="Cabana_Jogador_Telhado_Borda" type="Roof" gid="297" x="480" y="256" width="32" height="32"/>
  <object id="288" name="Cabana_Jogador_Telhado_Topo" type="Roof" gid="296" x="512" y="224" width="32" height="32"/>
  <object id="289" name="Cabana_Jogador_Telhado_Borda" type="Roof" gid="297" x="512" y="256" width="32" height="32"/>
  <object id="290" name="Cabana_Jogador_Telhado_Topo" type="Roof" gid="296" x="544" y="224" width="32" height="32"/>
  <object id="291" name="Cabana_Jogador_Telhado_Borda" type="Roof" gid="297" x="544" y="256" width="32" height="32"/>
  <object id="292" name="Cabana_Jogador_Telhado_Topo" type="Roof" gid="296" x="576" y="224" width="32" height="32"/>
  <object id="293" name="Cabana_Jogador_Telhado_Borda" type="Roof" gid="297" x="576" y="256" width="32" height="32"/>
  <object id="294" name="Cabana_Jogador_Parede_Canto_TL" type="Wall" gid="2055" x="256" y="256" width="32" height="32"/>
  <object id="295" name="Cabana_Jogador_Parede_Canto_TR" type="Wall" gid="2056" x="288" y="256" width="32" height="32"/>
  <object id="296" name="Cabana_Jogador_Parede_Canto_BL" type="Wall" gid="2071" x="256" y="288" width="32" height="32"/>
  <object id="297" name="Cabana_Jogador_Parede_Canto_BR" type="Wall" gid="2072" x="288" y="288" width="32" height="32"/>
  <object id="298" name="Cabana_Jogador_Parede_Norte_T" type="Wall" gid="2052" x="320" y="256" width="32" height="32"/>
  <object id="299" name="Cabana_Jogador_Parede_Norte_B" type="Wall" gid="2068" x="320" y="288" width="32" height="32"/>
  <object id="300" name="Cabana_Jogador_Parede_Janela_T" type="Wall" gid="2058" x="352" y="256" width="32" height="32"/>
  <object id="301" name="Cabana_Jogador_Parede_Janela_B" type="Wall" gid="2074" x="352" y="288" width="32" height="32"/>
  <object id="302" name="Cabana_Jogador_Parede_Norte_T" type="Wall" gid="2052" x="384" y="256" width="32" height="32"/>
  <object id="303" name="Cabana_Jogador_Parede_Norte_B" type="Wall" gid="2068" x="384" y="288" width="32" height="32"/>
  <object id="304" name="Cabana_Jogador_Parede_Norte_T" type="Wall" gid="2052" x="416" y="256" width="32" height="32"/>
  <object id="305" name="Cabana_Jogador_Parede_Norte_B" type="Wall" gid="2068" x="416" y="288" width="32" height="32"/>
  <object id="306" name="Cabana_Jogador_Parede_Janela_T" type="Wall" gid="2058" x="448" y="256" width="32" height="32"/>
  <object id="307" name="Cabana_Jogador_Parede_Janela_B" type="Wall" gid="2074" x="448" y="288" width="32" height="32"/>
  <object id="308" name="Cabana_Jogador_Parede_Norte_T" type="Wall" gid="2052" x="480" y="256" width="32" height="32"/>
  <object id="309" name="Cabana_Jogador_Parede_Norte_B" type="Wall" gid="2068" x="480" y="288" width="32" height="32"/>
  <object id="310" name="Cabana_Jogador_Parede_Norte_T" type="Wall" gid="2052" x="512" y="256" width="32" height="32"/>
  <object id="311" name="Cabana_Jogador_Parede_Norte_B" type="Wall" gid="2068" x="512" y="288" width="32" height="32"/>
  <object id="312" name="Cabana_Jogador_Parede_Fim_Leste_T" type="Wall" gid="2096" x="544" y="256" width="32" height="32"/>
  <object id="313" name="Cabana_Jogador_Parede_Fim_Leste_B" type="Wall" gid="2112" x="544" y="288" width="32" height="32"/>
  <object id="314" name="Cabana_Jogador_Parede_Oeste_T" type="Wall" gid="2050" x="256" y="320" width="32" height="32"/>
  <object id="315" name="Cabana_Jogador_Parede_Oeste_B" type="Wall" gid="2066" x="256" y="320" width="32" height="32"/>
  <object id="316" name="Cabana_Jogador_Parede_Oeste_T" type="Wall" gid="2050" x="256" y="352" width="32" height="32"/>
  <object id="317" name="Cabana_Jogador_Parede_Oeste_B" type="Wall" gid="2066" x="256" y="352" width="32" height="32"/>
  <object id="318" name="Cabana_Jogador_Parede_Oeste_T" type="Wall" gid="2050" x="256" y="384" width="32" height="32"/>
  <object id="319" name="Cabana_Jogador_Parede_Oeste_B" type="Wall" gid="2066" x="256" y="384" width="32" height="32"/>
  <object id="320" name="Cabana_Jogador_Parede_Oeste_T" type="Wall" gid="2050" x="256" y="416" width="32" height="32"/>
  <object id="321" name="Cabana_Jogador_Parede_Oeste_B" type="Wall" gid="2066" x="256" y="416" width="32" height="32"/>
  <object id="322" name="Cabana_Jogador_Parede_Oeste_T" type="Wall" gid="2050" x="256" y="448" width="32" height="32"/>
  <object id="323" name="Cabana_Jogador_Parede_Oeste_B" type="Wall" gid="2066" x="256" y="448" width="32" height="32"/>
  <object id="324" name="Cabana_Jogador_Parede_Oeste_T" type="Wall" gid="2050" x="256" y="480" width="32" height="32"/>
  <object id="325" name="Cabana_Jogador_Parede_Oeste_B" type="Wall" gid="2066" x="256" y="480" width="32" height="32"/>
  <object id="326" name="Cabana_Jogador_Parede_Fim_Sul_T" type="Wall" gid="2088" x="256" y="512" width="32" height="32"/>
  <object id="327" name="Cabana_Jogador_Parede_Fim_Sul_B" type="Wall" gid="2104" x="256" y="512" width="32" height="32"/>
  <object id="328" name="Cabana_Jogador_Muro_Baixo_Sul" type="Wall" gid="5188" x="288" y="512" width="32" height="32"/>
  <object id="329" name="Cabana_Jogador_Muro_Baixo_Sul" type="Wall" gid="5188" x="320" y="512" width="32" height="32"/>
  <object id="330" name="Cabana_Jogador_Muro_Baixo_Sul" type="Wall" gid="5188" x="352" y="512" width="32" height="32"/>
  <object id="331" name="Cabana_Jogador_Muro_Baixo_Sul" type="Wall" gid="5188" x="384" y="512" width="32" height="32"/>
  <object id="332" name="Cabana_Jogador_Porta_Entrada" type="Door" gid="5009" x="416" y="512" width="32" height="32"/>
  <object id="333" name="Cabana_Jogador_Muro_Baixo_Sul" type="Wall" gid="5188" x="448" y="512" width="32" height="32"/>
  <object id="334" name="Cabana_Jogador_Muro_Baixo_Sul" type="Wall" gid="5188" x="480" y="512" width="32" height="32"/>
  <object id="335" name="Cabana_Jogador_Muro_Baixo_Sul" type="Wall" gid="5188" x="512" y="512" width="32" height="32"/>
  <object id="336" name="Cabana_Jogador_Muro_Baixo_Sul" type="Wall" gid="5188" x="544" y="512" width="32" height="32"/>
  <object id="337" name="Cabana_Jogador_Muro_Baixo_Leste" type="Wall" gid="5187" x="544" y="320" width="32" height="32"/>
  <object id="338" name="Cabana_Jogador_Muro_Baixo_Leste" type="Wall" gid="5187" x="544" y="352" width="32" height="32"/>
  <object id="339" name="Cabana_Jogador_Muro_Baixo_Leste" type="Wall" gid="5187" x="544" y="384" width="32" height="32"/>
  <object id="340" name="Cabana_Jogador_Muro_Baixo_Leste" type="Wall" gid="5187" x="544" y="416" width="32" height="32"/>
  <object id="341" name="Cabana_Jogador_Muro_Baixo_Leste" type="Wall" gid="5187" x="544" y="448" width="32" height="32"/>
  <object id="342" name="Cabana_Jogador_Muro_Baixo_Leste" type="Wall" gid="5187" x="544" y="480" width="32" height="32"/>
  <object id="365" name="Ferraria_Telhado_Topo" type="Roof" gid="296" x="800" y="224" width="32" height="32"/>
  <object id="366" name="Ferraria_Telhado_Borda" type="Roof" gid="297" x="800" y="256" width="32" height="32"/>
  <object id="367" name="Ferraria_Telhado_Topo" type="Roof" gid="296" x="832" y="224" width="32" height="32"/>
  <object id="368" name="Ferraria_Telhado_Borda" type="Roof" gid="297" x="832" y="256" width="32" height="32"/>
  <object id="369" name="Ferraria_Telhado_Topo" type="Roof" gid="296" x="864" y="224" width="32" height="32"/>
  <object id="370" name="Ferraria_Telhado_Borda" type="Roof" gid="297" x="864" y="256" width="32" height="32"/>
  <object id="371" name="Ferraria_Telhado_Topo" type="Roof" gid="296" x="896" y="224" width="32" height="32"/>
  <object id="372" name="Ferraria_Telhado_Borda" type="Roof" gid="297" x="896" y="256" width="32" height="32"/>
  <object id="373" name="Ferraria_Telhado_Topo" type="Roof" gid="296" x="928" y="224" width="32" height="32"/>
  <object id="374" name="Ferraria_Telhado_Borda" type="Roof" gid="297" x="928" y="256" width="32" height="32"/>
  <object id="375" name="Ferraria_Telhado_Topo" type="Roof" gid="296" x="960" y="224" width="32" height="32"/>
  <object id="376" name="Ferraria_Telhado_Borda" type="Roof" gid="297" x="960" y="256" width="32" height="32"/>
  <object id="377" name="Ferraria_Telhado_Topo" type="Roof" gid="296" x="992" y="224" width="32" height="32"/>
  <object id="378" name="Ferraria_Telhado_Borda" type="Roof" gid="297" x="992" y="256" width="32" height="32"/>
  <object id="379" name="Ferraria_Telhado_Topo" type="Roof" gid="296" x="1024" y="224" width="32" height="32"/>
  <object id="380" name="Ferraria_Telhado_Borda" type="Roof" gid="297" x="1024" y="256" width="32" height="32"/>
  <object id="381" name="Ferraria_Telhado_Topo" type="Roof" gid="296" x="1056" y="224" width="32" height="32"/>
  <object id="382" name="Ferraria_Telhado_Borda" type="Roof" gid="297" x="1056" y="256" width="32" height="32"/>
  <object id="383" name="Ferraria_Telhado_Topo" type="Roof" gid="296" x="1088" y="224" width="32" height="32"/>
  <object id="384" name="Ferraria_Telhado_Borda" type="Roof" gid="297" x="1088" y="256" width="32" height="32"/>
  <object id="385" name="Ferraria_Telhado_Topo" type="Roof" gid="296" x="1120" y="224" width="32" height="32"/>
  <object id="386" name="Ferraria_Telhado_Borda" type="Roof" gid="297" x="1120" y="256" width="32" height="32"/>
  <object id="387" name="Ferraria_Telhado_Topo" type="Roof" gid="296" x="1152" y="224" width="32" height="32"/>
  <object id="388" name="Ferraria_Telhado_Borda" type="Roof" gid="297" x="1152" y="256" width="32" height="32"/>
  <object id="389" name="Ferraria_Telhado_Topo" type="Roof" gid="296" x="1184" y="224" width="32" height="32"/>
  <object id="390" name="Ferraria_Telhado_Borda" type="Roof" gid="297" x="1184" y="256" width="32" height="32"/>
  <object id="391" name="Ferraria_Telhado_Topo" type="Roof" gid="296" x="1216" y="224" width="32" height="32"/>
  <object id="392" name="Ferraria_Telhado_Borda" type="Roof" gid="297" x="1216" y="256" width="32" height="32"/>
  <object id="393" name="Ferraria_Parede_Canto_TL" type="Wall" gid="2055" x="832" y="256" width="32" height="32"/>
  <object id="394" name="Ferraria_Parede_Canto_TR" type="Wall" gid="2056" x="864" y="256" width="32" height="32"/>
  <object id="395" name="Ferraria_Parede_Canto_BL" type="Wall" gid="2071" x="832" y="288" width="32" height="32"/>
  <object id="396" name="Ferraria_Parede_Canto_BR" type="Wall" gid="2072" x="864" y="288" width="32" height="32"/>
  <object id="397" name="Ferraria_Parede_Norte_T" type="Wall" gid="2052" x="896" y="256" width="32" height="32"/>
  <object id="398" name="Ferraria_Parede_Norte_B" type="Wall" gid="2068" x="896" y="288" width="32" height="32"/>
  <object id="399" name="Ferraria_Parede_Janela_T" type="Wall" gid="2058" x="928" y="256" width="32" height="32"/>
  <object id="400" name="Ferraria_Parede_Janela_B" type="Wall" gid="2074" x="928" y="288" width="32" height="32"/>
  <object id="401" name="Ferraria_Parede_Norte_T" type="Wall" gid="2052" x="960" y="256" width="32" height="32"/>
  <object id="402" name="Ferraria_Parede_Norte_B" type="Wall" gid="2068" x="960" y="288" width="32" height="32"/>
  <object id="403" name="Ferraria_Parede_Norte_T" type="Wall" gid="2052" x="992" y="256" width="32" height="32"/>
  <object id="404" name="Ferraria_Parede_Norte_B" type="Wall" gid="2068" x="992" y="288" width="32" height="32"/>
  <object id="405" name="Ferraria_Parede_Janela_T" type="Wall" gid="2058" x="1024" y="256" width="32" height="32"/>
  <object id="406" name="Ferraria_Parede_Janela_B" type="Wall" gid="2074" x="1024" y="288" width="32" height="32"/>
  <object id="407" name="Ferraria_Parede_Norte_T" type="Wall" gid="2052" x="1056" y="256" width="32" height="32"/>
  <object id="408" name="Ferraria_Parede_Norte_B" type="Wall" gid="2068" x="1056" y="288" width="32" height="32"/>
  <object id="409" name="Ferraria_Parede_Norte_T" type="Wall" gid="2052" x="1088" y="256" width="32" height="32"/>
  <object id="410" name="Ferraria_Parede_Norte_B" type="Wall" gid="2068" x="1088" y="288" width="32" height="32"/>
  <object id="411" name="Ferraria_Parede_Janela_T" type="Wall" gid="2058" x="1120" y="256" width="32" height="32"/>
  <object id="412" name="Ferraria_Parede_Janela_B" type="Wall" gid="2074" x="1120" y="288" width="32" height="32"/>
  <object id="413" name="Ferraria_Parede_Norte_T" type="Wall" gid="2052" x="1152" y="256" width="32" height="32"/>
  <object id="414" name="Ferraria_Parede_Norte_B" type="Wall" gid="2068" x="1152" y="288" width="32" height="32"/>
  <object id="415" name="Ferraria_Parede_Fim_Leste_T" type="Wall" gid="2096" x="1184" y="256" width="32" height="32"/>
  <object id="416" name="Ferraria_Parede_Fim_Leste_B" type="Wall" gid="2112" x="1184" y="288" width="32" height="32"/>
  <object id="417" name="Ferraria_Parede_Oeste_T" type="Wall" gid="2050" x="832" y="320" width="32" height="32"/>
  <object id="418" name="Ferraria_Parede_Oeste_B" type="Wall" gid="2066" x="832" y="320" width="32" height="32"/>
  <object id="419" name="Ferraria_Parede_Oeste_T" type="Wall" gid="2050" x="832" y="352" width="32" height="32"/>
  <object id="420" name="Ferraria_Parede_Oeste_B" type="Wall" gid="2066" x="832" y="352" width="32" height="32"/>
  <object id="421" name="Ferraria_Parede_Oeste_T" type="Wall" gid="2050" x="832" y="384" width="32" height="32"/>
  <object id="422" name="Ferraria_Parede_Oeste_B" type="Wall" gid="2066" x="832" y="384" width="32" height="32"/>
  <object id="423" name="Ferraria_Parede_Oeste_T" type="Wall" gid="2050" x="832" y="416" width="32" height="32"/>
  <object id="424" name="Ferraria_Parede_Oeste_B" type="Wall" gid="2066" x="832" y="416" width="32" height="32"/>
  <object id="425" name="Ferraria_Parede_Oeste_T" type="Wall" gid="2050" x="832" y="448" width="32" height="32"/>
  <object id="426" name="Ferraria_Parede_Oeste_B" type="Wall" gid="2066" x="832" y="448" width="32" height="32"/>
  <object id="427" name="Ferraria_Parede_Oeste_T" type="Wall" gid="2050" x="832" y="480" width="32" height="32"/>
  <object id="428" name="Ferraria_Parede_Oeste_B" type="Wall" gid="2066" x="832" y="480" width="32" height="32"/>
  <object id="429" name="Ferraria_Parede_Oeste_T" type="Wall" gid="2050" x="832" y="512" width="32" height="32"/>
  <object id="430" name="Ferraria_Parede_Oeste_B" type="Wall" gid="2066" x="832" y="512" width="32" height="32"/>
  <object id="431" name="Ferraria_Parede_Fim_Sul_T" type="Wall" gid="2088" x="832" y="544" width="32" height="32"/>
  <object id="432" name="Ferraria_Parede_Fim_Sul_B" type="Wall" gid="2104" x="832" y="544" width="32" height="32"/>
  <object id="433" name="Ferraria_Muro_Baixo_Sul" type="Wall" gid="5188" x="864" y="544" width="32" height="32"/>
  <object id="434" name="Ferraria_Muro_Baixo_Sul" type="Wall" gid="5188" x="896" y="544" width="32" height="32"/>
  <object id="435" name="Ferraria_Muro_Baixo_Sul" type="Wall" gid="5188" x="928" y="544" width="32" height="32"/>
  <object id="436" name="Ferraria_Muro_Baixo_Sul" type="Wall" gid="5188" x="960" y="544" width="32" height="32"/>
  <object id="437" name="Ferraria_Porta_Entrada" type="Door" gid="5009" x="992" y="544" width="32" height="32"/>
  <object id="438" name="Ferraria_Muro_Baixo_Sul" type="Wall" gid="5188" x="1024" y="544" width="32" height="32"/>
  <object id="439" name="Ferraria_Muro_Baixo_Sul" type="Wall" gid="5188" x="1056" y="544" width="32" height="32"/>
  <object id="440" name="Ferraria_Muro_Baixo_Sul" type="Wall" gid="5188" x="1088" y="544" width="32" height="32"/>
  <object id="441" name="Ferraria_Muro_Baixo_Sul" type="Wall" gid="5188" x="1120" y="544" width="32" height="32"/>
  <object id="442" name="Ferraria_Muro_Baixo_Sul" type="Wall" gid="5188" x="1152" y="544" width="32" height="32"/>
  <object id="443" name="Ferraria_Muro_Baixo_Sul" type="Wall" gid="5188" x="1184" y="544" width="32" height="32"/>
  <object id="444" name="Ferraria_Muro_Baixo_Leste" type="Wall" gid="5187" x="1184" y="320" width="32" height="32"/>
  <object id="445" name="Ferraria_Muro_Baixo_Leste" type="Wall" gid="5187" x="1184" y="352" width="32" height="32"/>
  <object id="446" name="Ferraria_Muro_Baixo_Leste" type="Wall" gid="5187" x="1184" y="384" width="32" height="32"/>
  <object id="447" name="Ferraria_Muro_Baixo_Leste" type="Wall" gid="5187" x="1184" y="416" width="32" height="32"/>
  <object id="448" name="Ferraria_Muro_Baixo_Leste" type="Wall" gid="5187" x="1184" y="448" width="32" height="32"/>
  <object id="449" name="Ferraria_Muro_Baixo_Leste" type="Wall" gid="5187" x="1184" y="480" width="32" height="32"/>
  <object id="450" name="Ferraria_Muro_Baixo_Leste" type="Wall" gid="5187" x="1184" y="512" width="32" height="32"/>
  <object id="472" name="Prefeitura_Telhado_Topo" type="Roof" gid="296" x="224" y="800" width="32" height="32"/>
  <object id="473" name="Prefeitura_Telhado_Borda" type="Roof" gid="297" x="224" y="832" width="32" height="32"/>
  <object id="474" name="Prefeitura_Telhado_Topo" type="Roof" gid="296" x="256" y="800" width="32" height="32"/>
  <object id="475" name="Prefeitura_Telhado_Borda" type="Roof" gid="297" x="256" y="832" width="32" height="32"/>
  <object id="476" name="Prefeitura_Telhado_Topo" type="Roof" gid="296" x="288" y="800" width="32" height="32"/>
  <object id="477" name="Prefeitura_Telhado_Borda" type="Roof" gid="297" x="288" y="832" width="32" height="32"/>
  <object id="478" name="Prefeitura_Telhado_Topo" type="Roof" gid="296" x="320" y="800" width="32" height="32"/>
  <object id="479" name="Prefeitura_Telhado_Borda" type="Roof" gid="297" x="320" y="832" width="32" height="32"/>
  <object id="480" name="Prefeitura_Telhado_Topo" type="Roof" gid="296" x="352" y="800" width="32" height="32"/>
  <object id="481" name="Prefeitura_Telhado_Borda" type="Roof" gid="297" x="352" y="832" width="32" height="32"/>
  <object id="482" name="Prefeitura_Telhado_Topo" type="Roof" gid="296" x="384" y="800" width="32" height="32"/>
  <object id="483" name="Prefeitura_Telhado_Borda" type="Roof" gid="297" x="384" y="832" width="32" height="32"/>
  <object id="484" name="Prefeitura_Telhado_Topo" type="Roof" gid="296" x="416" y="800" width="32" height="32"/>
  <object id="485" name="Prefeitura_Telhado_Borda" type="Roof" gid="297" x="416" y="832" width="32" height="32"/>
  <object id="486" name="Prefeitura_Telhado_Topo" type="Roof" gid="296" x="448" y="800" width="32" height="32"/>
  <object id="487" name="Prefeitura_Telhado_Borda" type="Roof" gid="297" x="448" y="832" width="32" height="32"/>
  <object id="488" name="Prefeitura_Telhado_Topo" type="Roof" gid="296" x="480" y="800" width="32" height="32"/>
  <object id="489" name="Prefeitura_Telhado_Borda" type="Roof" gid="297" x="480" y="832" width="32" height="32"/>
  <object id="490" name="Prefeitura_Telhado_Topo" type="Roof" gid="296" x="512" y="800" width="32" height="32"/>
  <object id="491" name="Prefeitura_Telhado_Borda" type="Roof" gid="297" x="512" y="832" width="32" height="32"/>
  <object id="492" name="Prefeitura_Telhado_Topo" type="Roof" gid="296" x="544" y="800" width="32" height="32"/>
  <object id="493" name="Prefeitura_Telhado_Borda" type="Roof" gid="297" x="544" y="832" width="32" height="32"/>
  <object id="494" name="Prefeitura_Telhado_Topo" type="Roof" gid="296" x="576" y="800" width="32" height="32"/>
  <object id="495" name="Prefeitura_Telhado_Borda" type="Roof" gid="297" x="576" y="832" width="32" height="32"/>
  <object id="496" name="Prefeitura_Telhado_Topo" type="Roof" gid="296" x="608" y="800" width="32" height="32"/>
  <object id="497" name="Prefeitura_Telhado_Borda" type="Roof" gid="297" x="608" y="832" width="32" height="32"/>
  <object id="498" name="Prefeitura_Telhado_Topo" type="Roof" gid="296" x="640" y="800" width="32" height="32"/>
  <object id="499" name="Prefeitura_Telhado_Borda" type="Roof" gid="297" x="640" y="832" width="32" height="32"/>
  <object id="500" name="Prefeitura_Parede_Canto_TL" type="Wall" gid="2055" x="256" y="832" width="32" height="32"/>
  <object id="501" name="Prefeitura_Parede_Canto_TR" type="Wall" gid="2056" x="288" y="832" width="32" height="32"/>
  <object id="502" name="Prefeitura_Parede_Canto_BL" type="Wall" gid="2071" x="256" y="864" width="32" height="32"/>
  <object id="503" name="Prefeitura_Parede_Canto_BR" type="Wall" gid="2072" x="288" y="864" width="32" height="32"/>
  <object id="504" name="Prefeitura_Parede_Norte_T" type="Wall" gid="2052" x="320" y="832" width="32" height="32"/>
  <object id="505" name="Prefeitura_Parede_Norte_B" type="Wall" gid="2068" x="320" y="864" width="32" height="32"/>
  <object id="506" name="Prefeitura_Parede_Janela_T" type="Wall" gid="2058" x="352" y="832" width="32" height="32"/>
  <object id="507" name="Prefeitura_Parede_Janela_B" type="Wall" gid="2074" x="352" y="864" width="32" height="32"/>
  <object id="508" name="Prefeitura_Parede_Norte_T" type="Wall" gid="2052" x="384" y="832" width="32" height="32"/>
  <object id="509" name="Prefeitura_Parede_Norte_B" type="Wall" gid="2068" x="384" y="864" width="32" height="32"/>
  <object id="510" name="Prefeitura_Parede_Norte_T" type="Wall" gid="2052" x="416" y="832" width="32" height="32"/>
  <object id="511" name="Prefeitura_Parede_Norte_B" type="Wall" gid="2068" x="416" y="864" width="32" height="32"/>
  <object id="512" name="Prefeitura_Parede_Janela_T" type="Wall" gid="2058" x="448" y="832" width="32" height="32"/>
  <object id="513" name="Prefeitura_Parede_Janela_B" type="Wall" gid="2074" x="448" y="864" width="32" height="32"/>
  <object id="514" name="Prefeitura_Parede_Norte_T" type="Wall" gid="2052" x="480" y="832" width="32" height="32"/>
  <object id="515" name="Prefeitura_Parede_Norte_B" type="Wall" gid="2068" x="480" y="864" width="32" height="32"/>
  <object id="516" name="Prefeitura_Parede_Norte_T" type="Wall" gid="2052" x="512" y="832" width="32" height="32"/>
  <object id="517" name="Prefeitura_Parede_Norte_B" type="Wall" gid="2068" x="512" y="864" width="32" height="32"/>
  <object id="518" name="Prefeitura_Parede_Janela_T" type="Wall" gid="2058" x="544" y="832" width="32" height="32"/>
  <object id="519" name="Prefeitura_Parede_Janela_B" type="Wall" gid="2074" x="544" y="864" width="32" height="32"/>
  <object id="520" name="Prefeitura_Parede_Norte_T" type="Wall" gid="2052" x="576" y="832" width="32" height="32"/>
  <object id="521" name="Prefeitura_Parede_Norte_B" type="Wall" gid="2068" x="576" y="864" width="32" height="32"/>
  <object id="522" name="Prefeitura_Parede_Fim_Leste_T" type="Wall" gid="2096" x="608" y="832" width="32" height="32"/>
  <object id="523" name="Prefeitura_Parede_Fim_Leste_B" type="Wall" gid="2112" x="608" y="864" width="32" height="32"/>
  <object id="524" name="Prefeitura_Parede_Oeste_T" type="Wall" gid="2050" x="256" y="896" width="32" height="32"/>
  <object id="525" name="Prefeitura_Parede_Oeste_B" type="Wall" gid="2066" x="256" y="896" width="32" height="32"/>
  <object id="526" name="Prefeitura_Parede_Oeste_T" type="Wall" gid="2050" x="256" y="928" width="32" height="32"/>
  <object id="527" name="Prefeitura_Parede_Oeste_B" type="Wall" gid="2066" x="256" y="928" width="32" height="32"/>
  <object id="528" name="Prefeitura_Parede_Oeste_T" type="Wall" gid="2050" x="256" y="960" width="32" height="32"/>
  <object id="529" name="Prefeitura_Parede_Oeste_B" type="Wall" gid="2066" x="256" y="960" width="32" height="32"/>
  <object id="530" name="Prefeitura_Parede_Oeste_T" type="Wall" gid="2050" x="256" y="992" width="32" height="32"/>
  <object id="531" name="Prefeitura_Parede_Oeste_B" type="Wall" gid="2066" x="256" y="992" width="32" height="32"/>
  <object id="532" name="Prefeitura_Parede_Oeste_T" type="Wall" gid="2050" x="256" y="1024" width="32" height="32"/>
  <object id="533" name="Prefeitura_Parede_Oeste_B" type="Wall" gid="2066" x="256" y="1024" width="32" height="32"/>
  <object id="534" name="Prefeitura_Parede_Oeste_T" type="Wall" gid="2050" x="256" y="1056" width="32" height="32"/>
  <object id="535" name="Prefeitura_Parede_Oeste_B" type="Wall" gid="2066" x="256" y="1056" width="32" height="32"/>
  <object id="536" name="Prefeitura_Parede_Oeste_T" type="Wall" gid="2050" x="256" y="1088" width="32" height="32"/>
  <object id="537" name="Prefeitura_Parede_Oeste_B" type="Wall" gid="2066" x="256" y="1088" width="32" height="32"/>
  <object id="538" name="Prefeitura_Parede_Oeste_T" type="Wall" gid="2050" x="256" y="1120" width="32" height="32"/>
  <object id="539" name="Prefeitura_Parede_Oeste_B" type="Wall" gid="2066" x="256" y="1120" width="32" height="32"/>
  <object id="540" name="Prefeitura_Parede_Fim_Sul_T" type="Wall" gid="2088" x="256" y="1152" width="32" height="32"/>
  <object id="541" name="Prefeitura_Parede_Fim_Sul_B" type="Wall" gid="2104" x="256" y="1152" width="32" height="32"/>
  <object id="542" name="Prefeitura_Muro_Baixo_Sul" type="Wall" gid="5188" x="288" y="1152" width="32" height="32"/>
  <object id="543" name="Prefeitura_Muro_Baixo_Sul" type="Wall" gid="5188" x="320" y="1152" width="32" height="32"/>
  <object id="544" name="Prefeitura_Muro_Baixo_Sul" type="Wall" gid="5188" x="352" y="1152" width="32" height="32"/>
  <object id="545" name="Prefeitura_Muro_Baixo_Sul" type="Wall" gid="5188" x="384" y="1152" width="32" height="32"/>
  <object id="546" name="Prefeitura_Muro_Baixo_Sul" type="Wall" gid="5188" x="416" y="1152" width="32" height="32"/>
  <object id="547" name="Prefeitura_Porta_Entrada" type="Door" gid="5009" x="448" y="1152" width="32" height="32"/>
  <object id="548" name="Prefeitura_Muro_Baixo_Sul" type="Wall" gid="5188" x="480" y="1152" width="32" height="32"/>
  <object id="549" name="Prefeitura_Muro_Baixo_Sul" type="Wall" gid="5188" x="512" y="1152" width="32" height="32"/>
  <object id="550" name="Prefeitura_Muro_Baixo_Sul" type="Wall" gid="5188" x="544" y="1152" width="32" height="32"/>
  <object id="551" name="Prefeitura_Muro_Baixo_Sul" type="Wall" gid="5188" x="576" y="1152" width="32" height="32"/>
  <object id="552" name="Prefeitura_Muro_Baixo_Sul" type="Wall" gid="5188" x="608" y="1152" width="32" height="32"/>
  <object id="553" name="Prefeitura_Muro_Baixo_Leste" type="Wall" gid="5187" x="608" y="896" width="32" height="32"/>
  <object id="554" name="Prefeitura_Muro_Baixo_Leste" type="Wall" gid="5187" x="608" y="928" width="32" height="32"/>
  <object id="555" name="Prefeitura_Muro_Baixo_Leste" type="Wall" gid="5187" x="608" y="960" width="32" height="32"/>
  <object id="556" name="Prefeitura_Muro_Baixo_Leste" type="Wall" gid="5187" x="608" y="992" width="32" height="32"/>
  <object id="557" name="Prefeitura_Muro_Baixo_Leste" type="Wall" gid="5187" x="608" y="1024" width="32" height="32"/>
  <object id="558" name="Prefeitura_Muro_Baixo_Leste" type="Wall" gid="5187" x="608" y="1056" width="32" height="32"/>
  <object id="559" name="Prefeitura_Muro_Baixo_Leste" type="Wall" gid="5187" x="608" y="1088" width="32" height="32"/>
  <object id="560" name="Prefeitura_Muro_Baixo_Leste" type="Wall" gid="5187" x="608" y="1120" width="32" height="32"/>
  <object id="589" name="Posto_Pedreira_Telhado_Topo" type="Roof" gid="296" x="1760" y="288" width="32" height="32"/>
  <object id="590" name="Posto_Pedreira_Telhado_Borda" type="Roof" gid="297" x="1760" y="320" width="32" height="32"/>
  <object id="591" name="Posto_Pedreira_Telhado_Topo" type="Roof" gid="296" x="1792" y="288" width="32" height="32"/>
  <object id="592" name="Posto_Pedreira_Telhado_Borda" type="Roof" gid="297" x="1792" y="320" width="32" height="32"/>
  <object id="593" name="Posto_Pedreira_Telhado_Topo" type="Roof" gid="296" x="1824" y="288" width="32" height="32"/>
  <object id="594" name="Posto_Pedreira_Telhado_Borda" type="Roof" gid="297" x="1824" y="320" width="32" height="32"/>
  <object id="595" name="Posto_Pedreira_Telhado_Topo" type="Roof" gid="296" x="1856" y="288" width="32" height="32"/>
  <object id="596" name="Posto_Pedreira_Telhado_Borda" type="Roof" gid="297" x="1856" y="320" width="32" height="32"/>
  <object id="597" name="Posto_Pedreira_Telhado_Topo" type="Roof" gid="296" x="1888" y="288" width="32" height="32"/>
  <object id="598" name="Posto_Pedreira_Telhado_Borda" type="Roof" gid="297" x="1888" y="320" width="32" height="32"/>
  <object id="599" name="Posto_Pedreira_Telhado_Topo" type="Roof" gid="296" x="1920" y="288" width="32" height="32"/>
  <object id="600" name="Posto_Pedreira_Telhado_Borda" type="Roof" gid="297" x="1920" y="320" width="32" height="32"/>
  <object id="601" name="Posto_Pedreira_Telhado_Topo" type="Roof" gid="296" x="1952" y="288" width="32" height="32"/>
  <object id="602" name="Posto_Pedreira_Telhado_Borda" type="Roof" gid="297" x="1952" y="320" width="32" height="32"/>
  <object id="603" name="Posto_Pedreira_Telhado_Topo" type="Roof" gid="296" x="1984" y="288" width="32" height="32"/>
  <object id="604" name="Posto_Pedreira_Telhado_Borda" type="Roof" gid="297" x="1984" y="320" width="32" height="32"/>
  <object id="605" name="Posto_Pedreira_Telhado_Topo" type="Roof" gid="296" x="2016" y="288" width="32" height="32"/>
  <object id="606" name="Posto_Pedreira_Telhado_Borda" type="Roof" gid="297" x="2016" y="320" width="32" height="32"/>
  <object id="607" name="Posto_Pedreira_Telhado_Topo" type="Roof" gid="296" x="2048" y="288" width="32" height="32"/>
  <object id="608" name="Posto_Pedreira_Telhado_Borda" type="Roof" gid="297" x="2048" y="320" width="32" height="32"/>
  <object id="609" name="Posto_Pedreira_Telhado_Topo" type="Roof" gid="296" x="2080" y="288" width="32" height="32"/>
  <object id="610" name="Posto_Pedreira_Telhado_Borda" type="Roof" gid="297" x="2080" y="320" width="32" height="32"/>
  <object id="611" name="Posto_Pedreira_Telhado_Topo" type="Roof" gid="296" x="2112" y="288" width="32" height="32"/>
  <object id="612" name="Posto_Pedreira_Telhado_Borda" type="Roof" gid="297" x="2112" y="320" width="32" height="32"/>
  <object id="613" name="Posto_Pedreira_Parede_Canto_TL" type="Wall" gid="2055" x="1792" y="320" width="32" height="32"/>
  <object id="614" name="Posto_Pedreira_Parede_Canto_TR" type="Wall" gid="2056" x="1824" y="320" width="32" height="32"/>
  <object id="615" name="Posto_Pedreira_Parede_Canto_BL" type="Wall" gid="2071" x="1792" y="352" width="32" height="32"/>
  <object id="616" name="Posto_Pedreira_Parede_Canto_BR" type="Wall" gid="2072" x="1824" y="352" width="32" height="32"/>
  <object id="617" name="Posto_Pedreira_Parede_Norte_T" type="Wall" gid="2052" x="1856" y="320" width="32" height="32"/>
  <object id="618" name="Posto_Pedreira_Parede_Norte_B" type="Wall" gid="2068" x="1856" y="352" width="32" height="32"/>
  <object id="619" name="Posto_Pedreira_Parede_Janela_T" type="Wall" gid="2058" x="1888" y="320" width="32" height="32"/>
  <object id="620" name="Posto_Pedreira_Parede_Janela_B" type="Wall" gid="2074" x="1888" y="352" width="32" height="32"/>
  <object id="621" name="Posto_Pedreira_Parede_Norte_T" type="Wall" gid="2052" x="1920" y="320" width="32" height="32"/>
  <object id="622" name="Posto_Pedreira_Parede_Norte_B" type="Wall" gid="2068" x="1920" y="352" width="32" height="32"/>
  <object id="623" name="Posto_Pedreira_Parede_Norte_T" type="Wall" gid="2052" x="1952" y="320" width="32" height="32"/>
  <object id="624" name="Posto_Pedreira_Parede_Norte_B" type="Wall" gid="2068" x="1952" y="352" width="32" height="32"/>
  <object id="625" name="Posto_Pedreira_Parede_Janela_T" type="Wall" gid="2058" x="1984" y="320" width="32" height="32"/>
  <object id="626" name="Posto_Pedreira_Parede_Janela_B" type="Wall" gid="2074" x="1984" y="352" width="32" height="32"/>
  <object id="627" name="Posto_Pedreira_Parede_Norte_T" type="Wall" gid="2052" x="2016" y="320" width="32" height="32"/>
  <object id="628" name="Posto_Pedreira_Parede_Norte_B" type="Wall" gid="2068" x="2016" y="352" width="32" height="32"/>
  <object id="629" name="Posto_Pedreira_Parede_Norte_T" type="Wall" gid="2052" x="2048" y="320" width="32" height="32"/>
  <object id="630" name="Posto_Pedreira_Parede_Norte_B" type="Wall" gid="2068" x="2048" y="352" width="32" height="32"/>
  <object id="631" name="Posto_Pedreira_Parede_Fim_Leste_T" type="Wall" gid="2096" x="2080" y="320" width="32" height="32"/>
  <object id="632" name="Posto_Pedreira_Parede_Fim_Leste_B" type="Wall" gid="2112" x="2080" y="352" width="32" height="32"/>
  <object id="633" name="Posto_Pedreira_Parede_Oeste_T" type="Wall" gid="2050" x="1792" y="384" width="32" height="32"/>
  <object id="634" name="Posto_Pedreira_Parede_Oeste_B" type="Wall" gid="2066" x="1792" y="384" width="32" height="32"/>
  <object id="635" name="Posto_Pedreira_Parede_Oeste_T" type="Wall" gid="2050" x="1792" y="416" width="32" height="32"/>
  <object id="636" name="Posto_Pedreira_Parede_Oeste_B" type="Wall" gid="2066" x="1792" y="416" width="32" height="32"/>
  <object id="637" name="Posto_Pedreira_Parede_Oeste_T" type="Wall" gid="2050" x="1792" y="448" width="32" height="32"/>
  <object id="638" name="Posto_Pedreira_Parede_Oeste_B" type="Wall" gid="2066" x="1792" y="448" width="32" height="32"/>
  <object id="639" name="Posto_Pedreira_Parede_Oeste_T" type="Wall" gid="2050" x="1792" y="480" width="32" height="32"/>
  <object id="640" name="Posto_Pedreira_Parede_Oeste_B" type="Wall" gid="2066" x="1792" y="480" width="32" height="32"/>
  <object id="641" name="Posto_Pedreira_Parede_Oeste_T" type="Wall" gid="2050" x="1792" y="512" width="32" height="32"/>
  <object id="642" name="Posto_Pedreira_Parede_Oeste_B" type="Wall" gid="2066" x="1792" y="512" width="32" height="32"/>
  <object id="643" name="Posto_Pedreira_Parede_Oeste_T" type="Wall" gid="2050" x="1792" y="544" width="32" height="32"/>
  <object id="644" name="Posto_Pedreira_Parede_Oeste_B" type="Wall" gid="2066" x="1792" y="544" width="32" height="32"/>
  <object id="645" name="Posto_Pedreira_Parede_Fim_Sul_T" type="Wall" gid="2088" x="1792" y="576" width="32" height="32"/>
  <object id="646" name="Posto_Pedreira_Parede_Fim_Sul_B" type="Wall" gid="2104" x="1792" y="576" width="32" height="32"/>
  <object id="647" name="Posto_Pedreira_Muro_Baixo_Sul" type="Wall" gid="5188" x="1824" y="576" width="32" height="32"/>
  <object id="648" name="Posto_Pedreira_Muro_Baixo_Sul" type="Wall" gid="5188" x="1856" y="576" width="32" height="32"/>
  <object id="649" name="Posto_Pedreira_Muro_Baixo_Sul" type="Wall" gid="5188" x="1888" y="576" width="32" height="32"/>
  <object id="650" name="Posto_Pedreira_Muro_Baixo_Sul" type="Wall" gid="5188" x="1920" y="576" width="32" height="32"/>
  <object id="651" name="Posto_Pedreira_Porta_Entrada" type="Door" gid="5009" x="1952" y="576" width="32" height="32"/>
  <object id="652" name="Posto_Pedreira_Muro_Baixo_Sul" type="Wall" gid="5188" x="1984" y="576" width="32" height="32"/>
  <object id="653" name="Posto_Pedreira_Muro_Baixo_Sul" type="Wall" gid="5188" x="2016" y="576" width="32" height="32"/>
  <object id="654" name="Posto_Pedreira_Muro_Baixo_Sul" type="Wall" gid="5188" x="2048" y="576" width="32" height="32"/>
  <object id="655" name="Posto_Pedreira_Muro_Baixo_Sul" type="Wall" gid="5188" x="2080" y="576" width="32" height="32"/>
  <object id="656" name="Posto_Pedreira_Muro_Baixo_Leste" type="Wall" gid="5187" x="2080" y="384" width="32" height="32"/>
  <object id="657" name="Posto_Pedreira_Muro_Baixo_Leste" type="Wall" gid="5187" x="2080" y="416" width="32" height="32"/>
  <object id="658" name="Posto_Pedreira_Muro_Baixo_Leste" type="Wall" gid="5187" x="2080" y="448" width="32" height="32"/>
  <object id="659" name="Posto_Pedreira_Muro_Baixo_Leste" type="Wall" gid="5187" x="2080" y="480" width="32" height="32"/>
  <object id="660" name="Posto_Pedreira_Muro_Baixo_Leste" type="Wall" gid="5187" x="2080" y="512" width="32" height="32"/>
  <object id="661" name="Posto_Pedreira_Muro_Baixo_Leste" type="Wall" gid="5187" x="2080" y="544" width="32" height="32"/>
  <object id="680" name="Santuario_Deserto_Telhado_Topo" type="Roof" gid="296" x="1696" y="2016" width="32" height="32"/>
  <object id="681" name="Santuario_Deserto_Telhado_Borda" type="Roof" gid="297" x="1696" y="2048" width="32" height="32"/>
  <object id="682" name="Santuario_Deserto_Telhado_Topo" type="Roof" gid="296" x="1728" y="2016" width="32" height="32"/>
  <object id="683" name="Santuario_Deserto_Telhado_Borda" type="Roof" gid="297" x="1728" y="2048" width="32" height="32"/>
  <object id="684" name="Santuario_Deserto_Telhado_Topo" type="Roof" gid="296" x="1760" y="2016" width="32" height="32"/>
  <object id="685" name="Santuario_Deserto_Telhado_Borda" type="Roof" gid="297" x="1760" y="2048" width="32" height="32"/>
  <object id="686" name="Santuario_Deserto_Telhado_Topo" type="Roof" gid="296" x="1792" y="2016" width="32" height="32"/>
  <object id="687" name="Santuario_Deserto_Telhado_Borda" type="Roof" gid="297" x="1792" y="2048" width="32" height="32"/>
  <object id="688" name="Santuario_Deserto_Telhado_Topo" type="Roof" gid="296" x="1824" y="2016" width="32" height="32"/>
  <object id="689" name="Santuario_Deserto_Telhado_Borda" type="Roof" gid="297" x="1824" y="2048" width="32" height="32"/>
  <object id="690" name="Santuario_Deserto_Telhado_Topo" type="Roof" gid="296" x="1856" y="2016" width="32" height="32"/>
  <object id="691" name="Santuario_Deserto_Telhado_Borda" type="Roof" gid="297" x="1856" y="2048" width="32" height="32"/>
  <object id="692" name="Santuario_Deserto_Telhado_Topo" type="Roof" gid="296" x="1888" y="2016" width="32" height="32"/>
  <object id="693" name="Santuario_Deserto_Telhado_Borda" type="Roof" gid="297" x="1888" y="2048" width="32" height="32"/>
  <object id="694" name="Santuario_Deserto_Telhado_Topo" type="Roof" gid="296" x="1920" y="2016" width="32" height="32"/>
  <object id="695" name="Santuario_Deserto_Telhado_Borda" type="Roof" gid="297" x="1920" y="2048" width="32" height="32"/>
  <object id="696" name="Santuario_Deserto_Telhado_Topo" type="Roof" gid="296" x="1952" y="2016" width="32" height="32"/>
  <object id="697" name="Santuario_Deserto_Telhado_Borda" type="Roof" gid="297" x="1952" y="2048" width="32" height="32"/>
  <object id="698" name="Santuario_Deserto_Telhado_Topo" type="Roof" gid="296" x="1984" y="2016" width="32" height="32"/>
  <object id="699" name="Santuario_Deserto_Telhado_Borda" type="Roof" gid="297" x="1984" y="2048" width="32" height="32"/>
  <object id="700" name="Santuario_Deserto_Telhado_Topo" type="Roof" gid="296" x="2016" y="2016" width="32" height="32"/>
  <object id="701" name="Santuario_Deserto_Telhado_Borda" type="Roof" gid="297" x="2016" y="2048" width="32" height="32"/>
  <object id="702" name="Santuario_Deserto_Telhado_Topo" type="Roof" gid="296" x="2048" y="2016" width="32" height="32"/>
  <object id="703" name="Santuario_Deserto_Telhado_Borda" type="Roof" gid="297" x="2048" y="2048" width="32" height="32"/>
  <object id="704" name="Santuario_Deserto_Telhado_Topo" type="Roof" gid="296" x="2080" y="2016" width="32" height="32"/>
  <object id="705" name="Santuario_Deserto_Telhado_Borda" type="Roof" gid="297" x="2080" y="2048" width="32" height="32"/>
  <object id="706" name="Santuario_Deserto_Telhado_Topo" type="Roof" gid="296" x="2112" y="2016" width="32" height="32"/>
  <object id="707" name="Santuario_Deserto_Telhado_Borda" type="Roof" gid="297" x="2112" y="2048" width="32" height="32"/>
  <object id="708" name="Santuario_Deserto_Parede_Canto_TL" type="Wall" gid="2055" x="1728" y="2048" width="32" height="32"/>
  <object id="709" name="Santuario_Deserto_Parede_Canto_TR" type="Wall" gid="2056" x="1760" y="2048" width="32" height="32"/>
  <object id="710" name="Santuario_Deserto_Parede_Canto_BL" type="Wall" gid="2071" x="1728" y="2080" width="32" height="32"/>
  <object id="711" name="Santuario_Deserto_Parede_Canto_BR" type="Wall" gid="2072" x="1760" y="2080" width="32" height="32"/>
  <object id="712" name="Santuario_Deserto_Parede_Norte_T" type="Wall" gid="2052" x="1792" y="2048" width="32" height="32"/>
  <object id="713" name="Santuario_Deserto_Parede_Norte_B" type="Wall" gid="2068" x="1792" y="2080" width="32" height="32"/>
  <object id="714" name="Santuario_Deserto_Parede_Janela_T" type="Wall" gid="2058" x="1824" y="2048" width="32" height="32"/>
  <object id="715" name="Santuario_Deserto_Parede_Janela_B" type="Wall" gid="2074" x="1824" y="2080" width="32" height="32"/>
  <object id="716" name="Santuario_Deserto_Parede_Norte_T" type="Wall" gid="2052" x="1856" y="2048" width="32" height="32"/>
  <object id="717" name="Santuario_Deserto_Parede_Norte_B" type="Wall" gid="2068" x="1856" y="2080" width="32" height="32"/>
  <object id="718" name="Santuario_Deserto_Parede_Norte_T" type="Wall" gid="2052" x="1888" y="2048" width="32" height="32"/>
  <object id="719" name="Santuario_Deserto_Parede_Norte_B" type="Wall" gid="2068" x="1888" y="2080" width="32" height="32"/>
  <object id="720" name="Santuario_Deserto_Parede_Janela_T" type="Wall" gid="2058" x="1920" y="2048" width="32" height="32"/>
  <object id="721" name="Santuario_Deserto_Parede_Janela_B" type="Wall" gid="2074" x="1920" y="2080" width="32" height="32"/>
  <object id="722" name="Santuario_Deserto_Parede_Norte_T" type="Wall" gid="2052" x="1952" y="2048" width="32" height="32"/>
  <object id="723" name="Santuario_Deserto_Parede_Norte_B" type="Wall" gid="2068" x="1952" y="2080" width="32" height="32"/>
  <object id="724" name="Santuario_Deserto_Parede_Norte_T" type="Wall" gid="2052" x="1984" y="2048" width="32" height="32"/>
  <object id="725" name="Santuario_Deserto_Parede_Norte_B" type="Wall" gid="2068" x="1984" y="2080" width="32" height="32"/>
  <object id="726" name="Santuario_Deserto_Parede_Janela_T" type="Wall" gid="2058" x="2016" y="2048" width="32" height="32"/>
  <object id="727" name="Santuario_Deserto_Parede_Janela_B" type="Wall" gid="2074" x="2016" y="2080" width="32" height="32"/>
  <object id="728" name="Santuario_Deserto_Parede_Norte_T" type="Wall" gid="2052" x="2048" y="2048" width="32" height="32"/>
  <object id="729" name="Santuario_Deserto_Parede_Norte_B" type="Wall" gid="2068" x="2048" y="2080" width="32" height="32"/>
  <object id="730" name="Santuario_Deserto_Parede_Fim_Leste_T" type="Wall" gid="2096" x="2080" y="2048" width="32" height="32"/>
  <object id="731" name="Santuario_Deserto_Parede_Fim_Leste_B" type="Wall" gid="2112" x="2080" y="2080" width="32" height="32"/>
  <object id="732" name="Santuario_Deserto_Parede_Oeste_T" type="Wall" gid="2050" x="1728" y="2112" width="32" height="32"/>
  <object id="733" name="Santuario_Deserto_Parede_Oeste_B" type="Wall" gid="2066" x="1728" y="2112" width="32" height="32"/>
  <object id="734" name="Santuario_Deserto_Parede_Oeste_T" type="Wall" gid="2050" x="1728" y="2144" width="32" height="32"/>
  <object id="735" name="Santuario_Deserto_Parede_Oeste_B" type="Wall" gid="2066" x="1728" y="2144" width="32" height="32"/>
  <object id="736" name="Santuario_Deserto_Parede_Oeste_T" type="Wall" gid="2050" x="1728" y="2176" width="32" height="32"/>
  <object id="737" name="Santuario_Deserto_Parede_Oeste_B" type="Wall" gid="2066" x="1728" y="2176" width="32" height="32"/>
  <object id="738" name="Santuario_Deserto_Parede_Oeste_T" type="Wall" gid="2050" x="1728" y="2208" width="32" height="32"/>
  <object id="739" name="Santuario_Deserto_Parede_Oeste_B" type="Wall" gid="2066" x="1728" y="2208" width="32" height="32"/>
  <object id="740" name="Santuario_Deserto_Parede_Oeste_T" type="Wall" gid="2050" x="1728" y="2240" width="32" height="32"/>
  <object id="741" name="Santuario_Deserto_Parede_Oeste_B" type="Wall" gid="2066" x="1728" y="2240" width="32" height="32"/>
  <object id="742" name="Santuario_Deserto_Parede_Oeste_T" type="Wall" gid="2050" x="1728" y="2272" width="32" height="32"/>
  <object id="743" name="Santuario_Deserto_Parede_Oeste_B" type="Wall" gid="2066" x="1728" y="2272" width="32" height="32"/>
  <object id="744" name="Santuario_Deserto_Parede_Oeste_T" type="Wall" gid="2050" x="1728" y="2304" width="32" height="32"/>
  <object id="745" name="Santuario_Deserto_Parede_Oeste_B" type="Wall" gid="2066" x="1728" y="2304" width="32" height="32"/>
  <object id="746" name="Santuario_Deserto_Parede_Oeste_T" type="Wall" gid="2050" x="1728" y="2336" width="32" height="32"/>
  <object id="747" name="Santuario_Deserto_Parede_Oeste_B" type="Wall" gid="2066" x="1728" y="2336" width="32" height="32"/>
  <object id="748" name="Santuario_Deserto_Parede_Fim_Sul_T" type="Wall" gid="2088" x="1728" y="2368" width="32" height="32"/>
  <object id="749" name="Santuario_Deserto_Parede_Fim_Sul_B" type="Wall" gid="2104" x="1728" y="2368" width="32" height="32"/>
  <object id="750" name="Santuario_Deserto_Muro_Baixo_Sul" type="Wall" gid="5188" x="1760" y="2368" width="32" height="32"/>
  <object id="751" name="Santuario_Deserto_Muro_Baixo_Sul" type="Wall" gid="5188" x="1792" y="2368" width="32" height="32"/>
  <object id="752" name="Santuario_Deserto_Muro_Baixo_Sul" type="Wall" gid="5188" x="1824" y="2368" width="32" height="32"/>
  <object id="753" name="Santuario_Deserto_Muro_Baixo_Sul" type="Wall" gid="5188" x="1856" y="2368" width="32" height="32"/>
  <object id="754" name="Santuario_Deserto_Muro_Baixo_Sul" type="Wall" gid="5188" x="1888" y="2368" width="32" height="32"/>
  <object id="755" name="Santuario_Deserto_Porta_Entrada" type="Door" gid="5009" x="1920" y="2368" width="32" height="32"/>
  <object id="756" name="Santuario_Deserto_Muro_Baixo_Sul" type="Wall" gid="5188" x="1952" y="2368" width="32" height="32"/>
  <object id="757" name="Santuario_Deserto_Muro_Baixo_Sul" type="Wall" gid="5188" x="1984" y="2368" width="32" height="32"/>
  <object id="758" name="Santuario_Deserto_Muro_Baixo_Sul" type="Wall" gid="5188" x="2016" y="2368" width="32" height="32"/>
  <object id="759" name="Santuario_Deserto_Muro_Baixo_Sul" type="Wall" gid="5188" x="2048" y="2368" width="32" height="32"/>
  <object id="760" name="Santuario_Deserto_Muro_Baixo_Sul" type="Wall" gid="5188" x="2080" y="2368" width="32" height="32"/>
  <object id="761" name="Santuario_Deserto_Muro_Baixo_Leste" type="Wall" gid="5187" x="2080" y="2112" width="32" height="32"/>
  <object id="762" name="Santuario_Deserto_Muro_Baixo_Leste" type="Wall" gid="5187" x="2080" y="2144" width="32" height="32"/>
  <object id="763" name="Santuario_Deserto_Muro_Baixo_Leste" type="Wall" gid="5187" x="2080" y="2176" width="32" height="32"/>
  <object id="764" name="Santuario_Deserto_Muro_Baixo_Leste" type="Wall" gid="5187" x="2080" y="2208" width="32" height="32"/>
  <object id="765" name="Santuario_Deserto_Muro_Baixo_Leste" type="Wall" gid="5187" x="2080" y="2240" width="32" height="32"/>
  <object id="766" name="Santuario_Deserto_Muro_Baixo_Leste" type="Wall" gid="5187" x="2080" y="2272" width="32" height="32"/>
  <object id="767" name="Santuario_Deserto_Muro_Baixo_Leste" type="Wall" gid="5187" x="2080" y="2304" width="32" height="32"/>
  <object id="768" name="Santuario_Deserto_Muro_Baixo_Leste" type="Wall" gid="5187" x="2080" y="2336" width="32" height="32"/>
  <object id="797" name="Cabana_Bruxa_Telhado_Topo" type="Roof" gid="296" x="288" y="1632" width="32" height="32"/>
  <object id="798" name="Cabana_Bruxa_Telhado_Borda" type="Roof" gid="297" x="288" y="1664" width="32" height="32"/>
  <object id="799" name="Cabana_Bruxa_Telhado_Topo" type="Roof" gid="296" x="320" y="1632" width="32" height="32"/>
  <object id="800" name="Cabana_Bruxa_Telhado_Borda" type="Roof" gid="297" x="320" y="1664" width="32" height="32"/>
  <object id="801" name="Cabana_Bruxa_Telhado_Topo" type="Roof" gid="296" x="352" y="1632" width="32" height="32"/>
  <object id="802" name="Cabana_Bruxa_Telhado_Borda" type="Roof" gid="297" x="352" y="1664" width="32" height="32"/>
  <object id="803" name="Cabana_Bruxa_Telhado_Topo" type="Roof" gid="296" x="384" y="1632" width="32" height="32"/>
  <object id="804" name="Cabana_Bruxa_Telhado_Borda" type="Roof" gid="297" x="384" y="1664" width="32" height="32"/>
  <object id="805" name="Cabana_Bruxa_Telhado_Topo" type="Roof" gid="296" x="416" y="1632" width="32" height="32"/>
  <object id="806" name="Cabana_Bruxa_Telhado_Borda" type="Roof" gid="297" x="416" y="1664" width="32" height="32"/>
  <object id="807" name="Cabana_Bruxa_Telhado_Topo" type="Roof" gid="296" x="448" y="1632" width="32" height="32"/>
  <object id="808" name="Cabana_Bruxa_Telhado_Borda" type="Roof" gid="297" x="448" y="1664" width="32" height="32"/>
  <object id="809" name="Cabana_Bruxa_Telhado_Topo" type="Roof" gid="296" x="480" y="1632" width="32" height="32"/>
  <object id="810" name="Cabana_Bruxa_Telhado_Borda" type="Roof" gid="297" x="480" y="1664" width="32" height="32"/>
  <object id="811" name="Cabana_Bruxa_Telhado_Topo" type="Roof" gid="296" x="512" y="1632" width="32" height="32"/>
  <object id="812" name="Cabana_Bruxa_Telhado_Borda" type="Roof" gid="297" x="512" y="1664" width="32" height="32"/>
  <object id="813" name="Cabana_Bruxa_Telhado_Topo" type="Roof" gid="296" x="544" y="1632" width="32" height="32"/>
  <object id="814" name="Cabana_Bruxa_Telhado_Borda" type="Roof" gid="297" x="544" y="1664" width="32" height="32"/>
  <object id="815" name="Cabana_Bruxa_Telhado_Topo" type="Roof" gid="296" x="576" y="1632" width="32" height="32"/>
  <object id="816" name="Cabana_Bruxa_Telhado_Borda" type="Roof" gid="297" x="576" y="1664" width="32" height="32"/>
  <object id="817" name="Cabana_Bruxa_Telhado_Topo" type="Roof" gid="296" x="608" y="1632" width="32" height="32"/>
  <object id="818" name="Cabana_Bruxa_Telhado_Borda" type="Roof" gid="297" x="608" y="1664" width="32" height="32"/>
  <object id="819" name="Cabana_Bruxa_Telhado_Topo" type="Roof" gid="296" x="640" y="1632" width="32" height="32"/>
  <object id="820" name="Cabana_Bruxa_Telhado_Borda" type="Roof" gid="297" x="640" y="1664" width="32" height="32"/>
  <object id="821" name="Cabana_Bruxa_Parede_Canto_TL" type="Wall" gid="2055" x="320" y="1664" width="32" height="32"/>
  <object id="822" name="Cabana_Bruxa_Parede_Canto_TR" type="Wall" gid="2056" x="352" y="1664" width="32" height="32"/>
  <object id="823" name="Cabana_Bruxa_Parede_Canto_BL" type="Wall" gid="2071" x="320" y="1696" width="32" height="32"/>
  <object id="824" name="Cabana_Bruxa_Parede_Canto_BR" type="Wall" gid="2072" x="352" y="1696" width="32" height="32"/>
  <object id="825" name="Cabana_Bruxa_Parede_Norte_T" type="Wall" gid="2052" x="384" y="1664" width="32" height="32"/>
  <object id="826" name="Cabana_Bruxa_Parede_Norte_B" type="Wall" gid="2068" x="384" y="1696" width="32" height="32"/>
  <object id="827" name="Cabana_Bruxa_Parede_Janela_T" type="Wall" gid="2058" x="416" y="1664" width="32" height="32"/>
  <object id="828" name="Cabana_Bruxa_Parede_Janela_B" type="Wall" gid="2074" x="416" y="1696" width="32" height="32"/>
  <object id="829" name="Cabana_Bruxa_Parede_Norte_T" type="Wall" gid="2052" x="448" y="1664" width="32" height="32"/>
  <object id="830" name="Cabana_Bruxa_Parede_Norte_B" type="Wall" gid="2068" x="448" y="1696" width="32" height="32"/>
  <object id="831" name="Cabana_Bruxa_Parede_Norte_T" type="Wall" gid="2052" x="480" y="1664" width="32" height="32"/>
  <object id="832" name="Cabana_Bruxa_Parede_Norte_B" type="Wall" gid="2068" x="480" y="1696" width="32" height="32"/>
  <object id="833" name="Cabana_Bruxa_Parede_Janela_T" type="Wall" gid="2058" x="512" y="1664" width="32" height="32"/>
  <object id="834" name="Cabana_Bruxa_Parede_Janela_B" type="Wall" gid="2074" x="512" y="1696" width="32" height="32"/>
  <object id="835" name="Cabana_Bruxa_Parede_Norte_T" type="Wall" gid="2052" x="544" y="1664" width="32" height="32"/>
  <object id="836" name="Cabana_Bruxa_Parede_Norte_B" type="Wall" gid="2068" x="544" y="1696" width="32" height="32"/>
  <object id="837" name="Cabana_Bruxa_Parede_Norte_T" type="Wall" gid="2052" x="576" y="1664" width="32" height="32"/>
  <object id="838" name="Cabana_Bruxa_Parede_Norte_B" type="Wall" gid="2068" x="576" y="1696" width="32" height="32"/>
  <object id="839" name="Cabana_Bruxa_Parede_Fim_Leste_T" type="Wall" gid="2096" x="608" y="1664" width="32" height="32"/>
  <object id="840" name="Cabana_Bruxa_Parede_Fim_Leste_B" type="Wall" gid="2112" x="608" y="1696" width="32" height="32"/>
  <object id="841" name="Cabana_Bruxa_Parede_Oeste_T" type="Wall" gid="2050" x="320" y="1728" width="32" height="32"/>
  <object id="842" name="Cabana_Bruxa_Parede_Oeste_B" type="Wall" gid="2066" x="320" y="1728" width="32" height="32"/>
  <object id="843" name="Cabana_Bruxa_Parede_Oeste_T" type="Wall" gid="2050" x="320" y="1760" width="32" height="32"/>
  <object id="844" name="Cabana_Bruxa_Parede_Oeste_B" type="Wall" gid="2066" x="320" y="1760" width="32" height="32"/>
  <object id="845" name="Cabana_Bruxa_Parede_Oeste_T" type="Wall" gid="2050" x="320" y="1792" width="32" height="32"/>
  <object id="846" name="Cabana_Bruxa_Parede_Oeste_B" type="Wall" gid="2066" x="320" y="1792" width="32" height="32"/>
  <object id="847" name="Cabana_Bruxa_Parede_Oeste_T" type="Wall" gid="2050" x="320" y="1824" width="32" height="32"/>
  <object id="848" name="Cabana_Bruxa_Parede_Oeste_B" type="Wall" gid="2066" x="320" y="1824" width="32" height="32"/>
  <object id="849" name="Cabana_Bruxa_Parede_Oeste_T" type="Wall" gid="2050" x="320" y="1856" width="32" height="32"/>
  <object id="850" name="Cabana_Bruxa_Parede_Oeste_B" type="Wall" gid="2066" x="320" y="1856" width="32" height="32"/>
  <object id="851" name="Cabana_Bruxa_Parede_Oeste_T" type="Wall" gid="2050" x="320" y="1888" width="32" height="32"/>
  <object id="852" name="Cabana_Bruxa_Parede_Oeste_B" type="Wall" gid="2066" x="320" y="1888" width="32" height="32"/>
  <object id="853" name="Cabana_Bruxa_Parede_Fim_Sul_T" type="Wall" gid="2088" x="320" y="1920" width="32" height="32"/>
  <object id="854" name="Cabana_Bruxa_Parede_Fim_Sul_B" type="Wall" gid="2104" x="320" y="1920" width="32" height="32"/>
  <object id="855" name="Cabana_Bruxa_Muro_Baixo_Sul" type="Wall" gid="5188" x="352" y="1920" width="32" height="32"/>
  <object id="856" name="Cabana_Bruxa_Muro_Baixo_Sul" type="Wall" gid="5188" x="384" y="1920" width="32" height="32"/>
  <object id="857" name="Cabana_Bruxa_Muro_Baixo_Sul" type="Wall" gid="5188" x="416" y="1920" width="32" height="32"/>
  <object id="858" name="Cabana_Bruxa_Muro_Baixo_Sul" type="Wall" gid="5188" x="448" y="1920" width="32" height="32"/>
  <object id="859" name="Cabana_Bruxa_Porta_Entrada" type="Door" gid="5009" x="480" y="1920" width="32" height="32"/>
  <object id="860" name="Cabana_Bruxa_Muro_Baixo_Sul" type="Wall" gid="5188" x="512" y="1920" width="32" height="32"/>
  <object id="861" name="Cabana_Bruxa_Muro_Baixo_Sul" type="Wall" gid="5188" x="544" y="1920" width="32" height="32"/>
  <object id="862" name="Cabana_Bruxa_Muro_Baixo_Sul" type="Wall" gid="5188" x="576" y="1920" width="32" height="32"/>
  <object id="863" name="Cabana_Bruxa_Muro_Baixo_Sul" type="Wall" gid="5188" x="608" y="1920" width="32" height="32"/>
  <object id="864" name="Cabana_Bruxa_Muro_Baixo_Leste" type="Wall" gid="5187" x="608" y="1728" width="32" height="32"/>
  <object id="865" name="Cabana_Bruxa_Muro_Baixo_Leste" type="Wall" gid="5187" x="608" y="1760" width="32" height="32"/>
  <object id="866" name="Cabana_Bruxa_Muro_Baixo_Leste" type="Wall" gid="5187" x="608" y="1792" width="32" height="32"/>
  <object id="867" name="Cabana_Bruxa_Muro_Baixo_Leste" type="Wall" gid="5187" x="608" y="1824" width="32" height="32"/>
  <object id="868" name="Cabana_Bruxa_Muro_Baixo_Leste" type="Wall" gid="5187" x="608" y="1856" width="32" height="32"/>
  <object id="869" name="Cabana_Bruxa_Muro_Baixo_Leste" type="Wall" gid="5187" x="608" y="1888" width="32" height="32"/>
  <object id="886" name="Entrada_Caverna_Minerios_Portal" type="CaveEntrance" gid="5589" x="1216" y="480" width="32" height="32"/>
  <object id="889" name="Entrada_Caverna_Fungica_Portal" type="CaveEntrance" gid="5589" x="2176" y="736" width="32" height="32"/>
  <object id="901" name="Entrada_Catacumbas_Portal" type="CaveEntrance" gid="5589" x="2176" y="2144" width="32" height="32"/>
 </objectgroup>
 <objectgroup id="3" name="Natureza_e_Vegetacao">
  <object id="891" name="CogumeloGigante_TL" type="Mushroom" gid="1381" x="2112" y="704" width="32" height="32"/>
  <object id="892" name="CogumeloGigante_TR" type="Mushroom" gid="1382" x="2144" y="704" width="32" height="32"/>
  <object id="893" name="CogumeloGigante_BL" type="Mushroom" gid="1397" x="2112" y="736" width="32" height="32"/>
  <object id="894" name="CogumeloGigante_BR" type="Mushroom" gid="1398" x="2144" y="736" width="32" height="32"/>
  <object id="896" name="CogumeloGigante_TL" type="Mushroom" gid="1381" x="2240" y="704" width="32" height="32"/>
  <object id="897" name="CogumeloGigante_TR" type="Mushroom" gid="1382" x="2272" y="704" width="32" height="32"/>
  <object id="898" name="CogumeloGigante_BL" type="Mushroom" gid="1397" x="2240" y="736" width="32" height="32"/>
  <object id="899" name="CogumeloGigante_BR" type="Mushroom" gid="1398" x="2272" y="736" width="32" height="32"/>
  <object id="913" name="Carvalho_TL" type="Tree" gid="1255" x="128" y="160" width="32" height="32"/>
  <object id="914" name="Carvalho_TR" type="Tree" gid="1256" x="160" y="160" width="32" height="32"/>
  <object id="915" name="Carvalho_BL" type="Tree" gid="1271" x="128" y="192" width="32" height="32"/>
  <object id="916" name="Carvalho_BR" type="Tree" gid="1272" x="160" y="192" width="32" height="32"/>
  <object id="918" name="Pinheiro_TL" type="Tree" gid="1253" x="608" y="192" width="32" height="32"/>
  <object id="919" name="Pinheiro_TR" type="Tree" gid="1254" x="640" y="192" width="32" height="32"/>
  <object id="920" name="Pinheiro_BL" type="Tree" gid="1269" x="608" y="224" width="32" height="32"/>
  <object id="921" name="Pinheiro_BR" type="Tree" gid="1270" x="640" y="224" width="32" height="32"/>
  <object id="923" name="Carvalho_TL" type="Tree" gid="1255" x="96" y="608" width="32" height="32"/>
  <object id="924" name="Carvalho_TR" type="Tree" gid="1256" x="128" y="608" width="32" height="32"/>
  <object id="925" name="Carvalho_BL" type="Tree" gid="1271" x="96" y="640" width="32" height="32"/>
  <object id="926" name="Carvalho_BR" type="Tree" gid="1272" x="128" y="640" width="32" height="32"/>
  <object id="928" name="Pinheiro_TL" type="Tree" gid="1253" x="1280" y="224" width="32" height="32"/>
  <object id="929" name="Pinheiro_TR" type="Tree" gid="1254" x="1312" y="224" width="32" height="32"/>
  <object id="930" name="Pinheiro_BL" type="Tree" gid="1269" x="1280" y="256" width="32" height="32"/>
  <object id="931" name="Pinheiro_BR" type="Tree" gid="1270" x="1312" y="256" width="32" height="32"/>
  <object id="933" name="Carvalho_TL" type="Tree" gid="1255" x="160" y="1248" width="32" height="32"/>
  <object id="934" name="Carvalho_TR" type="Tree" gid="1256" x="192" y="1248" width="32" height="32"/>
  <object id="935" name="Carvalho_BL" type="Tree" gid="1271" x="160" y="1280" width="32" height="32"/>
  <object id="936" name="Carvalho_BR" type="Tree" gid="1272" x="192" y="1280" width="32" height="32"/>
  <object id="938" name="Pinheiro_TL" type="Tree" gid="1253" x="640" y="1248" width="32" height="32"/>
  <object id="939" name="Pinheiro_TR" type="Tree" gid="1254" x="672" y="1248" width="32" height="32"/>
  <object id="940" name="Pinheiro_BL" type="Tree" gid="1269" x="640" y="1280" width="32" height="32"/>
  <object id="941" name="Pinheiro_BR" type="Tree" gid="1270" x="672" y="1280" width="32" height="32"/>
  <object id="943" name="Carvalho_TL" type="Tree" gid="1255" x="1120" y="992" width="32" height="32"/>
  <object id="944" name="Carvalho_TR" type="Tree" gid="1256" x="1152" y="992" width="32" height="32"/>
  <object id="945" name="Carvalho_BL" type="Tree" gid="1271" x="1120" y="1024" width="32" height="32"/>
  <object id="946" name="Carvalho_BR" type="Tree" gid="1272" x="1152" y="1024" width="32" height="32"/>
  <object id="948" name="Pinheiro_TL" type="Tree" gid="1253" x="1216" y="1248" width="32" height="32"/>
  <object id="949" name="Pinheiro_TR" type="Tree" gid="1254" x="1248" y="1248" width="32" height="32"/>
  <object id="950" name="Pinheiro_BL" type="Tree" gid="1269" x="1216" y="1280" width="32" height="32"/>
  <object id="951" name="Pinheiro_BR" type="Tree" gid="1270" x="1248" y="1280" width="32" height="32"/>
  <object id="953" name="Pinheiro_TL" type="Tree" gid="1253" x="1344" y="608" width="32" height="32"/>
  <object id="954" name="Pinheiro_TR" type="Tree" gid="1254" x="1376" y="608" width="32" height="32"/>
  <object id="955" name="Pinheiro_BL" type="Tree" gid="1269" x="1344" y="640" width="32" height="32"/>
  <object id="956" name="Pinheiro_BR" type="Tree" gid="1270" x="1376" y="640" width="32" height="32"/>
  <object id="958" name="Carvalho_TL" type="Tree" gid="1255" x="64" y="928" width="32" height="32"/>
  <object id="959" name="Carvalho_TR" type="Tree" gid="1256" x="96" y="928" width="32" height="32"/>
  <object id="960" name="Carvalho_BL" type="Tree" gid="1271" x="64" y="960" width="32" height="32"/>
  <object id="961" name="Carvalho_BR" type="Tree" gid="1272" x="96" y="960" width="32" height="32"/>
  <object id="963" name="Pinheiro_TL" type="Tree" gid="1253" x="1280" y="96" width="32" height="32"/>
  <object id="964" name="Pinheiro_TR" type="Tree" gid="1254" x="1312" y="96" width="32" height="32"/>
  <object id="965" name="Pinheiro_BL" type="Tree" gid="1269" x="1280" y="128" width="32" height="32"/>
  <object id="966" name="Pinheiro_BR" type="Tree" gid="1270" x="1312" y="128" width="32" height="32"/>
  <object id="968" name="Carvalho_TL" type="Tree" gid="1255" x="800" y="96" width="32" height="32"/>
  <object id="969" name="Carvalho_TR" type="Tree" gid="1256" x="832" y="96" width="32" height="32"/>
  <object id="970" name="Carvalho_BL" type="Tree" gid="1271" x="800" y="128" width="32" height="32"/>
  <object id="971" name="Carvalho_BR" type="Tree" gid="1272" x="832" y="128" width="32" height="32"/>
  <object id="973" name="Pedra_Pedreira" type="Boulder" gid="3649" x="1600" y="224" width="32" height="32"/>
  <object id="975" name="Pedra_Pedreira" type="Boulder" gid="3649" x="1664" y="608" width="32" height="32"/>
  <object id="977" name="Pedra_Pedreira" type="Boulder" gid="3649" x="2080" y="288" width="32" height="32"/>
  <object id="979" name="Pedra_Pedreira" type="Boulder" gid="3649" x="2304" y="480" width="32" height="32"/>
  <object id="981" name="Pedra_Pedreira" type="Boulder" gid="3649" x="2240" y="1056" width="32" height="32"/>
  <object id="983" name="Pedra_Pedreira" type="Boulder" gid="3649" x="1760" y="992" width="32" height="32"/>
  <object id="985" name="Pedra_Pedreira" type="Boulder" gid="3649" x="1984" y="1248" width="32" height="32"/>
  <object id="987" name="CogumeloGigante_TL" type="Mushroom" gid="1381" x="128" y="1568" width="32" height="32"/>
  <object id="988" name="CogumeloGigante_TR" type="Mushroom" gid="1382" x="160" y="1568" width="32" height="32"/>
  <object id="989" name="CogumeloGigante_BL" type="Mushroom" gid="1397" x="128" y="1600" width="32" height="32"/>
  <object id="990" name="CogumeloGigante_BR" type="Mushroom" gid="1398" x="160" y="1600" width="32" height="32"/>
  <object id="992" name="CogumeloGigante_TL" type="Mushroom" gid="1381" x="800" y="1568" width="32" height="32"/>
  <object id="993" name="CogumeloGigante_TR" type="Mushroom" gid="1382" x="832" y="1568" width="32" height="32"/>
  <object id="994" name="CogumeloGigante_BL" type="Mushroom" gid="1397" x="800" y="1600" width="32" height="32"/>
  <object id="995" name="CogumeloGigante_BR" type="Mushroom" gid="1398" x="832" y="1600" width="32" height="32"/>
  <object id="997" name="CogumeloGigante_TL" type="Mushroom" gid="1381" x="192" y="2208" width="32" height="32"/>
  <object id="998" name="CogumeloGigante_TR" type="Mushroom" gid="1382" x="224" y="2208" width="32" height="32"/>
  <object id="999" name="CogumeloGigante_BL" type="Mushroom" gid="1397" x="192" y="2240" width="32" height="32"/>
  <object id="1000" name="CogumeloGigante_BR" type="Mushroom" gid="1398" x="224" y="2240" width="32" height="32"/>
  <object id="1002" name="CogumeloGigante_TL" type="Mushroom" gid="1381" x="704" y="2208" width="32" height="32"/>
  <object id="1003" name="CogumeloGigante_TR" type="Mushroom" gid="1382" x="736" y="2208" width="32" height="32"/>
  <object id="1004" name="CogumeloGigante_BL" type="Mushroom" gid="1397" x="704" y="2240" width="32" height="32"/>
  <object id="1005" name="CogumeloGigante_BR" type="Mushroom" gid="1398" x="736" y="2240" width="32" height="32"/>
  <object id="1007" name="CogumeloGigante_TL" type="Mushroom" gid="1381" x="1120" y="1888" width="32" height="32"/>
  <object id="1008" name="CogumeloGigante_TR" type="Mushroom" gid="1382" x="1152" y="1888" width="32" height="32"/>
  <object id="1009" name="CogumeloGigante_BL" type="Mushroom" gid="1397" x="1120" y="1920" width="32" height="32"/>
  <object id="1010" name="CogumeloGigante_BR" type="Mushroom" gid="1398" x="1152" y="1920" width="32" height="32"/>
  <object id="1012" name="CogumeloGigante_TL" type="Mushroom" gid="1381" x="896" y="2336" width="32" height="32"/>
  <object id="1013" name="CogumeloGigante_TR" type="Mushroom" gid="1382" x="928" y="2336" width="32" height="32"/>
  <object id="1014" name="CogumeloGigante_BL" type="Mushroom" gid="1397" x="896" y="2368" width="32" height="32"/>
  <object id="1015" name="CogumeloGigante_BR" type="Mushroom" gid="1398" x="928" y="2368" width="32" height="32"/>
  <object id="1027" name="Cacto_Deserto" type="Cactus" gid="1259" x="1600" y="1696" width="32" height="32"/>
  <object id="1029" name="Cacto_Deserto" type="Cactus" gid="1259" x="2304" y="1696" width="32" height="32"/>
  <object id="1031" name="Cacto_Deserto" type="Cactus" gid="1259" x="1664" y="2400" width="32" height="32"/>
  <object id="1033" name="Cacto_Deserto" type="Cactus" gid="1259" x="2400" y="2336" width="32" height="32"/>
  <object id="1035" name="Cacto_Deserto" type="Cactus" gid="1259" x="1920" y="1568" width="32" height="32"/>
  <object id="1037" name="Cacto_Deserto" type="Cactus" gid="1259" x="2240" y="1952" width="32" height="32"/>
 </objectgroup>
 <objectgroup id="4" name="Moveis_e_Decoracoes">
  <object id="265" name="Fonte_TL" type="Fountain" gid="4281" x="672" y="704" width="32" height="32"/>
  <object id="266" name="Fonte_TR" type="Fountain" gid="4282" x="704" y="704" width="32" height="32"/>
  <object id="267" name="Fonte_BL" type="Fountain" gid="4297" x="672" y="736" width="32" height="32"/>
  <object id="268" name="Fonte_BR" type="Fountain" gid="4298" x="704" y="736" width="32" height="32"/>
  <object id="348" name="Bau_Madeira_Esq" type="Chest" gid="4117" x="320" y="352" width="32" height="32"/>
  <object id="349" name="Bau_Madeira_Dir" type="Chest" gid="4118" x="352" y="352" width="32" height="32"/>
  <object id="351" name="Bau_Ouro_Esq" type="Chest" gid="4113" x="480" y="352" width="32" height="32"/>
  <object id="352" name="Bau_Ouro_Dir" type="Chest" gid="4114" x="512" y="352" width="32" height="32"/>
  <object id="354" name="Cama_Topo" type="Bed" gid="4468" x="288" y="448" width="32" height="32"/>
  <object id="355" name="Cama_Base" type="Bed" gid="4484" x="288" y="480" width="32" height="32"/>
  <object id="357" name="Mesa_Esq" type="Furniture" gid="4124" x="416" y="416" width="32" height="32"/>
  <object id="358" name="Mesa_Dir" type="Furniture" gid="4124" x="448" y="416" width="32" height="32"/>
  <object id="359" name="Cadeira_N1" type="Furniture" gid="4053" x="416" y="384" width="32" height="32"/>
  <object id="360" name="Cadeira_N2" type="Furniture" gid="4053" x="448" y="384" width="32" height="32"/>
  <object id="361" name="Cadeira_S1" type="Furniture" gid="4054" x="416" y="448" width="32" height="32"/>
  <object id="362" name="Cadeira_S2" type="Furniture" gid="4054" x="448" y="448" width="32" height="32"/>
  <object id="364" name="Tocha_Cabana" type="Torch" gid="4398" x="352" y="320" width="32" height="32"/>
  <object id="456" name="Forja_TL" type="Forge" gid="4279" x="896" y="352" width="32" height="32"/>
  <object id="457" name="Forja_TR" type="Forge" gid="4280" x="928" y="352" width="32" height="32"/>
  <object id="458" name="Forja_BL" type="Forge" gid="4295" x="896" y="384" width="32" height="32"/>
  <object id="459" name="Forja_BR" type="Forge" gid="4296" x="928" y="384" width="32" height="32"/>
  <object id="461" name="Pilar_TL" type="Pillar" gid="4213" x="1120" y="352" width="32" height="32"/>
  <object id="462" name="Pilar_TR" type="Pillar" gid="4214" x="1152" y="352" width="32" height="32"/>
  <object id="463" name="Pilar_BL" type="Pillar" gid="4229" x="1120" y="384" width="32" height="32"/>
  <object id="464" name="Pilar_BR" type="Pillar" gid="4230" x="1152" y="384" width="32" height="32"/>
  <object id="466" name="Bau_Madeira_Esq" type="Chest" gid="4117" x="1056" y="352" width="32" height="32"/>
  <object id="467" name="Bau_Madeira_Dir" type="Chest" gid="4118" x="1088" y="352" width="32" height="32"/>
  <object id="469" name="Barris_Ferraria" type="Barrel" gid="4074" x="1088" y="480" width="32" height="32"/>
  <object id="470" name="Caixa_Ferraria" type="Crate" gid="4073" x="1120" y="480" width="32" height="32"/>
  <object id="471" name="Toras_Madeira" type="WoodLogs" gid="4265" x="896" y="512" width="32" height="32"/>
  <object id="566" name="Pilar_TL" type="Pillar" gid="4213" x="320" y="928" width="32" height="32"/>
  <object id="567" name="Pilar_TR" type="Pillar" gid="4214" x="352" y="928" width="32" height="32"/>
  <object id="568" name="Pilar_BL" type="Pillar" gid="4229" x="320" y="960" width="32" height="32"/>
  <object id="569" name="Pilar_BR" type="Pillar" gid="4230" x="352" y="960" width="32" height="32"/>
  <object id="571" name="Pilar_TL" type="Pillar" gid="4213" x="544" y="928" width="32" height="32"/>
  <object id="572" name="Pilar_TR" type="Pillar" gid="4214" x="576" y="928" width="32" height="32"/>
  <object id="573" name="Pilar_BL" type="Pillar" gid="4229" x="544" y="960" width="32" height="32"/>
  <object id="574" name="Pilar_BR" type="Pillar" gid="4230" x="576" y="960" width="32" height="32"/>
  <object id="576" name="Mesa_Esq" type="Furniture" gid="4124" x="448" y="992" width="32" height="32"/>
  <object id="577" name="Mesa_Dir" type="Furniture" gid="4124" x="480" y="992" width="32" height="32"/>
  <object id="578" name="Cadeira_N1" type="Furniture" gid="4053" x="448" y="960" width="32" height="32"/>
  <object id="579" name="Cadeira_N2" type="Furniture" gid="4053" x="480" y="960" width="32" height="32"/>
  <object id="580" name="Cadeira_S1" type="Furniture" gid="4054" x="448" y="1024" width="32" height="32"/>
  <object id="581" name="Cadeira_S2" type="Furniture" gid="4054" x="480" y="1024" width="32" height="32"/>
  <object id="583" name="Bau_Ouro_Esq" type="Chest" gid="4113" x="320" y="1088" width="32" height="32"/>
  <object id="584" name="Bau_Ouro_Dir" type="Chest" gid="4114" x="352" y="1088" width="32" height="32"/>
  <object id="586" name="Bau_Ouro_Esq" type="Chest" gid="4113" x="544" y="1088" width="32" height="32"/>
  <object id="587" name="Bau_Ouro_Dir" type="Chest" gid="4114" x="576" y="1088" width="32" height="32"/>
  <object id="667" name="Bau_Madeira_Esq" type="Chest" gid="4117" x="1856" y="416" width="32" height="32"/>
  <object id="668" name="Bau_Madeira_Dir" type="Chest" gid="4118" x="1888" y="416" width="32" height="32"/>
  <object id="670" name="Cama_Topo" type="Bed" gid="4468" x="1824" y="512" width="32" height="32"/>
  <object id="671" name="Cama_Base" type="Bed" gid="4484" x="1824" y="544" width="32" height="32"/>
  <object id="673" name="Mesa_Esq" type="Furniture" gid="4124" x="1984" y="480" width="32" height="32"/>
  <object id="674" name="Mesa_Dir" type="Furniture" gid="4124" x="2016" y="480" width="32" height="32"/>
  <object id="675" name="Cadeira_N1" type="Furniture" gid="4053" x="1984" y="448" width="32" height="32"/>
  <object id="676" name="Cadeira_N2" type="Furniture" gid="4053" x="2016" y="448" width="32" height="32"/>
  <object id="677" name="Cadeira_S1" type="Furniture" gid="4054" x="1984" y="512" width="32" height="32"/>
  <object id="678" name="Cadeira_S2" type="Furniture" gid="4054" x="2016" y="512" width="32" height="32"/>
  <object id="774" name="Monolito_TL" type="Monolith" gid="4277" x="1792" y="2144" width="32" height="32"/>
  <object id="775" name="Monolito_TR" type="Monolith" gid="4278" x="1824" y="2144" width="32" height="32"/>
  <object id="776" name="Monolito_BL" type="Monolith" gid="4293" x="1792" y="2176" width="32" height="32"/>
  <object id="777" name="Monolito_BR" type="Monolith" gid="4294" x="1824" y="2176" width="32" height="32"/>
  <object id="779" name="Monolito_TL" type="Monolith" gid="4277" x="1984" y="2144" width="32" height="32"/>
  <object id="780" name="Monolito_TR" type="Monolith" gid="4278" x="2016" y="2144" width="32" height="32"/>
  <object id="781" name="Monolito_BL" type="Monolith" gid="4293" x="1984" y="2176" width="32" height="32"/>
  <object id="782" name="Monolito_BR" type="Monolith" gid="4294" x="2016" y="2176" width="32" height="32"/>
  <object id="784" name="Bau_Ouro_Esq" type="Chest" gid="4113" x="1888" y="2144" width="32" height="32"/>
  <object id="785" name="Bau_Ouro_Dir" type="Chest" gid="4114" x="1920" y="2144" width="32" height="32"/>
  <object id="787" name="Pilar_TL" type="Pillar" gid="4213" x="1792" y="2304" width="32" height="32"/>
  <object id="788" name="Pilar_TR" type="Pillar" gid="4214" x="1824" y="2304" width="32" height="32"/>
  <object id="789" name="Pilar_BL" type="Pillar" gid="4229" x="1792" y="2336" width="32" height="32"/>
  <object id="790" name="Pilar_BR" type="Pillar" gid="4230" x="1824" y="2336" width="32" height="32"/>
  <object id="792" name="Pilar_TL" type="Pillar" gid="4213" x="1984" y="2304" width="32" height="32"/>
  <object id="793" name="Pilar_TR" type="Pillar" gid="4214" x="2016" y="2304" width="32" height="32"/>
  <object id="794" name="Pilar_BL" type="Pillar" gid="4229" x="1984" y="2336" width="32" height="32"/>
  <object id="795" name="Pilar_BR" type="Pillar" gid="4230" x="2016" y="2336" width="32" height="32"/>
  <object id="875" name="Monolito_TL" type="Monolith" gid="4277" x="384" y="1760" width="32" height="32"/>
  <object id="876" name="Monolito_TR" type="Monolith" gid="4278" x="416" y="1760" width="32" height="32"/>
  <object id="877" name="Monolito_BL" type="Monolith" gid="4293" x="384" y="1792" width="32" height="32"/>
  <object id="878" name="Monolito_BR" type="Monolith" gid="4294" x="416" y="1792" width="32" height="32"/>
  <object id="880" name="Bau_Madeira_Esq" type="Chest" gid="4117" x="544" y="1760" width="32" height="32"/>
  <object id="881" name="Bau_Madeira_Dir" type="Chest" gid="4118" x="576" y="1760" width="32" height="32"/>
  <object id="883" name="Cama_Topo" type="Bed" gid="4468" x="352" y="1856" width="32" height="32"/>
  <object id="884" name="Cama_Base" type="Bed" gid="4484" x="352" y="1888" width="32" height="32"/>
  <object id="888" name="Placa_Minerios" type="Sign" gid="4163" x="1184" y="512" width="32" height="32"/>
  <object id="903" name="Pilar_TL" type="Pillar" gid="4213" x="2112" y="2112" width="32" height="32"/>
  <object id="904" name="Pilar_TR" type="Pillar" gid="4214" x="2144" y="2112" width="32" height="32"/>
  <object id="905" name="Pilar_BL" type="Pillar" gid="4229" x="2112" y="2144" width="32" height="32"/>
  <object id="906" name="Pilar_BR" type="Pillar" gid="4230" x="2144" y="2144" width="32" height="32"/>
  <object id="908" name="Pilar_TL" type="Pillar" gid="4213" x="2240" y="2112" width="32" height="32"/>
  <object id="909" name="Pilar_TR" type="Pillar" gid="4214" x="2272" y="2112" width="32" height="32"/>
  <object id="910" name="Pilar_BL" type="Pillar" gid="4229" x="2240" y="2144" width="32" height="32"/>
  <object id="911" name="Pilar_BR" type="Pillar" gid="4230" x="2272" y="2144" width="32" height="32"/>
  <object id="1017" name="Monolito_TL" type="Monolith" gid="4277" x="1024" y="1632" width="32" height="32"/>
  <object id="1018" name="Monolito_TR" type="Monolith" gid="4278" x="1056" y="1632" width="32" height="32"/>
  <object id="1019" name="Monolito_BL" type="Monolith" gid="4293" x="1024" y="1664" width="32" height="32"/>
  <object id="1020" name="Monolito_BR" type="Monolith" gid="4294" x="1056" y="1664" width="32" height="32"/>
  <object id="1022" name="Monolito_TL" type="Monolith" gid="4277" x="1152" y="1632" width="32" height="32"/>
  <object id="1023" name="Monolito_TR" type="Monolith" gid="4278" x="1184" y="1632" width="32" height="32"/>
  <object id="1024" name="Monolito_BL" type="Monolith" gid="4293" x="1152" y="1664" width="32" height="32"/>
  <object id="1025" name="Monolito_BR" type="Monolith" gid="4294" x="1184" y="1664" width="32" height="32"/>
 </objectgroup>
 <objectgroup id="5" name="Colisoes_e_Gatilhos">
  <object id="1" name="Colisao_Water" type="Water" x="0" y="1696" width="32" height="32">
  </object>
  <object id="2" name="Colisao_Water" type="Water" x="0" y="1728" width="32" height="32">
  </object>
  <object id="3" name="Colisao_Water" type="Water" x="0" y="1760" width="32" height="32">
  </object>
  <object id="4" name="Colisao_Water" type="Water" x="0" y="1792" width="32" height="32">
  </object>
  <object id="5" name="Colisao_Water" type="Water" x="0" y="1824" width="32" height="32">
  </object>
  <object id="6" name="Colisao_Water" type="Water" x="32" y="1728" width="32" height="32">
  </object>
  <object id="7" name="Colisao_Water" type="Water" x="32" y="1760" width="32" height="32">
  </object>
  <object id="8" name="Colisao_Water" type="Water" x="32" y="1792" width="32" height="32">
  </object>
  <object id="9" name="Colisao_Water" type="Water" x="32" y="1824" width="32" height="32">
  </object>
  <object id="10" name="Colisao_Water" type="Water" x="32" y="1856" width="32" height="32">
  </object>
  <object id="11" name="Colisao_Water" type="Water" x="64" y="1792" width="32" height="32">
  </object>
  <object id="12" name="Colisao_Water" type="Water" x="64" y="1824" width="32" height="32">
  </object>
  <object id="13" name="Colisao_Water" type="Water" x="64" y="1856" width="32" height="32">
  </object>
  <object id="14" name="Colisao_Water" type="Water" x="64" y="1888" width="32" height="32">
  </object>
  <object id="15" name="Colisao_Water" type="Water" x="64" y="1920" width="32" height="32">
  </object>
  <object id="16" name="Colisao_Water" type="Water" x="96" y="1824" width="32" height="32">
  </object>
  <object id="17" name="Colisao_Water" type="Water" x="96" y="1856" width="32" height="32">
  </object>
  <object id="18" name="Colisao_Water" type="Water" x="96" y="1888" width="32" height="32">
  </object>
  <object id="19" name="Colisao_Water" type="Water" x="96" y="1920" width="32" height="32">
  </object>
  <object id="20" name="Colisao_Water" type="Water" x="96" y="1952" width="32" height="32">
  </object>
  <object id="21" name="Colisao_Water" type="Water" x="128" y="1856" width="32" height="32">
  </object>
  <object id="22" name="Colisao_Water" type="Water" x="128" y="1888" width="32" height="32">
  </object>
  <object id="23" name="Colisao_Water" type="Water" x="128" y="1920" width="32" height="32">
  </object>
  <object id="24" name="Colisao_Water" type="Water" x="128" y="1952" width="32" height="32">
  </object>
  <object id="25" name="Colisao_Water" type="Water" x="128" y="1984" width="32" height="32">
  </object>
  <object id="26" name="Colisao_Water" type="Water" x="160" y="1888" width="32" height="32">
  </object>
  <object id="27" name="Colisao_Water" type="Water" x="160" y="1920" width="32" height="32">
  </object>
  <object id="28" name="Colisao_Water" type="Water" x="160" y="1952" width="32" height="32">
  </object>
  <object id="29" name="Colisao_Water" type="Water" x="160" y="1984" width="32" height="32">
  </object>
  <object id="30" name="Colisao_Water" type="Water" x="160" y="2016" width="32" height="32">
  </object>
  <object id="31" name="Colisao_Water" type="Water" x="192" y="1920" width="32" height="32">
  </object>
  <object id="32" name="Colisao_Water" type="Water" x="192" y="1952" width="32" height="32">
  </object>
  <object id="33" name="Colisao_Water" type="Water" x="192" y="1984" width="32" height="32">
  </object>
  <object id="34" name="Colisao_Water" type="Water" x="192" y="2016" width="32" height="32">
  </object>
  <object id="35" name="Colisao_Water" type="Water" x="192" y="2048" width="32" height="32">
  </object>
  <object id="36" name="Colisao_Water" type="Water" x="224" y="1920" width="32" height="32">
  </object>
  <object id="37" name="Colisao_Water" type="Water" x="224" y="1952" width="32" height="32">
  </object>
  <object id="38" name="Colisao_Water" type="Water" x="224" y="1984" width="32" height="32">
  </object>
  <object id="39" name="Colisao_Water" type="Water" x="224" y="2016" width="32" height="32">
  </object>
  <object id="40" name="Colisao_Water" type="Water" x="224" y="2048" width="32" height="32">
  </object>
  <object id="41" name="Colisao_Water" type="Water" x="256" y="1920" width="32" height="32">
  </object>
  <object id="42" name="Colisao_Water" type="Water" x="256" y="1952" width="32" height="32">
  </object>
  <object id="43" name="Colisao_Water" type="Water" x="256" y="1984" width="32" height="32">
  </object>
  <object id="44" name="Colisao_Water" type="Water" x="256" y="2016" width="32" height="32">
  </object>
  <object id="45" name="Colisao_Water" type="Water" x="256" y="2048" width="32" height="32">
  </object>
  <object id="46" name="Colisao_Water" type="Water" x="288" y="1920" width="32" height="32">
  </object>
  <object id="47" name="Colisao_Water" type="Water" x="288" y="1952" width="32" height="32">
  </object>
  <object id="48" name="Colisao_Water" type="Water" x="288" y="1984" width="32" height="32">
  </object>
  <object id="49" name="Colisao_Water" type="Water" x="288" y="2016" width="32" height="32">
  </object>
  <object id="50" name="Colisao_Water" type="Water" x="288" y="2048" width="32" height="32">
  </object>
  <object id="51" name="Colisao_Water" type="Water" x="320" y="1888" width="32" height="32">
  </object>
  <object id="52" name="Colisao_Water" type="Water" x="320" y="1920" width="32" height="32">
  </object>
  <object id="53" name="Colisao_Water" type="Water" x="320" y="1952" width="32" height="32">
  </object>
  <object id="54" name="Colisao_Water" type="Water" x="320" y="1984" width="32" height="32">
  </object>
  <object id="55" name="Colisao_Water" type="Water" x="320" y="2016" width="32" height="32">
  </object>
  <object id="56" name="Colisao_Water" type="Water" x="352" y="1888" width="32" height="32">
  </object>
  <object id="57" name="Colisao_Water" type="Water" x="352" y="1920" width="32" height="32">
  </object>
  <object id="58" name="Colisao_Water" type="Water" x="352" y="1952" width="32" height="32">
  </object>
  <object id="59" name="Colisao_Water" type="Water" x="352" y="1984" width="32" height="32">
  </object>
  <object id="60" name="Colisao_Water" type="Water" x="352" y="2016" width="32" height="32">
  </object>
  <object id="61" name="Colisao_Water" type="Water" x="384" y="1856" width="32" height="32">
  </object>
  <object id="62" name="Colisao_Water" type="Water" x="384" y="1888" width="32" height="32">
  </object>
  <object id="63" name="Colisao_Water" type="Water" x="384" y="1920" width="32" height="32">
  </object>
  <object id="64" name="Colisao_Water" type="Water" x="384" y="1952" width="32" height="32">
  </object>
  <object id="65" name="Colisao_Water" type="Water" x="384" y="1984" width="32" height="32">
  </object>
  <object id="66" name="Colisao_Water" type="Water" x="416" y="1824" width="32" height="32">
  </object>
  <object id="67" name="Colisao_Water" type="Water" x="416" y="1856" width="32" height="32">
  </object>
  <object id="68" name="Colisao_Water" type="Water" x="416" y="1888" width="32" height="32">
  </object>
  <object id="69" name="Colisao_Water" type="Water" x="416" y="1920" width="32" height="32">
  </object>
  <object id="70" name="Colisao_Water" type="Water" x="416" y="1952" width="32" height="32">
  </object>
  <object id="71" name="Colisao_Water" type="Water" x="448" y="1792" width="32" height="32">
  </object>
  <object id="72" name="Colisao_Water" type="Water" x="448" y="1824" width="32" height="32">
  </object>
  <object id="73" name="Colisao_Water" type="Water" x="448" y="1856" width="32" height="32">
  </object>
  <object id="74" name="Colisao_Water" type="Water" x="448" y="1888" width="32" height="32">
  </object>
  <object id="75" name="Colisao_Water" type="Water" x="448" y="1920" width="32" height="32">
  </object>
  <object id="76" name="Colisao_Water" type="Water" x="480" y="1792" width="32" height="32">
  </object>
  <object id="77" name="Colisao_Water" type="Water" x="480" y="1824" width="32" height="32">
  </object>
  <object id="78" name="Colisao_Water" type="Water" x="480" y="1856" width="32" height="32">
  </object>
  <object id="79" name="Colisao_Water" type="Water" x="480" y="1888" width="32" height="32">
  </object>
  <object id="80" name="Colisao_Water" type="Water" x="480" y="1920" width="32" height="32">
  </object>
  <object id="81" name="Colisao_Water" type="Water" x="512" y="1760" width="32" height="32">
  </object>
  <object id="82" name="Colisao_Water" type="Water" x="512" y="1792" width="32" height="32">
  </object>
  <object id="83" name="Colisao_Water" type="Water" x="512" y="1824" width="32" height="32">
  </object>
  <object id="84" name="Colisao_Water" type="Water" x="512" y="1856" width="32" height="32">
  </object>
  <object id="85" name="Colisao_Water" type="Water" x="512" y="1888" width="32" height="32">
  </object>
  <object id="86" name="Colisao_Water" type="Water" x="544" y="1760" width="32" height="32">
  </object>
  <object id="87" name="Colisao_Water" type="Water" x="544" y="1792" width="32" height="32">
  </object>
  <object id="88" name="Colisao_Water" type="Water" x="544" y="1824" width="32" height="32">
  </object>
  <object id="89" name="Colisao_Water" type="Water" x="544" y="1856" width="32" height="32">
  </object>
  <object id="90" name="Colisao_Water" type="Water" x="544" y="1888" width="32" height="32">
  </object>
  <object id="91" name="Colisao_Water" type="Water" x="576" y="1760" width="32" height="32">
  </object>
  <object id="92" name="Colisao_Water" type="Water" x="576" y="1792" width="32" height="32">
  </object>
  <object id="93" name="Colisao_Water" type="Water" x="576" y="1824" width="32" height="32">
  </object>
  <object id="94" name="Colisao_Water" type="Water" x="576" y="1856" width="32" height="32">
  </object>
  <object id="95" name="Colisao_Water" type="Water" x="576" y="1888" width="32" height="32">
  </object>
  <object id="96" name="Colisao_Water" type="Water" x="608" y="1760" width="32" height="32">
  </object>
  <object id="97" name="Colisao_Water" type="Water" x="608" y="1792" width="32" height="32">
  </object>
  <object id="98" name="Colisao_Water" type="Water" x="608" y="1824" width="32" height="32">
  </object>
  <object id="99" name="Colisao_Water" type="Water" x="608" y="1856" width="32" height="32">
  </object>
  <object id="100" name="Colisao_Water" type="Water" x="608" y="1888" width="32" height="32">
  </object>
  <object id="101" name="Colisao_Water" type="Water" x="640" y="1792" width="32" height="32">
  </object>
  <object id="102" name="Colisao_Water" type="Water" x="640" y="1824" width="32" height="32">
  </object>
  <object id="103" name="Colisao_Water" type="Water" x="640" y="1856" width="32" height="32">
  </object>
  <object id="104" name="Colisao_Water" type="Water" x="640" y="1888" width="32" height="32">
  </object>
  <object id="105" name="Colisao_Water" type="Water" x="640" y="1920" width="32" height="32">
  </object>
  <object id="106" name="Colisao_Water" type="Water" x="672" y="1824" width="32" height="32">
  </object>
  <object id="107" name="Colisao_Water" type="Water" x="672" y="1856" width="32" height="32">
  </object>
  <object id="108" name="Colisao_Water" type="Water" x="672" y="1888" width="32" height="32">
  </object>
  <object id="109" name="Colisao_Water" type="Water" x="672" y="1920" width="32" height="32">
  </object>
  <object id="110" name="Colisao_Water" type="Water" x="672" y="1952" width="32" height="32">
  </object>
  <object id="111" name="Colisao_Water" type="Water" x="704" y="1856" width="32" height="32">
  </object>
  <object id="112" name="Colisao_Water" type="Water" x="704" y="1888" width="32" height="32">
  </object>
  <object id="113" name="Colisao_Water" type="Water" x="704" y="1920" width="32" height="32">
  </object>
  <object id="114" name="Colisao_Water" type="Water" x="704" y="1952" width="32" height="32">
  </object>
  <object id="115" name="Colisao_Water" type="Water" x="704" y="1984" width="32" height="32">
  </object>
  <object id="116" name="Colisao_Water" type="Water" x="736" y="1888" width="32" height="32">
  </object>
  <object id="117" name="Colisao_Water" type="Water" x="736" y="1920" width="32" height="32">
  </object>
  <object id="118" name="Colisao_Water" type="Water" x="736" y="1952" width="32" height="32">
  </object>
  <object id="119" name="Colisao_Water" type="Water" x="736" y="1984" width="32" height="32">
  </object>
  <object id="120" name="Colisao_Water" type="Water" x="736" y="2016" width="32" height="32">
  </object>
  <object id="121" name="Colisao_Water" type="Water" x="768" y="1952" width="32" height="32">
  </object>
  <object id="122" name="Colisao_Water" type="Water" x="768" y="1984" width="32" height="32">
  </object>
  <object id="123" name="Colisao_Water" type="Water" x="768" y="2016" width="32" height="32">
  </object>
  <object id="124" name="Colisao_Water" type="Water" x="768" y="2048" width="32" height="32">
  </object>
  <object id="125" name="Colisao_Water" type="Water" x="768" y="2080" width="32" height="32">
  </object>
  <object id="126" name="Colisao_Water" type="Water" x="800" y="1984" width="32" height="32">
  </object>
  <object id="127" name="Colisao_Water" type="Water" x="800" y="2016" width="32" height="32">
  </object>
  <object id="128" name="Colisao_Water" type="Water" x="800" y="2048" width="32" height="32">
  </object>
  <object id="129" name="Colisao_Water" type="Water" x="800" y="2080" width="32" height="32">
  </object>
  <object id="130" name="Colisao_Water" type="Water" x="800" y="2112" width="32" height="32">
  </object>
  <object id="131" name="Colisao_Water" type="Water" x="832" y="2048" width="32" height="32">
  </object>
  <object id="132" name="Colisao_Water" type="Water" x="832" y="2080" width="32" height="32">
  </object>
  <object id="133" name="Colisao_Water" type="Water" x="832" y="2112" width="32" height="32">
  </object>
  <object id="134" name="Colisao_Water" type="Water" x="832" y="2144" width="32" height="32">
  </object>
  <object id="135" name="Colisao_Water" type="Water" x="832" y="2176" width="32" height="32">
  </object>
  <object id="136" name="Colisao_Water" type="Water" x="864" y="2112" width="32" height="32">
  </object>
  <object id="137" name="Colisao_Water" type="Water" x="864" y="2144" width="32" height="32">
  </object>
  <object id="138" name="Colisao_Water" type="Water" x="864" y="2176" width="32" height="32">
  </object>
  <object id="139" name="Colisao_Water" type="Water" x="864" y="2208" width="32" height="32">
  </object>
  <object id="140" name="Colisao_Water" type="Water" x="864" y="2240" width="32" height="32">
  </object>
  <object id="141" name="Colisao_Water" type="Water" x="896" y="2144" width="32" height="32">
  </object>
  <object id="142" name="Colisao_Water" type="Water" x="896" y="2176" width="32" height="32">
  </object>
  <object id="143" name="Colisao_Water" type="Water" x="896" y="2208" width="32" height="32">
  </object>
  <object id="144" name="Colisao_Water" type="Water" x="896" y="2240" width="32" height="32">
  </object>
  <object id="145" name="Colisao_Water" type="Water" x="896" y="2272" width="32" height="32">
  </object>
  <object id="146" name="Colisao_Water" type="Water" x="928" y="2176" width="32" height="32">
  </object>
  <object id="147" name="Colisao_Water" type="Water" x="928" y="2208" width="32" height="32">
  </object>
  <object id="148" name="Colisao_Water" type="Water" x="928" y="2240" width="32" height="32">
  </object>
  <object id="149" name="Colisao_Water" type="Water" x="928" y="2272" width="32" height="32">
  </object>
  <object id="150" name="Colisao_Water" type="Water" x="928" y="2304" width="32" height="32">
  </object>
  <object id="151" name="Colisao_Water" type="Water" x="960" y="2208" width="32" height="32">
  </object>
  <object id="152" name="Colisao_Water" type="Water" x="960" y="2240" width="32" height="32">
  </object>
  <object id="153" name="Colisao_Water" type="Water" x="960" y="2272" width="32" height="32">
  </object>
  <object id="154" name="Colisao_Water" type="Water" x="960" y="2304" width="32" height="32">
  </object>
  <object id="155" name="Colisao_Water" type="Water" x="960" y="2336" width="32" height="32">
  </object>
  <object id="156" name="Colisao_Water" type="Water" x="992" y="2240" width="32" height="32">
  </object>
  <object id="157" name="Colisao_Water" type="Water" x="992" y="2272" width="32" height="32">
  </object>
  <object id="158" name="Colisao_Water" type="Water" x="992" y="2304" width="32" height="32">
  </object>
  <object id="159" name="Colisao_Water" type="Water" x="992" y="2336" width="32" height="32">
  </object>
  <object id="160" name="Colisao_Water" type="Water" x="992" y="2368" width="32" height="32">
  </object>
  <object id="161" name="Colisao_Water" type="Water" x="1024" y="2240" width="32" height="32">
  </object>
  <object id="162" name="Colisao_Water" type="Water" x="1024" y="2272" width="32" height="32">
  </object>
  <object id="163" name="Colisao_Water" type="Water" x="1024" y="2304" width="32" height="32">
  </object>
  <object id="164" name="Colisao_Water" type="Water" x="1024" y="2336" width="32" height="32">
  </object>
  <object id="165" name="Colisao_Water" type="Water" x="1024" y="2368" width="32" height="32">
  </object>
  <object id="166" name="Colisao_Water" type="Water" x="1056" y="2240" width="32" height="32">
  </object>
  <object id="167" name="Colisao_Water" type="Water" x="1056" y="2272" width="32" height="32">
  </object>
  <object id="168" name="Colisao_Water" type="Water" x="1056" y="2304" width="32" height="32">
  </object>
  <object id="169" name="Colisao_Water" type="Water" x="1056" y="2336" width="32" height="32">
  </object>
  <object id="170" name="Colisao_Water" type="Water" x="1056" y="2368" width="32" height="32">
  </object>
  <object id="171" name="Colisao_Water" type="Water" x="1088" y="2240" width="32" height="32">
  </object>
  <object id="172" name="Colisao_Water" type="Water" x="1088" y="2272" width="32" height="32">
  </object>
  <object id="173" name="Colisao_Water" type="Water" x="1088" y="2304" width="32" height="32">
  </object>
  <object id="174" name="Colisao_Water" type="Water" x="1088" y="2336" width="32" height="32">
  </object>
  <object id="175" name="Colisao_Water" type="Water" x="1088" y="2368" width="32" height="32">
  </object>
  <object id="176" name="Colisao_Water" type="Water" x="1120" y="2240" width="32" height="32">
  </object>
  <object id="177" name="Colisao_Water" type="Water" x="1120" y="2272" width="32" height="32">
  </object>
  <object id="178" name="Colisao_Water" type="Water" x="1120" y="2304" width="32" height="32">
  </object>
  <object id="179" name="Colisao_Water" type="Water" x="1120" y="2336" width="32" height="32">
  </object>
  <object id="180" name="Colisao_Water" type="Water" x="1120" y="2368" width="32" height="32">
  </object>
  <object id="181" name="Colisao_Water" type="Water" x="1152" y="2208" width="32" height="32">
  </object>
  <object id="182" name="Colisao_Water" type="Water" x="1152" y="2240" width="32" height="32">
  </object>
  <object id="183" name="Colisao_Water" type="Water" x="1152" y="2272" width="32" height="32">
  </object>
  <object id="184" name="Colisao_Water" type="Water" x="1152" y="2304" width="32" height="32">
  </object>
  <object id="185" name="Colisao_Water" type="Water" x="1152" y="2336" width="32" height="32">
  </object>
  <object id="186" name="Colisao_Water" type="Water" x="1184" y="2176" width="32" height="32">
  </object>
  <object id="187" name="Colisao_Water" type="Water" x="1184" y="2208" width="32" height="32">
  </object>
  <object id="188" name="Colisao_Water" type="Water" x="1184" y="2240" width="32" height="32">
  </object>
  <object id="189" name="Colisao_Water" type="Water" x="1184" y="2272" width="32" height="32">
  </object>
  <object id="190" name="Colisao_Water" type="Water" x="1184" y="2304" width="32" height="32">
  </object>
  <object id="191" name="Colisao_Water" type="Water" x="1216" y="2144" width="32" height="32">
  </object>
  <object id="192" name="Colisao_Water" type="Water" x="1216" y="2176" width="32" height="32">
  </object>
  <object id="193" name="Colisao_Water" type="Water" x="1216" y="2208" width="32" height="32">
  </object>
  <object id="194" name="Colisao_Water" type="Water" x="1216" y="2240" width="32" height="32">
  </object>
  <object id="195" name="Colisao_Water" type="Water" x="1216" y="2272" width="32" height="32">
  </object>
  <object id="196" name="Colisao_Water" type="Water" x="1248" y="2144" width="32" height="32">
  </object>
  <object id="197" name="Colisao_Water" type="Water" x="1248" y="2176" width="32" height="32">
  </object>
  <object id="198" name="Colisao_Water" type="Water" x="1248" y="2208" width="32" height="32">
  </object>
  <object id="199" name="Colisao_Water" type="Water" x="1248" y="2240" width="32" height="32">
  </object>
  <object id="200" name="Colisao_Water" type="Water" x="1248" y="2272" width="32" height="32">
  </object>
  <object id="201" name="Colisao_Water" type="Water" x="1280" y="2112" width="32" height="32">
  </object>
  <object id="202" name="Colisao_Water" type="Water" x="1280" y="2144" width="32" height="32">
  </object>
  <object id="203" name="Colisao_Water" type="Water" x="1280" y="2176" width="32" height="32">
  </object>
  <object id="204" name="Colisao_Water" type="Water" x="1280" y="2208" width="32" height="32">
  </object>
  <object id="205" name="Colisao_Water" type="Water" x="1280" y="2240" width="32" height="32">
  </object>
  <object id="206" name="Colisao_Water" type="Water" x="1312" y="2080" width="32" height="32">
  </object>
  <object id="207" name="Colisao_Water" type="Water" x="1312" y="2112" width="32" height="32">
  </object>
  <object id="208" name="Colisao_Water" type="Water" x="1312" y="2144" width="32" height="32">
  </object>
  <object id="209" name="Colisao_Water" type="Water" x="1312" y="2176" width="32" height="32">
  </object>
  <object id="210" name="Colisao_Water" type="Water" x="1312" y="2208" width="32" height="32">
  </object>
  <object id="211" name="Colisao_Water" type="Water" x="1344" y="2080" width="32" height="32">
  </object>
  <object id="212" name="Colisao_Water" type="Water" x="1344" y="2112" width="32" height="32">
  </object>
  <object id="213" name="Colisao_Water" type="Water" x="1344" y="2144" width="32" height="32">
  </object>
  <object id="214" name="Colisao_Water" type="Water" x="1344" y="2176" width="32" height="32">
  </object>
  <object id="215" name="Colisao_Water" type="Water" x="1344" y="2208" width="32" height="32">
  </object>
  <object id="216" name="Colisao_Water" type="Water" x="1984" y="1664" width="32" height="32">
  </object>
  <object id="217" name="Colisao_Water" type="Water" x="1920" y="1696" width="32" height="32">
  </object>
  <object id="218" name="Colisao_Water" type="Water" x="1952" y="1696" width="32" height="32">
  </object>
  <object id="219" name="Colisao_Water" type="Water" x="1984" y="1696" width="32" height="32">
  </object>
  <object id="220" name="Colisao_Water" type="Water" x="2016" y="1696" width="32" height="32">
  </object>
  <object id="221" name="Colisao_Water" type="Water" x="2048" y="1696" width="32" height="32">
  </object>
  <object id="222" name="Colisao_Water" type="Water" x="1888" y="1728" width="32" height="32">
  </object>
  <object id="223" name="Colisao_Water" type="Water" x="1920" y="1728" width="32" height="32">
  </object>
  <object id="224" name="Colisao_Water" type="Water" x="1952" y="1728" width="32" height="32">
  </object>
  <object id="225" name="Colisao_Water" type="Water" x="1984" y="1728" width="32" height="32">
  </object>
  <object id="226" name="Colisao_Water" type="Water" x="2016" y="1728" width="32" height="32">
  </object>
  <object id="227" name="Colisao_Water" type="Water" x="2048" y="1728" width="32" height="32">
  </object>
  <object id="228" name="Colisao_Water" type="Water" x="2080" y="1728" width="32" height="32">
  </object>
  <object id="229" name="Colisao_Water" type="Water" x="1888" y="1760" width="32" height="32">
  </object>
  <object id="230" name="Colisao_Water" type="Water" x="1920" y="1760" width="32" height="32">
  </object>
  <object id="231" name="Colisao_Water" type="Water" x="1952" y="1760" width="32" height="32">
  </object>
  <object id="232" name="Colisao_Water" type="Water" x="1984" y="1760" width="32" height="32">
  </object>
  <object id="233" name="Colisao_Water" type="Water" x="2016" y="1760" width="32" height="32">
  </object>
  <object id="234" name="Colisao_Water" type="Water" x="2048" y="1760" width="32" height="32">
  </object>
  <object id="235" name="Colisao_Water" type="Water" x="2080" y="1760" width="32" height="32">
  </object>
  <object id="236" name="Colisao_Water" type="Water" x="1856" y="1792" width="32" height="32">
  </object>
  <object id="237" name="Colisao_Water" type="Water" x="1888" y="1792" width="32" height="32">
  </object>
  <object id="238" name="Colisao_Water" type="Water" x="1920" y="1792" width="32" height="32">
  </object>
  <object id="239" name="Colisao_Water" type="Water" x="1952" y="1792" width="32" height="32">
  </object>
  <object id="240" name="Colisao_Water" type="Water" x="1984" y="1792" width="32" height="32">
  </object>
  <object id="241" name="Colisao_Water" type="Water" x="2016" y="1792" width="32" height="32">
  </object>
  <object id="242" name="Colisao_Water" type="Water" x="2048" y="1792" width="32" height="32">
  </object>
  <object id="243" name="Colisao_Water" type="Water" x="2080" y="1792" width="32" height="32">
  </object>
  <object id="244" name="Colisao_Water" type="Water" x="2112" y="1792" width="32" height="32">
  </object>
  <object id="245" name="Colisao_Water" type="Water" x="1888" y="1824" width="32" height="32">
  </object>
  <object id="246" name="Colisao_Water" type="Water" x="1920" y="1824" width="32" height="32">
  </object>
  <object id="247" name="Colisao_Water" type="Water" x="1952" y="1824" width="32" height="32">
  </object>
  <object id="248" name="Colisao_Water" type="Water" x="1984" y="1824" width="32" height="32">
  </object>
  <object id="249" name="Colisao_Water" type="Water" x="2016" y="1824" width="32" height="32">
  </object>
  <object id="250" name="Colisao_Water" type="Water" x="2048" y="1824" width="32" height="32">
  </object>
  <object id="251" name="Colisao_Water" type="Water" x="2080" y="1824" width="32" height="32">
  </object>
  <object id="252" name="Colisao_Water" type="Water" x="1888" y="1856" width="32" height="32">
  </object>
  <object id="253" name="Colisao_Water" type="Water" x="1920" y="1856" width="32" height="32">
  </object>
  <object id="254" name="Colisao_Water" type="Water" x="1952" y="1856" width="32" height="32">
  </object>
  <object id="255" name="Colisao_Water" type="Water" x="1984" y="1856" width="32" height="32">
  </object>
  <object id="256" name="Colisao_Water" type="Water" x="2016" y="1856" width="32" height="32">
  </object>
  <object id="257" name="Colisao_Water" type="Water" x="2048" y="1856" width="32" height="32">
  </object>
  <object id="258" name="Colisao_Water" type="Water" x="2080" y="1856" width="32" height="32">
  </object>
  <object id="259" name="Colisao_Water" type="Water" x="1920" y="1888" width="32" height="32">
  </object>
  <object id="260" name="Colisao_Water" type="Water" x="1952" y="1888" width="32" height="32">
  </object>
  <object id="261" name="Colisao_Water" type="Water" x="1984" y="1888" width="32" height="32">
  </object>
  <object id="262" name="Colisao_Water" type="Water" x="2016" y="1888" width="32" height="32">
  </object>
  <object id="263" name="Colisao_Water" type="Water" x="2048" y="1888" width="32" height="32">
  </object>
  <object id="264" name="Colisao_Water" type="Water" x="1984" y="1920" width="32" height="32">
  </object>
  <object id="269" name="Colisao_Fountain" type="Fountain" x="672" y="672" width="64" height="64">
  </object>
  <object id="343" name="Colisao_SolidWall" type="SolidWall" x="224" y="224" width="384" height="64">
  </object>
  <object id="344" name="Colisao_SolidWall" type="SolidWall" x="256" y="288" width="32" height="224">
  </object>
  <object id="345" name="Colisao_SolidWall" type="SolidWall" x="544" y="288" width="32" height="224">
  </object>
  <object id="346" name="Colisao_SolidWall" type="SolidWall" x="288" y="480" width="128" height="32">
  </object>
  <object id="347" name="Colisao_SolidWall" type="SolidWall" x="448" y="480" width="128" height="32">
  </object>
  <object id="350" name="Colisao_Chest" type="Chest" x="320" y="320" width="64" height="32">
  </object>
  <object id="353" name="Colisao_Chest" type="Chest" x="480" y="320" width="64" height="32">
  </object>
  <object id="356" name="Colisao_Furniture" type="Furniture" x="288" y="416" width="32" height="64">
  </object>
  <object id="363" name="Colisao_Furniture" type="Furniture" x="416" y="384" width="64" height="32">
  </object>
  <object id="451" name="Colisao_SolidWall" type="SolidWall" x="800" y="224" width="448" height="64">
  </object>
  <object id="452" name="Colisao_SolidWall" type="SolidWall" x="832" y="288" width="32" height="256">
  </object>
  <object id="453" name="Colisao_SolidWall" type="SolidWall" x="1184" y="288" width="32" height="256">
  </object>
  <object id="454" name="Colisao_SolidWall" type="SolidWall" x="864" y="512" width="128" height="32">
  </object>
  <object id="455" name="Colisao_SolidWall" type="SolidWall" x="1024" y="512" width="192" height="32">
  </object>
  <object id="460" name="Colisao_Forge" type="Forge" x="896" y="320" width="64" height="64">
  </object>
  <object id="465" name="Colisao_Pillar" type="Pillar" x="1120" y="320" width="64" height="64">
  </object>
  <object id="468" name="Colisao_Chest" type="Chest" x="1056" y="320" width="64" height="32">
  </object>
  <object id="561" name="Colisao_SolidWall" type="SolidWall" x="224" y="800" width="448" height="64">
  </object>
  <object id="562" name="Colisao_SolidWall" type="SolidWall" x="256" y="864" width="32" height="288">
  </object>
  <object id="563" name="Colisao_SolidWall" type="SolidWall" x="608" y="864" width="32" height="288">
  </object>
  <object id="564" name="Colisao_SolidWall" type="SolidWall" x="288" y="1120" width="160" height="32">
  </object>
  <object id="565" name="Colisao_SolidWall" type="SolidWall" x="480" y="1120" width="160" height="32">
  </object>
  <object id="570" name="Colisao_Pillar" type="Pillar" x="320" y="896" width="64" height="64">
  </object>
  <object id="575" name="Colisao_Pillar" type="Pillar" x="544" y="896" width="64" height="64">
  </object>
  <object id="582" name="Colisao_Furniture" type="Furniture" x="448" y="960" width="64" height="32">
  </object>
  <object id="585" name="Colisao_Chest" type="Chest" x="320" y="1056" width="64" height="32">
  </object>
  <object id="588" name="Colisao_Chest" type="Chest" x="544" y="1056" width="64" height="32">
  </object>
  <object id="662" name="Colisao_SolidWall" type="SolidWall" x="1760" y="288" width="384" height="64">
  </object>
  <object id="663" name="Colisao_SolidWall" type="SolidWall" x="1792" y="352" width="32" height="224">
  </object>
  <object id="664" name="Colisao_SolidWall" type="SolidWall" x="2080" y="352" width="32" height="224">
  </object>
  <object id="665" name="Colisao_SolidWall" type="SolidWall" x="1824" y="544" width="128" height="32">
  </object>
  <object id="666" name="Colisao_SolidWall" type="SolidWall" x="1984" y="544" width="128" height="32">
  </object>
  <object id="669" name="Colisao_Chest" type="Chest" x="1856" y="384" width="64" height="32">
  </object>
  <object id="672" name="Colisao_Furniture" type="Furniture" x="1824" y="480" width="32" height="64">
  </object>
  <object id="679" name="Colisao_Furniture" type="Furniture" x="1984" y="448" width="64" height="32">
  </object>
  <object id="769" name="Colisao_SolidWall" type="SolidWall" x="1696" y="2016" width="448" height="64">
  </object>
  <object id="770" name="Colisao_SolidWall" type="SolidWall" x="1728" y="2080" width="32" height="288">
  </object>
  <object id="771" name="Colisao_SolidWall" type="SolidWall" x="2080" y="2080" width="32" height="288">
  </object>
  <object id="772" name="Colisao_SolidWall" type="SolidWall" x="1760" y="2336" width="160" height="32">
  </object>
  <object id="773" name="Colisao_SolidWall" type="SolidWall" x="1952" y="2336" width="160" height="32">
  </object>
  <object id="778" name="Colisao_Monolith" type="Monolith" x="1792" y="2112" width="64" height="64">
  </object>
  <object id="783" name="Colisao_Monolith" type="Monolith" x="1984" y="2112" width="64" height="64">
  </object>
  <object id="786" name="Colisao_Chest" type="Chest" x="1888" y="2112" width="64" height="32">
  </object>
  <object id="791" name="Colisao_Pillar" type="Pillar" x="1792" y="2272" width="64" height="64">
  </object>
  <object id="796" name="Colisao_Pillar" type="Pillar" x="1984" y="2272" width="64" height="64">
  </object>
  <object id="870" name="Colisao_SolidWall" type="SolidWall" x="288" y="1632" width="384" height="64">
  </object>
  <object id="871" name="Colisao_SolidWall" type="SolidWall" x="320" y="1696" width="32" height="224">
  </object>
  <object id="872" name="Colisao_SolidWall" type="SolidWall" x="608" y="1696" width="32" height="224">
  </object>
  <object id="873" name="Colisao_SolidWall" type="SolidWall" x="352" y="1888" width="128" height="32">
  </object>
  <object id="874" name="Colisao_SolidWall" type="SolidWall" x="512" y="1888" width="128" height="32">
  </object>
  <object id="879" name="Colisao_Monolith" type="Monolith" x="384" y="1728" width="64" height="64">
  </object>
  <object id="882" name="Colisao_Chest" type="Chest" x="544" y="1728" width="64" height="32">
  </object>
  <object id="885" name="Colisao_Furniture" type="Furniture" x="352" y="1824" width="32" height="64">
  </object>
  <object id="887" name="Entrada_Caverna_Minerios" type="TeleportTrigger" x="1216" y="448" width="32" height="32">
   <properties>
    <property name="destination_map" type="string" value="caverna_minerios.tmj"/>
    <property name="spawn_x" type="int" value="10"/>
    <property name="spawn_y" type="int" value="10"/>
   </properties>
  </object>
  <object id="890" name="Entrada_Caverna_Fungica" type="TeleportTrigger" x="2176" y="704" width="32" height="32">
   <properties>
    <property name="destination_map" type="string" value="caverna_fungica.tmj"/>
    <property name="spawn_x" type="int" value="10"/>
    <property name="spawn_y" type="int" value="10"/>
   </properties>
  </object>
  <object id="895" name="Colisao_Mushroom" type="Mushroom" x="2124" y="704" width="40" height="32">
  </object>
  <object id="900" name="Colisao_Mushroom" type="Mushroom" x="2252" y="704" width="40" height="32">
  </object>
  <object id="902" name="Entrada_Catacumbas_Deserto" type="TeleportTrigger" x="2176" y="2112" width="32" height="32">
   <properties>
    <property name="destination_map" type="string" value="catacumbas_deserto.tmj"/>
    <property name="spawn_x" type="int" value="10"/>
    <property name="spawn_y" type="int" value="10"/>
   </properties>
  </object>
  <object id="907" name="Colisao_Pillar" type="Pillar" x="2112" y="2080" width="64" height="64">
  </object>
  <object id="912" name="Colisao_Pillar" type="Pillar" x="2240" y="2080" width="64" height="64">
  </object>
  <object id="917" name="Colisao_Tree" type="Tree" x="136" y="160" width="48" height="32">
  </object>
  <object id="922" name="Colisao_Tree" type="Tree" x="616" y="192" width="48" height="32">
  </object>
  <object id="927" name="Colisao_Tree" type="Tree" x="104" y="608" width="48" height="32">
  </object>
  <object id="932" name="Colisao_Tree" type="Tree" x="1288" y="224" width="48" height="32">
  </object>
  <object id="937" name="Colisao_Tree" type="Tree" x="168" y="1248" width="48" height="32">
  </object>
  <object id="942" name="Colisao_Tree" type="Tree" x="648" y="1248" width="48" height="32">
  </object>
  <object id="947" name="Colisao_Tree" type="Tree" x="1128" y="992" width="48" height="32">
  </object>
  <object id="952" name="Colisao_Tree" type="Tree" x="1224" y="1248" width="48" height="32">
  </object>
  <object id="957" name="Colisao_Tree" type="Tree" x="1352" y="608" width="48" height="32">
  </object>
  <object id="962" name="Colisao_Tree" type="Tree" x="72" y="928" width="48" height="32">
  </object>
  <object id="967" name="Colisao_Tree" type="Tree" x="1288" y="96" width="48" height="32">
  </object>
  <object id="972" name="Colisao_Tree" type="Tree" x="808" y="96" width="48" height="32">
  </object>
  <object id="974" name="Colisao_Boulder" type="Boulder" x="1600" y="192" width="32" height="32">
  </object>
  <object id="976" name="Colisao_Boulder" type="Boulder" x="1664" y="576" width="32" height="32">
  </object>
  <object id="978" name="Colisao_Boulder" type="Boulder" x="2080" y="256" width="32" height="32">
  </object>
  <object id="980" name="Colisao_Boulder" type="Boulder" x="2304" y="448" width="32" height="32">
  </object>
  <object id="982" name="Colisao_Boulder" type="Boulder" x="2240" y="1024" width="32" height="32">
  </object>
  <object id="984" name="Colisao_Boulder" type="Boulder" x="1760" y="960" width="32" height="32">
  </object>
  <object id="986" name="Colisao_Boulder" type="Boulder" x="1984" y="1216" width="32" height="32">
  </object>
  <object id="991" name="Colisao_Mushroom" type="Mushroom" x="140" y="1568" width="40" height="32">
  </object>
  <object id="996" name="Colisao_Mushroom" type="Mushroom" x="812" y="1568" width="40" height="32">
  </object>
  <object id="1001" name="Colisao_Mushroom" type="Mushroom" x="204" y="2208" width="40" height="32">
  </object>
  <object id="1006" name="Colisao_Mushroom" type="Mushroom" x="716" y="2208" width="40" height="32">
  </object>
  <object id="1011" name="Colisao_Mushroom" type="Mushroom" x="1132" y="1888" width="40" height="32">
  </object>
  <object id="1016" name="Colisao_Mushroom" type="Mushroom" x="908" y="2336" width="40" height="32">
  </object>
  <object id="1021" name="Colisao_Monolith" type="Monolith" x="1024" y="1600" width="64" height="64">
  </object>
  <object id="1026" name="Colisao_Monolith" type="Monolith" x="1152" y="1600" width="64" height="64">
  </object>
  <object id="1028" name="Colisao_Cactus" type="Cactus" x="1608" y="1672" width="16" height="24">
  </object>
  <object id="1030" name="Colisao_Cactus" type="Cactus" x="2312" y="1672" width="16" height="24">
  </object>
  <object id="1032" name="Colisao_Cactus" type="Cactus" x="1672" y="2376" width="16" height="24">
  </object>
  <object id="1034" name="Colisao_Cactus" type="Cactus" x="2408" y="2312" width="16" height="24">
  </object>
  <object id="1036" name="Colisao_Cactus" type="Cactus" x="1928" y="1544" width="16" height="24">
  </object>
  <object id="1038" name="Colisao_Cactus" type="Cactus" x="2248" y="1928" width="16" height="24">
  </object>
 </objectgroup>
</map>
